(Project RT1101F Z Layout)
(Created by Estlcam version 11 build 11.244)
(Machining time about 00:30:39 hours)

(Required tools:)
(End Mill .115)
G20
G90
G94
M03 S26000
G00 Z0.19685


(No. 1: Hole 1)
G00 X0.86549 Y1.31102
G00 Z0.01969
G01 Z0.00000 F78.00 S26000
G01 Z-0.08000
G02 X0.88885 Y1.49969 I0.06615 J0.08759 F156.00
G02 X1.04057 Y1.38512 I0.04278 J-0.10108
G02 X0.86549 Y1.31102 I-0.10893 J0.01349
G01 Z-0.16000 F78.00
G02 X0.88885 Y1.49969 I0.06615 J0.08759 F156.00
G02 X1.04057 Y1.38512 I0.04278 J-0.10108
G02 X0.86549 Y1.31102 I-0.10893 J0.01349
G01 Z-0.24000 F78.00
G02 X0.88885 Y1.49969 I0.06615 J0.08759 F156.00
G02 X1.04057 Y1.38512 I0.04278 J-0.10108
G02 X0.86549 Y1.31102 I-0.10893 J0.01349
G01 Z-0.32000 F78.00
G02 X0.88885 Y1.49969 I0.06615 J0.08759 F156.00
G02 X1.04057 Y1.38512 I0.04278 J-0.10108
G02 X0.86549 Y1.31102 I-0.10893 J0.01349
G01 Z-0.40000 F78.00
G02 X0.88885 Y1.49969 I0.06615 J0.08759 F156.00
G02 X1.04057 Y1.38512 I0.04278 J-0.10108
G02 X0.86549 Y1.31102 I-0.10893 J0.01349
G01 Z-0.48000 F78.00
G02 X0.88885 Y1.49969 I0.06615 J0.08759 F156.00
G02 X1.04057 Y1.38512 I0.04278 J-0.10108
G02 X0.86549 Y1.31102 I-0.10893 J0.01349
G01 Z-0.52000 F78.00
G02 X0.88885 Y1.49969 I0.06615 J0.08759 F156.00
G02 X1.04057 Y1.38512 I0.04278 J-0.10108
G02 X0.86549 Y1.31102 I-0.10893 J0.01349
G00 Z0.19685


(No. 2: Hole 2)
G00 X1.48556 Y1.04257 Z0.19685
G00 Z0.01969
G01 Z0.00000 F78.00
G01 Z-0.08000
G02 X1.64030 Y1.31059 I0.15474 J0.08934 F156.00
G02 X1.79504 Y1.04257 I0.00000 J-0.17868
G02 X1.48556 I-0.15474 J0.08934
G01 Z-0.16000 F78.00
G02 X1.64030 Y1.31059 I0.15474 J0.08934 F156.00
G02 X1.79504 Y1.04257 I0.00000 J-0.17868
G02 X1.48556 I-0.15474 J0.08934
G01 Z-0.24000 F78.00
G02 X1.64030 Y1.31059 I0.15474 J0.08934 F156.00
G02 X1.79504 Y1.04257 I0.00000 J-0.17868
G02 X1.48556 I-0.15474 J0.08934
G01 Z-0.32000 F78.00
G02 X1.64030 Y1.31059 I0.15474 J0.08934 F156.00
G02 X1.79504 Y1.04257 I0.00000 J-0.17868
G02 X1.48556 I-0.15474 J0.08934
G01 Z-0.40000 F78.00
G02 X1.64030 Y1.31059 I0.15474 J0.08934 F156.00
G02 X1.79504 Y1.04257 I0.00000 J-0.17868
G02 X1.48556 I-0.15474 J0.08934
G01 Z-0.48000 F78.00
G02 X1.64030 Y1.31059 I0.15474 J0.08934 F156.00
G02 X1.79504 Y1.04257 I0.00000 J-0.17868
G02 X1.48556 I-0.15474 J0.08934
G01 Z-0.52000 F78.00
G02 X1.64030 Y1.31059 I0.15474 J0.08934 F156.00
G02 X1.79504 Y1.04257 I0.00000 J-0.17868
G02 X1.48556 I-0.15474 J0.08934
G00 Z0.19685


(No. 3: Hole 3)
G00 X2.25071 Y1.34968 Z0.19685
G00 Z0.01969
G01 Z0.00000 F78.00
G01 Z-0.08000
G02 X2.35572 Y1.50816 I0.09825 J0.04892 F156.00
G02 X2.44046 Y1.33798 I-0.00676 J-0.10955
G02 X2.25071 Y1.34968 I-0.09150 J0.06063
G01 Z-0.16000 F78.00
G02 X2.35572 Y1.50816 I0.09825 J0.04892 F156.00
G02 X2.44046 Y1.33798 I-0.00676 J-0.10955
G02 X2.25071 Y1.34968 I-0.09150 J0.06063
G01 Z-0.24000 F78.00
G02 X2.35572 Y1.50816 I0.09825 J0.04892 F156.00
G02 X2.44046 Y1.33798 I-0.00676 J-0.10955
G02 X2.25071 Y1.34968 I-0.09150 J0.06063
G01 Z-0.32000 F78.00
G02 X2.35572 Y1.50816 I0.09825 J0.04892 F156.00
G02 X2.44046 Y1.33798 I-0.00676 J-0.10955
G02 X2.25071 Y1.34968 I-0.09150 J0.06063
G01 Z-0.40000 F78.00
G02 X2.35572 Y1.50816 I0.09825 J0.04892 F156.00
G02 X2.44046 Y1.33798 I-0.00676 J-0.10955
G02 X2.25071 Y1.34968 I-0.09150 J0.06063
G01 Z-0.48000 F78.00
G02 X2.35572 Y1.50816 I0.09825 J0.04892 F156.00
G02 X2.44046 Y1.33798 I-0.00676 J-0.10955
G02 X2.25071 Y1.34968 I-0.09150 J0.06063
G01 Z-0.52000 F78.00
G02 X2.35572 Y1.50816 I0.09825 J0.04892 F156.00
G02 X2.44046 Y1.33798 I-0.00676 J-0.10955
G02 X2.25071 Y1.34968 I-0.09150 J0.06063
G00 Z0.19685


(No. 4: Hole 4)
G00 X2.52768 Y2.24374 Z0.19685
G00 Z0.01969
G01 Z0.00000 F78.00
G01 Z-0.08000
G01 X0.75292 F156.00
G01 X0.73608 Y2.22689
G01 X0.75292 Y2.24374
G01 Y2.91614
G01 X0.73608 Y2.93298
G01 X0.75292 Y2.91614
G01 X2.52768
G01 X2.54452 Y2.93298
G01 X2.52768 Y2.91614
G01 Y2.24374
G01 X2.54452 Y2.22689
G01 X2.52768 Y2.24374
G01 Z-0.16000 F78.00
G01 X0.75292 F156.00
G01 X0.73608 Y2.22689
G01 X0.75292 Y2.24374
G01 Y2.91614
G01 X0.73608 Y2.93298
G01 X0.75292 Y2.91614
G01 X2.52768
G01 X2.54452 Y2.93298
G01 X2.52768 Y2.91614
G01 Y2.24374
G01 X2.54452 Y2.22689
G01 X2.52768 Y2.24374
G01 Z-0.24000 F78.00
G01 X0.75292 F156.00
G01 X0.73608 Y2.22689
G01 X0.75292 Y2.24374
G01 Y2.91614
G01 X0.73608 Y2.93298
G01 X0.75292 Y2.91614
G01 X2.52768
G01 X2.54452 Y2.93298
G01 X2.52768 Y2.91614
G01 Y2.24374
G01 X2.54452 Y2.22689
G01 X2.52768 Y2.24374
G01 Z-0.32000 F78.00
G01 X0.75292 F156.00
G01 X0.73608 Y2.22689
G01 X0.75292 Y2.24374
G01 Y2.91614
G01 X0.73608 Y2.93298
G01 X0.75292 Y2.91614
G01 X2.52768
G01 X2.54452 Y2.93298
G01 X2.52768 Y2.91614
G01 Y2.24374
G01 X2.54452 Y2.22689
G01 X2.52768 Y2.24374
G01 Z-0.40000 F78.00
G01 X0.75292 F156.00
G01 X0.73608 Y2.22689
G01 X0.75292 Y2.24374
G01 Y2.91614
G01 X0.73608 Y2.93298
G01 X0.75292 Y2.91614
G01 X2.52768
G01 X2.54452 Y2.93298
G01 X2.52768 Y2.91614
G01 Y2.24374
G01 X2.54452 Y2.22689
G01 X2.52768 Y2.24374
G01 Z-0.48000 F78.00
G01 X0.75292 F156.00
G01 X0.73608 Y2.22689
G01 X0.75292 Y2.24374
G01 Y2.91614
G01 X0.73608 Y2.93298
G01 X0.75292 Y2.91614
G01 X2.52768
G01 X2.54452 Y2.93298
G01 X2.52768 Y2.91614
G01 Y2.24374
G01 X2.54452 Y2.22689
G01 X2.52768 Y2.24374
G01 Z-0.52000 F78.00
G01 X0.75292 F156.00
G01 X0.73608 Y2.22689
G01 X0.75292 Y2.24374
G01 Y2.91614
G01 X0.73608 Y2.93298
G01 X0.75292 Y2.91614
G01 X2.52768
G01 X2.54452 Y2.93298
G01 X2.52768 Y2.91614
G01 Y2.24374
G01 X2.54452 Y2.22689
G01 X2.52768 Y2.24374
G00 Z0.19685


(No. 5: Hole 5)
G00 X3.68704 Y1.97295 Z0.19685
G00 Z0.01969
G01 Z0.00000 F78.00
G01 Z-0.08000
G02 X5.25241 Y4.24816 I1.43948 J0.68572 F156.00
G02 X6.44011 Y1.75491 I-0.12589 J-1.58949
G02 X3.68704 Y1.97295 I-1.31359 J0.90376
G01 Z-0.16000 F78.00
G02 X5.25241 Y4.24816 I1.43948 J0.68572 F156.00
G02 X6.44011 Y1.75491 I-0.12589 J-1.58949
G02 X3.68704 Y1.97295 I-1.31359 J0.90376
G01 Z-0.24000 F78.00
G02 X5.25241 Y4.24816 I1.43948 J0.68572 F156.00
G02 X6.44011 Y1.75491 I-0.12589 J-1.58949
G02 X3.68704 Y1.97295 I-1.31359 J0.90376
G01 Z-0.32000 F78.00
G02 X5.25241 Y4.24816 I1.43948 J0.68572 F156.00
G02 X6.44011 Y1.75491 I-0.12589 J-1.58949
G02 X3.68704 Y1.97295 I-1.31359 J0.90376
G01 Z-0.40000 F78.00
G02 X5.25241 Y4.24816 I1.43948 J0.68572 F156.00
G02 X6.44011 Y1.75491 I-0.12589 J-1.58949
G02 X3.68704 Y1.97295 I-1.31359 J0.90376
G01 Z-0.48000 F78.00
G02 X5.25241 Y4.24816 I1.43948 J0.68572 F156.00
G02 X6.44011 Y1.75491 I-0.12589 J-1.58949
G02 X3.68704 Y1.97295 I-1.31359 J0.90376
G01 Z-0.52000 F78.00
G02 X5.25241 Y4.24816 I1.43948 J0.68572 F156.00
G02 X6.44011 Y1.75491 I-0.12589 J-1.58949
G02 X3.68704 Y1.97295 I-1.31359 J0.90376
G00 Z0.19685


(No. 6: Hole 6)
G00 X8.18396 Y2.47476 Z0.19685
G00 Z0.01969
G01 Z0.00000 F78.00
G01 Z-0.08000
G02 X9.08419 Y3.36234 I0.70634 J0.18392 F156.00
G02 X9.40274 Y2.13893 I-0.19389 J-0.70366
G02 X8.18396 Y2.47476 I-0.51244 J0.51975
G01 Z-0.16000 F78.00
G02 X9.08419 Y3.36234 I0.70634 J0.18392 F156.00
G02 X9.40274 Y2.13893 I-0.19389 J-0.70366
G02 X8.18396 Y2.47476 I-0.51244 J0.51975
G01 Z-0.24000 F78.00
G02 X9.08419 Y3.36234 I0.70634 J0.18392 F156.00
G02 X9.40274 Y2.13893 I-0.19389 J-0.70366
G02 X8.18396 Y2.47476 I-0.51244 J0.51975
G01 Z-0.32000 F78.00
G02 X9.08419 Y3.36234 I0.70634 J0.18392 F156.00
G02 X9.40274 Y2.13893 I-0.19389 J-0.70366
G02 X8.18396 Y2.47476 I-0.51244 J0.51975
G01 Z-0.40000 F78.00
G02 X9.08419 Y3.36234 I0.70634 J0.18392 F156.00
G02 X9.40274 Y2.13893 I-0.19389 J-0.70366
G02 X8.18396 Y2.47476 I-0.51244 J0.51975
G01 Z-0.48000 F78.00
G02 X9.08419 Y3.36234 I0.70634 J0.18392 F156.00
G02 X9.40274 Y2.13893 I-0.19389 J-0.70366
G02 X8.18396 Y2.47476 I-0.51244 J0.51975
G01 Z-0.52000 F78.00
G02 X9.08419 Y3.36234 I0.70634 J0.18392 F156.00
G02 X9.40274 Y2.13893 I-0.19389 J-0.70366
G02 X8.18396 Y2.47476 I-0.51244 J0.51975
G00 Z0.19685


(No. 7: Hole 8)
G00 X10.91941 Y2.13725 Z0.19685
G00 Z0.01969
G01 Z0.00000 F78.00
G01 Z-0.08000
G01 X10.56197 F156.00
G01 X10.54513 Y2.12041
G01 X10.56197 Y2.13725
G01 Y3.43957
G01 X10.54513 Y3.45641
G01 X10.56197 Y3.43957
G01 X10.91941
G01 X10.93626 Y3.45641
G01 X10.91941 Y3.43957
G01 Y2.13725
G01 X10.93626 Y2.12041
G01 X10.91941 Y2.13725
G01 Z-0.16000 F78.00
G01 X10.56197 F156.00
G01 X10.54513 Y2.12041
G01 X10.56197 Y2.13725
G01 Y3.43957
G01 X10.54513 Y3.45641
G01 X10.56197 Y3.43957
G01 X10.91941
G01 X10.93626 Y3.45641
G01 X10.91941 Y3.43957
G01 Y2.13725
G01 X10.93626 Y2.12041
G01 X10.91941 Y2.13725
G01 Z-0.24000 F78.00
G01 X10.56197 F156.00
G01 X10.54513 Y2.12041
G01 X10.56197 Y2.13725
G01 Y3.43957
G01 X10.54513 Y3.45641
G01 X10.56197 Y3.43957
G01 X10.91941
G01 X10.93626 Y3.45641
G01 X10.91941 Y3.43957
G01 Y2.13725
G01 X10.93626 Y2.12041
G01 X10.91941 Y2.13725
G01 Z-0.32000 F78.00
G01 X10.56197 F156.00
G01 X10.54513 Y2.12041
G01 X10.56197 Y2.13725
G01 Y3.43957
G01 X10.54513 Y3.45641
G01 X10.56197 Y3.43957
G01 X10.91941
G01 X10.93626 Y3.45641
G01 X10.91941 Y3.43957
G01 Y2.13725
G01 X10.93626 Y2.12041
G01 X10.91941 Y2.13725
G01 Z-0.40000 F78.00
G01 X10.56197 F156.00
G01 X10.54513 Y2.12041
G01 X10.56197 Y2.13725
G01 Y3.43957
G01 X10.54513 Y3.45641
G01 X10.56197 Y3.43957
G01 X10.91941
G01 X10.93626 Y3.45641
G01 X10.91941 Y3.43957
G01 Y2.13725
G01 X10.93626 Y2.12041
G01 X10.91941 Y2.13725
G01 Z-0.48000 F78.00
G01 X10.56197 F156.00
G01 X10.54513 Y2.12041
G01 X10.56197 Y2.13725
G01 Y3.43957
G01 X10.54513 Y3.45641
G01 X10.56197 Y3.43957
G01 X10.91941
G01 X10.93626 Y3.45641
G01 X10.91941 Y3.43957
G01 Y2.13725
G01 X10.93626 Y2.12041
G01 X10.91941 Y2.13725
G01 Z-0.52000 F78.00
G01 X10.56197 F156.00
G01 X10.54513 Y2.12041
G01 X10.56197 Y2.13725
G01 Y3.43957
G01 X10.54513 Y3.45641
G01 X10.56197 Y3.43957
G01 X10.91941
G01 X10.93626 Y3.45641
G01 X10.91941 Y3.43957
G01 Y2.13725
G01 X10.93626 Y2.12041
G01 X10.91941 Y2.13725
G00 Z0.19685


(No. 8: Hole 7)
G00 X10.63834 Y4.14640 Z0.19685
G00 Z0.01969
G01 Z0.00000 F78.00
G01 Z-0.08000
G02 X10.75753 Y4.29451 I0.10235 J0.03965 F156.00
G02 X10.82621 Y4.11723 I-0.01684 J-0.10846
G02 X10.63834 Y4.14640 I-0.08551 J0.06881
G01 Z-0.16000 F78.00
G02 X10.75753 Y4.29451 I0.10235 J0.03965 F156.00
G02 X10.82621 Y4.11723 I-0.01684 J-0.10846
G02 X10.63834 Y4.14640 I-0.08551 J0.06881
G01 Z-0.24000 F78.00
G02 X10.75753 Y4.29451 I0.10235 J0.03965 F156.00
G02 X10.82621 Y4.11723 I-0.01684 J-0.10846
G02 X10.63834 Y4.14640 I-0.08551 J0.06881
G01 Z-0.32000 F78.00
G02 X10.75753 Y4.29451 I0.10235 J0.03965 F156.00
G02 X10.82621 Y4.11723 I-0.01684 J-0.10846
G02 X10.63834 Y4.14640 I-0.08551 J0.06881
G01 Z-0.40000 F78.00
G02 X10.75753 Y4.29451 I0.10235 J0.03965 F156.00
G02 X10.82621 Y4.11723 I-0.01684 J-0.10846
G02 X10.63834 Y4.14640 I-0.08551 J0.06881
G01 Z-0.48000 F78.00
G02 X10.75753 Y4.29451 I0.10235 J0.03965 F156.00
G02 X10.82621 Y4.11723 I-0.01684 J-0.10846
G02 X10.63834 Y4.14640 I-0.08551 J0.06881
G01 Z-0.52000 F78.00
G02 X10.75753 Y4.29451 I0.10235 J0.03965 F156.00
G02 X10.82621 Y4.11723 I-0.01684 J-0.10846
G02 X10.63834 Y4.14640 I-0.08551 J0.06881
G00 Z0.19685


(No. 9: Hole 10)
G00 X13.51193 Y2.55851 Z0.19685
G00 Z0.01969
G01 Z0.00000 F78.00
G01 Z-0.08000
G01 X13.15449 F156.00
G01 X13.13765 Y2.54167
G01 X13.15449 Y2.55851
G01 Y3.23091
G01 X13.13765 Y3.24775
G01 X13.15449 Y3.23091
G01 X13.51193
G01 X13.52877 Y3.24775
G01 X13.51193 Y3.23091
G01 Y2.55851
G01 X13.52877 Y2.54167
G01 X13.51193 Y2.55851
G01 Z-0.16000 F78.00
G01 X13.15449 F156.00
G01 X13.13765 Y2.54167
G01 X13.15449 Y2.55851
G01 Y3.23091
G01 X13.13765 Y3.24775
G01 X13.15449 Y3.23091
G01 X13.51193
G01 X13.52877 Y3.24775
G01 X13.51193 Y3.23091
G01 Y2.55851
G01 X13.52877 Y2.54167
G01 X13.51193 Y2.55851
G01 Z-0.24000 F78.00
G01 X13.15449 F156.00
G01 X13.13765 Y2.54167
G01 X13.15449 Y2.55851
G01 Y3.23091
G01 X13.13765 Y3.24775
G01 X13.15449 Y3.23091
G01 X13.51193
G01 X13.52877 Y3.24775
G01 X13.51193 Y3.23091
G01 Y2.55851
G01 X13.52877 Y2.54167
G01 X13.51193 Y2.55851
G01 Z-0.32000 F78.00
G01 X13.15449 F156.00
G01 X13.13765 Y2.54167
G01 X13.15449 Y2.55851
G01 Y3.23091
G01 X13.13765 Y3.24775
G01 X13.15449 Y3.23091
G01 X13.51193
G01 X13.52877 Y3.24775
G01 X13.51193 Y3.23091
G01 Y2.55851
G01 X13.52877 Y2.54167
G01 X13.51193 Y2.55851
G01 Z-0.40000 F78.00
G01 X13.15449 F156.00
G01 X13.13765 Y2.54167
G01 X13.15449 Y2.55851
G01 Y3.23091
G01 X13.13765 Y3.24775
G01 X13.15449 Y3.23091
G01 X13.51193
G01 X13.52877 Y3.24775
G01 X13.51193 Y3.23091
G01 Y2.55851
G01 X13.52877 Y2.54167
G01 X13.51193 Y2.55851
G01 Z-0.48000 F78.00
G01 X13.15449 F156.00
G01 X13.13765 Y2.54167
G01 X13.15449 Y2.55851
G01 Y3.23091
G01 X13.13765 Y3.24775
G01 X13.15449 Y3.23091
G01 X13.51193
G01 X13.52877 Y3.24775
G01 X13.51193 Y3.23091
G01 Y2.55851
G01 X13.52877 Y2.54167
G01 X13.51193 Y2.55851
G01 Z-0.52000 F78.00
G01 X13.15449 F156.00
G01 X13.13765 Y2.54167
G01 X13.15449 Y2.55851
G01 Y3.23091
G01 X13.13765 Y3.24775
G01 X13.15449 Y3.23091
G01 X13.51193
G01 X13.52877 Y3.24775
G01 X13.51193 Y3.23091
G01 Y2.55851
G01 X13.52877 Y2.54167
G01 X13.51193 Y2.55851
G00 Z0.19685


(No. 10: Hole 9)
G00 X13.22392 Y1.93985 Z0.19685
G00 Z0.01969
G01 Z0.00000 F78.00
G01 Z-0.08000
G02 X13.37909 Y2.04969 I0.10929 J0.01013 F156.00
G02 X13.39663 Y1.86039 I-0.04588 J-0.09971
G02 X13.22392 Y1.93985 I-0.06342 J0.08959
G01 Z-0.16000 F78.00
G02 X13.37909 Y2.04969 I0.10929 J0.01013 F156.00
G02 X13.39663 Y1.86039 I-0.04588 J-0.09971
G02 X13.22392 Y1.93985 I-0.06342 J0.08959
G01 Z-0.24000 F78.00
G02 X13.37909 Y2.04969 I0.10929 J0.01013 F156.00
G02 X13.39663 Y1.86039 I-0.04588 J-0.09971
G02 X13.22392 Y1.93985 I-0.06342 J0.08959
G01 Z-0.32000 F78.00
G02 X13.37909 Y2.04969 I0.10929 J0.01013 F156.00
G02 X13.39663 Y1.86039 I-0.04588 J-0.09971
G02 X13.22392 Y1.93985 I-0.06342 J0.08959
G01 Z-0.40000 F78.00
G02 X13.37909 Y2.04969 I0.10929 J0.01013 F156.00
G02 X13.39663 Y1.86039 I-0.04588 J-0.09971
G02 X13.22392 Y1.93985 I-0.06342 J0.08959
G01 Z-0.48000 F78.00
G02 X13.37909 Y2.04969 I0.10929 J0.01013 F156.00
G02 X13.39663 Y1.86039 I-0.04588 J-0.09971
G02 X13.22392 Y1.93985 I-0.06342 J0.08959
G01 Z-0.52000 F78.00
G02 X13.37909 Y2.04969 I0.10929 J0.01013 F156.00
G02 X13.39663 Y1.86039 I-0.04588 J-0.09971
G02 X13.22392 Y1.93985 I-0.06342 J0.08959
G00 Z0.19685


(No. 11: Hole 21)
G00 X16.21549 Y2.33599 Z0.19685
G00 Z0.01969
G01 Z0.00000 F78.00
G01 Z-0.08000
G02 X17.43558 Y4.35061 I1.19162 J0.65510 F156.00
G02 X18.57024 Y2.28667 I-0.02848 J-1.35952
G02 X16.21549 Y2.33599 I-1.16314 J0.70442
G01 Z-0.16000 F78.00
G02 X17.43558 Y4.35061 I1.19162 J0.65510 F156.00
G02 X18.57024 Y2.28667 I-0.02848 J-1.35952
G02 X16.21549 Y2.33599 I-1.16314 J0.70442
G01 Z-0.24000 F78.00
G02 X17.43558 Y4.35061 I1.19162 J0.65510 F156.00
G02 X18.57024 Y2.28667 I-0.02848 J-1.35952
G02 X16.21549 Y2.33599 I-1.16314 J0.70442
G01 Z-0.32000 F78.00
G02 X17.43558 Y4.35061 I1.19162 J0.65510 F156.00
G02 X18.57024 Y2.28667 I-0.02848 J-1.35952
G02 X16.21549 Y2.33599 I-1.16314 J0.70442
G01 Z-0.40000 F78.00
G02 X17.43558 Y4.35061 I1.19162 J0.65510 F156.00
G02 X18.57024 Y2.28667 I-0.02848 J-1.35952
G02 X16.21549 Y2.33599 I-1.16314 J0.70442
G01 Z-0.48000 F78.00
G02 X17.43558 Y4.35061 I1.19162 J0.65510 F156.00
G02 X18.57024 Y2.28667 I-0.02848 J-1.35952
G02 X16.21549 Y2.33599 I-1.16314 J0.70442
G01 Z-0.52000 F78.00
G02 X17.43558 Y4.35061 I1.19162 J0.65510 F156.00
G02 X18.57024 Y2.28667 I-0.02848 J-1.35952
G02 X16.21549 Y2.33599 I-1.16314 J0.70442
G00 Z0.19685


(No. 12: Hole 22)
G00 X21.59319 Y2.74291 Z0.19685
G00 Z0.01969
G01 Z0.00000 F78.00
G01 Z-0.08000
G02 X22.24923 Y3.61804 I0.58065 J0.24818 F156.00
G02 X22.67909 Y2.61233 I-0.07539 J-0.62695
G02 X21.59319 Y2.74291 I-0.50525 J0.37876
G01 Z-0.16000 F78.00
G02 X22.24923 Y3.61804 I0.58065 J0.24818 F156.00
G02 X22.67909 Y2.61233 I-0.07539 J-0.62695
G02 X21.59319 Y2.74291 I-0.50525 J0.37876
G01 Z-0.24000 F78.00
G02 X22.24923 Y3.61804 I0.58065 J0.24818 F156.00
G02 X22.67909 Y2.61233 I-0.07539 J-0.62695
G02 X21.59319 Y2.74291 I-0.50525 J0.37876
G01 Z-0.32000 F78.00
G02 X22.24923 Y3.61804 I0.58065 J0.24818 F156.00
G02 X22.67909 Y2.61233 I-0.07539 J-0.62695
G02 X21.59319 Y2.74291 I-0.50525 J0.37876
G01 Z-0.40000 F78.00
G02 X22.24923 Y3.61804 I0.58065 J0.24818 F156.00
G02 X22.67909 Y2.61233 I-0.07539 J-0.62695
G02 X21.59319 Y2.74291 I-0.50525 J0.37876
G01 Z-0.48000 F78.00
G02 X22.24923 Y3.61804 I0.58065 J0.24818 F156.00
G02 X22.67909 Y2.61233 I-0.07539 J-0.62695
G02 X21.59319 Y2.74291 I-0.50525 J0.37876
G01 Z-0.52000 F78.00
G02 X22.24923 Y3.61804 I0.58065 J0.24818 F156.00
G02 X22.67909 Y2.61233 I-0.07539 J-0.62695
G02 X21.59319 Y2.74291 I-0.50525 J0.37876
G00 Z0.19685


(No. 13: Hole 25)
G00 X19.99602 Y10.68333 Z0.19685
G00 Z0.01969
G01 Z0.00000 F78.00
G01 Z-0.08000
G02 X21.51731 Y13.23103 I1.16194 J1.03423 F156.00
G02 X20.79965 Y10.20390 I-0.35798 J-1.51377
G02 X19.99602 Y10.68333 I0.35883 J1.51475
G01 Z-0.16000 F78.00
G02 X21.51731 Y13.23103 I1.16194 J1.03423 F156.00
G02 X20.79965 Y10.20390 I-0.35798 J-1.51377
G02 X19.99602 Y10.68333 I0.35883 J1.51475
G01 Z-0.24000 F78.00
G02 X21.51731 Y13.23103 I1.16194 J1.03423 F156.00
G02 X20.79965 Y10.20390 I-0.35798 J-1.51377
G02 X19.99602 Y10.68333 I0.35883 J1.51475
G01 Z-0.32000 F78.00
G02 X21.51731 Y13.23103 I1.16194 J1.03423 F156.00
G02 X20.79965 Y10.20390 I-0.35798 J-1.51377
G02 X19.99602 Y10.68333 I0.35883 J1.51475
G01 Z-0.40000 F78.00
G02 X21.51731 Y13.23103 I1.16194 J1.03423 F156.00
G02 X20.79965 Y10.20390 I-0.35798 J-1.51377
G02 X19.99602 Y10.68333 I0.35883 J1.51475
G01 Z-0.48000 F78.00
G02 X21.51731 Y13.23103 I1.16194 J1.03423 F156.00
G02 X20.79965 Y10.20390 I-0.35798 J-1.51377
G02 X19.99602 Y10.68333 I0.35883 J1.51475
G01 Z-0.52000 F78.00
G02 X21.51731 Y13.23103 I1.16194 J1.03423 F156.00
G02 X20.79965 Y10.20390 I-0.35798 J-1.51377
G02 X19.99602 Y10.68333 I0.35883 J1.51475
G00 Z0.19685


(No. 14: Hole 23)
G00 X18.16453 Y10.85993 Z0.19685
G00 Z0.01969
G01 Z0.00000 F78.00
G01 Z-0.08000
G02 X18.13232 Y10.93880 I0.07799 J0.07786 F156.00
G01 Y11.09377
G02 X18.35197 I0.10982 J0.00119
G01 Y10.93880
G02 X18.16453 Y10.85993 I-0.10981 J-0.00120
G01 Z-0.16000 F78.00
G02 X18.13232 Y10.93880 I0.07799 J0.07786 F156.00
G01 Y11.09377
G02 X18.35197 I0.10982 J0.00119
G01 Y10.93880
G02 X18.16453 Y10.85993 I-0.10981 J-0.00120
G01 Z-0.24000 F78.00
G02 X18.13232 Y10.93880 I0.07799 J0.07786 F156.00
G01 Y11.09377
G02 X18.35197 I0.10982 J0.00119
G01 Y10.93880
G02 X18.16453 Y10.85993 I-0.10981 J-0.00120
G01 Z-0.32000 F78.00
G02 X18.13232 Y10.93880 I0.07799 J0.07786 F156.00
G01 Y11.09377
G02 X18.35197 I0.10982 J0.00119
G01 Y10.93880
G02 X18.16453 Y10.85993 I-0.10981 J-0.00120
G01 Z-0.40000 F78.00
G02 X18.13232 Y10.93880 I0.07799 J0.07786 F156.00
G01 Y11.09377
G02 X18.35197 I0.10982 J0.00119
G01 Y10.93880
G02 X18.16453 Y10.85993 I-0.10981 J-0.00120
G01 Z-0.48000 F78.00
G02 X18.13232 Y10.93880 I0.07799 J0.07786 F156.00
G01 Y11.09377
G02 X18.35197 I0.10982 J0.00119
G01 Y10.93880
G02 X18.16453 Y10.85993 I-0.10981 J-0.00120
G01 Z-0.52000 F78.00
G02 X18.13232 Y10.93880 I0.07799 J0.07786 F156.00
G01 Y11.09377
G02 X18.35197 I0.10982 J0.00119
G01 Y10.93880
G02 X18.16453 Y10.85993 I-0.10981 J-0.00120
G00 Z0.19685


(No. 15: Hole 24)
G00 X18.16453 Y12.26229 Z0.19685
G00 Z0.01969
G01 Z0.00000 F78.00
G01 Z-0.08000
G02 X18.13232 Y12.34116 I0.07799 J0.07786 F156.00
G01 Y12.49613
G02 X18.35197 I0.10982 J0.00119
G01 Y12.34116
G02 X18.16453 Y12.26229 I-0.10981 J-0.00120
G01 Z-0.16000 F78.00
G02 X18.13232 Y12.34116 I0.07799 J0.07786 F156.00
G01 Y12.49613
G02 X18.35197 I0.10982 J0.00119
G01 Y12.34116
G02 X18.16453 Y12.26229 I-0.10981 J-0.00120
G01 Z-0.24000 F78.00
G02 X18.13232 Y12.34116 I0.07799 J0.07786 F156.00
G01 Y12.49613
G02 X18.35197 I0.10982 J0.00119
G01 Y12.34116
G02 X18.16453 Y12.26229 I-0.10981 J-0.00120
G01 Z-0.32000 F78.00
G02 X18.13232 Y12.34116 I0.07799 J0.07786 F156.00
G01 Y12.49613
G02 X18.35197 I0.10982 J0.00119
G01 Y12.34116
G02 X18.16453 Y12.26229 I-0.10981 J-0.00120
G01 Z-0.40000 F78.00
G02 X18.13232 Y12.34116 I0.07799 J0.07786 F156.00
G01 Y12.49613
G02 X18.35197 I0.10982 J0.00119
G01 Y12.34116
G02 X18.16453 Y12.26229 I-0.10981 J-0.00120
G01 Z-0.48000 F78.00
G02 X18.13232 Y12.34116 I0.07799 J0.07786 F156.00
G01 Y12.49613
G02 X18.35197 I0.10982 J0.00119
G01 Y12.34116
G02 X18.16453 Y12.26229 I-0.10981 J-0.00120
G01 Z-0.52000 F78.00
G02 X18.13232 Y12.34116 I0.07799 J0.07786 F156.00
G01 Y12.49613
G02 X18.35197 I0.10982 J0.00119
G01 Y12.34116
G02 X18.16453 Y12.26229 I-0.10981 J-0.00120
G00 Z0.19685


(No. 16: Hole 26)
G00 X13.86201 Y13.65807 Z0.19685
G00 Z0.01969
G01 Z0.00000 F78.00
G01 Z-0.08000
G02 X14.01257 Y14.15674 I0.21923 J0.20587 F156.00
G02 X14.36915 Y13.77702 I0.06867 J-0.29279
G02 X13.86201 Y13.65807 I-0.28790 J0.08692
G01 Z-0.16000 F78.00
G02 X14.01257 Y14.15674 I0.21923 J0.20587 F156.00
G02 X14.36915 Y13.77702 I0.06867 J-0.29279
G02 X13.86201 Y13.65807 I-0.28790 J0.08692
G01 Z-0.24000 F78.00
G02 X14.01257 Y14.15674 I0.21923 J0.20587 F156.00
G02 X14.36915 Y13.77702 I0.06867 J-0.29279
G02 X13.86201 Y13.65807 I-0.28790 J0.08692
G01 Z-0.32000 F78.00
G02 X14.01257 Y14.15674 I0.21923 J0.20587 F156.00
G02 X14.36915 Y13.77702 I0.06867 J-0.29279
G02 X13.86201 Y13.65807 I-0.28790 J0.08692
G01 Z-0.40000 F78.00
G02 X14.01257 Y14.15674 I0.21923 J0.20587 F156.00
G02 X14.36915 Y13.77702 I0.06867 J-0.29279
G02 X13.86201 Y13.65807 I-0.28790 J0.08692
G01 Z-0.48000 F78.00
G02 X14.01257 Y14.15674 I0.21923 J0.20587 F156.00
G02 X14.36915 Y13.77702 I0.06867 J-0.29279
G02 X13.86201 Y13.65807 I-0.28790 J0.08692
G01 Z-0.52000 F78.00
G02 X14.01257 Y14.15674 I0.21923 J0.20587 F156.00
G02 X14.36915 Y13.77702 I0.06867 J-0.29279
G02 X13.86201 Y13.65807 I-0.28790 J0.08692
G00 Z0.19685


(No. 17: Hole 30)
G00 X13.19697 Y15.82366 Z0.19685
G00 Z0.01969
G01 Z0.00000 F78.00
G01 Z-0.08000
G01 X12.52457 F156.00
G01 X12.50773 Y15.80682
G01 X12.52457 Y15.82366
G01 Y16.18111
G01 X12.50773 Y16.19795
G01 X12.52457 Y16.18111
G01 X13.19697
G01 X13.21381 Y16.19795
G01 X13.19697 Y16.18111
G01 Y15.82366
G01 X13.21381 Y15.80682
G01 X13.19697 Y15.82366
G01 Z-0.16000 F78.00
G01 X12.52457 F156.00
G01 X12.50773 Y15.80682
G01 X12.52457 Y15.82366
G01 Y16.18111
G01 X12.50773 Y16.19795
G01 X12.52457 Y16.18111
G01 X13.19697
G01 X13.21381 Y16.19795
G01 X13.19697 Y16.18111
G01 Y15.82366
G01 X13.21381 Y15.80682
G01 X13.19697 Y15.82366
G01 Z-0.24000 F78.00
G01 X12.52457 F156.00
G01 X12.50773 Y15.80682
G01 X12.52457 Y15.82366
G01 Y16.18111
G01 X12.50773 Y16.19795
G01 X12.52457 Y16.18111
G01 X13.19697
G01 X13.21381 Y16.19795
G01 X13.19697 Y16.18111
G01 Y15.82366
G01 X13.21381 Y15.80682
G01 X13.19697 Y15.82366
G01 Z-0.32000 F78.00
G01 X12.52457 F156.00
G01 X12.50773 Y15.80682
G01 X12.52457 Y15.82366
G01 Y16.18111
G01 X12.50773 Y16.19795
G01 X12.52457 Y16.18111
G01 X13.19697
G01 X13.21381 Y16.19795
G01 X13.19697 Y16.18111
G01 Y15.82366
G01 X13.21381 Y15.80682
G01 X13.19697 Y15.82366
G01 Z-0.40000 F78.00
G01 X12.52457 F156.00
G01 X12.50773 Y15.80682
G01 X12.52457 Y15.82366
G01 Y16.18111
G01 X12.50773 Y16.19795
G01 X12.52457 Y16.18111
G01 X13.19697
G01 X13.21381 Y16.19795
G01 X13.19697 Y16.18111
G01 Y15.82366
G01 X13.21381 Y15.80682
G01 X13.19697 Y15.82366
G01 Z-0.48000 F78.00
G01 X12.52457 F156.00
G01 X12.50773 Y15.80682
G01 X12.52457 Y15.82366
G01 Y16.18111
G01 X12.50773 Y16.19795
G01 X12.52457 Y16.18111
G01 X13.19697
G01 X13.21381 Y16.19795
G01 X13.19697 Y16.18111
G01 Y15.82366
G01 X13.21381 Y15.80682
G01 X13.19697 Y15.82366
G01 Z-0.52000 F78.00
G01 X12.52457 F156.00
G01 X12.50773 Y15.80682
G01 X12.52457 Y15.82366
G01 Y16.18111
G01 X12.50773 Y16.19795
G01 X12.52457 Y16.18111
G01 X13.19697
G01 X13.21381 Y16.19795
G01 X13.19697 Y16.18111
G01 Y15.82366
G01 X13.21381 Y15.80682
G01 X13.19697 Y15.82366
G00 Z0.19685


(No. 18: Hole 31)
G00 X13.15449 Y16.60477 Z0.19685
G00 Z0.01969
G01 Z0.00000 F78.00
G01 Z-0.08000
G01 Y16.96221 F156.00
G01 X13.13765 Y16.97905
G01 X13.15449 Y16.96221
G01 X13.51193
G01 X13.52877 Y16.97905
G01 X13.51193 Y16.96221
G01 Y16.60477
G01 X13.52877 Y16.58793
G01 X13.51193 Y16.60477
G01 X13.15449
G01 X13.13765 Y16.58793
G01 X13.15449 Y16.60477
G01 Z-0.16000 F78.00
G01 Y16.96221 F156.00
G01 X13.13765 Y16.97905
G01 X13.15449 Y16.96221
G01 X13.51193
G01 X13.52877 Y16.97905
G01 X13.51193 Y16.96221
G01 Y16.60477
G01 X13.52877 Y16.58793
G01 X13.51193 Y16.60477
G01 X13.15449
G01 X13.13765 Y16.58793
G01 X13.15449 Y16.60477
G01 Z-0.24000 F78.00
G01 Y16.96221 F156.00
G01 X13.13765 Y16.97905
G01 X13.15449 Y16.96221
G01 X13.51193
G01 X13.52877 Y16.97905
G01 X13.51193 Y16.96221
G01 Y16.60477
G01 X13.52877 Y16.58793
G01 X13.51193 Y16.60477
G01 X13.15449
G01 X13.13765 Y16.58793
G01 X13.15449 Y16.60477
G01 Z-0.32000 F78.00
G01 Y16.96221 F156.00
G01 X13.13765 Y16.97905
G01 X13.15449 Y16.96221
G01 X13.51193
G01 X13.52877 Y16.97905
G01 X13.51193 Y16.96221
G01 Y16.60477
G01 X13.52877 Y16.58793
G01 X13.51193 Y16.60477
G01 X13.15449
G01 X13.13765 Y16.58793
G01 X13.15449 Y16.60477
G01 Z-0.40000 F78.00
G01 Y16.96221 F156.00
G01 X13.13765 Y16.97905
G01 X13.15449 Y16.96221
G01 X13.51193
G01 X13.52877 Y16.97905
G01 X13.51193 Y16.96221
G01 Y16.60477
G01 X13.52877 Y16.58793
G01 X13.51193 Y16.60477
G01 X13.15449
G01 X13.13765 Y16.58793
G01 X13.15449 Y16.60477
G01 Z-0.48000 F78.00
G01 Y16.96221 F156.00
G01 X13.13765 Y16.97905
G01 X13.15449 Y16.96221
G01 X13.51193
G01 X13.52877 Y16.97905
G01 X13.51193 Y16.96221
G01 Y16.60477
G01 X13.52877 Y16.58793
G01 X13.51193 Y16.60477
G01 X13.15449
G01 X13.13765 Y16.58793
G01 X13.15449 Y16.60477
G01 Z-0.52000 F78.00
G01 Y16.96221 F156.00
G01 X13.13765 Y16.97905
G01 X13.15449 Y16.96221
G01 X13.51193
G01 X13.52877 Y16.97905
G01 X13.51193 Y16.96221
G01 Y16.60477
G01 X13.52877 Y16.58793
G01 X13.51193 Y16.60477
G01 X13.15449
G01 X13.13765 Y16.58793
G01 X13.15449 Y16.60477
G00 Z0.19685


(No. 19: Hole 29)
G00 X11.89699 Y15.91479 Z0.19685
G00 Z0.01969
G01 Z0.00000 F78.00
G01 Z-0.08000
G02 X11.92035 Y16.10346 I0.06615 J0.08759 F156.00
G02 X12.07206 Y15.98890 I0.04278 J-0.10108
G02 X11.89699 Y15.91479 I-0.10893 J0.01349
G01 Z-0.16000 F78.00
G02 X11.92035 Y16.10346 I0.06615 J0.08759 F156.00
G02 X12.07206 Y15.98890 I0.04278 J-0.10108
G02 X11.89699 Y15.91479 I-0.10893 J0.01349
G01 Z-0.24000 F78.00
G02 X11.92035 Y16.10346 I0.06615 J0.08759 F156.00
G02 X12.07206 Y15.98890 I0.04278 J-0.10108
G02 X11.89699 Y15.91479 I-0.10893 J0.01349
G01 Z-0.32000 F78.00
G02 X11.92035 Y16.10346 I0.06615 J0.08759 F156.00
G02 X12.07206 Y15.98890 I0.04278 J-0.10108
G02 X11.89699 Y15.91479 I-0.10893 J0.01349
G01 Z-0.40000 F78.00
G02 X11.92035 Y16.10346 I0.06615 J0.08759 F156.00
G02 X12.07206 Y15.98890 I0.04278 J-0.10108
G02 X11.89699 Y15.91479 I-0.10893 J0.01349
G01 Z-0.48000 F78.00
G02 X11.92035 Y16.10346 I0.06615 J0.08759 F156.00
G02 X12.07206 Y15.98890 I0.04278 J-0.10108
G02 X11.89699 Y15.91479 I-0.10893 J0.01349
G01 Z-0.52000 F78.00
G02 X11.92035 Y16.10346 I0.06615 J0.08759 F156.00
G02 X12.07206 Y15.98890 I0.04278 J-0.10108
G02 X11.89699 Y15.91479 I-0.10893 J0.01349
G00 Z0.19685


(No. 20: Hole 32)
G00 X11.81220 Y17.62034 Z0.19685
G00 Z0.01969
G01 Z0.00000 F78.00
G01 Z-0.08000
G02 X11.82316 Y17.72461 I0.03558 J0.04897 F156.00
G02 X11.90798 Y17.66299 I0.02462 J-0.05530
G02 X11.81220 Y17.62034 I-0.06020 J0.00633
G01 Z-0.16000 F78.00
G02 X11.82316 Y17.72461 I0.03558 J0.04897 F156.00
G02 X11.90798 Y17.66299 I0.02462 J-0.05530
G02 X11.81220 Y17.62034 I-0.06020 J0.00633
G01 Z-0.24000 F78.00
G02 X11.82316 Y17.72461 I0.03558 J0.04897 F156.00
G02 X11.90798 Y17.66299 I0.02462 J-0.05530
G02 X11.81220 Y17.62034 I-0.06020 J0.00633
G01 Z-0.32000 F78.00
G02 X11.82316 Y17.72461 I0.03558 J0.04897 F156.00
G02 X11.90798 Y17.66299 I0.02462 J-0.05530
G02 X11.81220 Y17.62034 I-0.06020 J0.00633
G01 Z-0.40000 F78.00
G02 X11.82316 Y17.72461 I0.03558 J0.04897 F156.00
G02 X11.90798 Y17.66299 I0.02462 J-0.05530
G02 X11.81220 Y17.62034 I-0.06020 J0.00633
G01 Z-0.48000 F78.00
G02 X11.82316 Y17.72461 I0.03558 J0.04897 F156.00
G02 X11.90798 Y17.66299 I0.02462 J-0.05530
G02 X11.81220 Y17.62034 I-0.06020 J0.00633
G01 Z-0.52000 F78.00
G02 X11.82316 Y17.72461 I0.03558 J0.04897 F156.00
G02 X11.90798 Y17.66299 I0.02462 J-0.05530
G02 X11.81220 Y17.62034 I-0.06020 J0.00633
G00 Z0.19685


(No. 21: Hole 33)
G00 X10.87263 Y17.61689 Z0.19685
G00 Z0.01969
G01 Z0.00000 F78.00
G01 Z-0.08000
G02 Y17.72174 I0.03027 J0.05242 F156.00
G02 X10.96343 Y17.66931 I0.03027 J-0.05242
G02 X10.87263 Y17.61689 I-0.06053 J0.00000
G01 Z-0.16000 F78.00
G02 Y17.72174 I0.03027 J0.05242 F156.00
G02 X10.96343 Y17.66931 I0.03027 J-0.05242
G02 X10.87263 Y17.61689 I-0.06053 J0.00000
G01 Z-0.24000 F78.00
G02 Y17.72174 I0.03027 J0.05242 F156.00
G02 X10.96343 Y17.66931 I0.03027 J-0.05242
G02 X10.87263 Y17.61689 I-0.06053 J0.00000
G01 Z-0.32000 F78.00
G02 Y17.72174 I0.03027 J0.05242 F156.00
G02 X10.96343 Y17.66931 I0.03027 J-0.05242
G02 X10.87263 Y17.61689 I-0.06053 J0.00000
G01 Z-0.40000 F78.00
G02 Y17.72174 I0.03027 J0.05242 F156.00
G02 X10.96343 Y17.66931 I0.03027 J-0.05242
G02 X10.87263 Y17.61689 I-0.06053 J0.00000
G01 Z-0.48000 F78.00
G02 Y17.72174 I0.03027 J0.05242 F156.00
G02 X10.96343 Y17.66931 I0.03027 J-0.05242
G02 X10.87263 Y17.61689 I-0.06053 J0.00000
G01 Z-0.52000 F78.00
G02 Y17.72174 I0.03027 J0.05242 F156.00
G02 X10.96343 Y17.66931 I0.03027 J-0.05242
G02 X10.87263 Y17.61689 I-0.06053 J0.00000
G00 Z0.19685


(No. 22: Hole 34)
G00 X10.87263 Y18.99485 Z0.19685
G00 Z0.01969
G01 Z0.00000 F78.00
G01 Z-0.08000
G02 Y19.09969 I0.03027 J0.05242 F156.00
G02 X10.96343 Y19.04727 I0.03027 J-0.05242
G02 X10.87263 Y18.99485 I-0.06053 J0.00000
G01 Z-0.16000 F78.00
G02 Y19.09969 I0.03027 J0.05242 F156.00
G02 X10.96343 Y19.04727 I0.03027 J-0.05242
G02 X10.87263 Y18.99485 I-0.06053 J0.00000
G01 Z-0.24000 F78.00
G02 Y19.09969 I0.03027 J0.05242 F156.00
G02 X10.96343 Y19.04727 I0.03027 J-0.05242
G02 X10.87263 Y18.99485 I-0.06053 J0.00000
G01 Z-0.32000 F78.00
G02 Y19.09969 I0.03027 J0.05242 F156.00
G02 X10.96343 Y19.04727 I0.03027 J-0.05242
G02 X10.87263 Y18.99485 I-0.06053 J0.00000
G01 Z-0.40000 F78.00
G02 Y19.09969 I0.03027 J0.05242 F156.00
G02 X10.96343 Y19.04727 I0.03027 J-0.05242
G02 X10.87263 Y18.99485 I-0.06053 J0.00000
G01 Z-0.48000 F78.00
G02 Y19.09969 I0.03027 J0.05242 F156.00
G02 X10.96343 Y19.04727 I0.03027 J-0.05242
G02 X10.87263 Y18.99485 I-0.06053 J0.00000
G01 Z-0.52000 F78.00
G02 Y19.09969 I0.03027 J0.05242 F156.00
G02 X10.96343 Y19.04727 I0.03027 J-0.05242
G02 X10.87263 Y18.99485 I-0.06053 J0.00000
G00 Z0.19685


(No. 23: Hole 35)
G00 X11.81751 Y18.99485 Z0.19685
G00 Z0.01969
G01 Z0.00000 F78.00
G01 Z-0.08000
G02 Y19.09969 I0.03027 J0.05242 F156.00
G02 X11.90831 Y19.04727 I0.03027 J-0.05242
G02 X11.81751 Y18.99485 I-0.06053 J0.00000
G01 Z-0.16000 F78.00
G02 Y19.09969 I0.03027 J0.05242 F156.00
G02 X11.90831 Y19.04727 I0.03027 J-0.05242
G02 X11.81751 Y18.99485 I-0.06053 J0.00000
G01 Z-0.24000 F78.00
G02 Y19.09969 I0.03027 J0.05242 F156.00
G02 X11.90831 Y19.04727 I0.03027 J-0.05242
G02 X11.81751 Y18.99485 I-0.06053 J0.00000
G01 Z-0.32000 F78.00
G02 Y19.09969 I0.03027 J0.05242 F156.00
G02 X11.90831 Y19.04727 I0.03027 J-0.05242
G02 X11.81751 Y18.99485 I-0.06053 J0.00000
G01 Z-0.40000 F78.00
G02 Y19.09969 I0.03027 J0.05242 F156.00
G02 X11.90831 Y19.04727 I0.03027 J-0.05242
G02 X11.81751 Y18.99485 I-0.06053 J0.00000
G01 Z-0.48000 F78.00
G02 Y19.09969 I0.03027 J0.05242 F156.00
G02 X11.90831 Y19.04727 I0.03027 J-0.05242
G02 X11.81751 Y18.99485 I-0.06053 J0.00000
G01 Z-0.52000 F78.00
G02 Y19.09969 I0.03027 J0.05242 F156.00
G02 X11.90831 Y19.04727 I0.03027 J-0.05242
G02 X11.81751 Y18.99485 I-0.06053 J0.00000
G00 Z0.19685


(No. 24: Hole 36)
G00 X13.15449 Y19.75437 Z0.19685
G00 Z0.01969
G01 Z0.00000 F78.00
G01 Z-0.08000
G01 Y20.11181 F156.00
G01 X13.13765 Y20.12866
G01 X13.15449 Y20.11181
G01 X13.51193
G01 X13.52877 Y20.12866
G01 X13.51193 Y20.11181
G01 Y19.75437
G01 X13.52877 Y19.73753
G01 X13.51193 Y19.75437
G01 X13.15449
G01 X13.13765 Y19.73753
G01 X13.15449 Y19.75437
G01 Z-0.16000 F78.00
G01 Y20.11181 F156.00
G01 X13.13765 Y20.12866
G01 X13.15449 Y20.11181
G01 X13.51193
G01 X13.52877 Y20.12866
G01 X13.51193 Y20.11181
G01 Y19.75437
G01 X13.52877 Y19.73753
G01 X13.51193 Y19.75437
G01 X13.15449
G01 X13.13765 Y19.73753
G01 X13.15449 Y19.75437
G01 Z-0.24000 F78.00
G01 Y20.11181 F156.00
G01 X13.13765 Y20.12866
G01 X13.15449 Y20.11181
G01 X13.51193
G01 X13.52877 Y20.12866
G01 X13.51193 Y20.11181
G01 Y19.75437
G01 X13.52877 Y19.73753
G01 X13.51193 Y19.75437
G01 X13.15449
G01 X13.13765 Y19.73753
G01 X13.15449 Y19.75437
G01 Z-0.32000 F78.00
G01 Y20.11181 F156.00
G01 X13.13765 Y20.12866
G01 X13.15449 Y20.11181
G01 X13.51193
G01 X13.52877 Y20.12866
G01 X13.51193 Y20.11181
G01 Y19.75437
G01 X13.52877 Y19.73753
G01 X13.51193 Y19.75437
G01 X13.15449
G01 X13.13765 Y19.73753
G01 X13.15449 Y19.75437
G01 Z-0.40000 F78.00
G01 Y20.11181 F156.00
G01 X13.13765 Y20.12866
G01 X13.15449 Y20.11181
G01 X13.51193
G01 X13.52877 Y20.12866
G01 X13.51193 Y20.11181
G01 Y19.75437
G01 X13.52877 Y19.73753
G01 X13.51193 Y19.75437
G01 X13.15449
G01 X13.13765 Y19.73753
G01 X13.15449 Y19.75437
G01 Z-0.48000 F78.00
G01 Y20.11181 F156.00
G01 X13.13765 Y20.12866
G01 X13.15449 Y20.11181
G01 X13.51193
G01 X13.52877 Y20.12866
G01 X13.51193 Y20.11181
G01 Y19.75437
G01 X13.52877 Y19.73753
G01 X13.51193 Y19.75437
G01 X13.15449
G01 X13.13765 Y19.73753
G01 X13.15449 Y19.75437
G01 Z-0.52000 F78.00
G01 Y20.11181 F156.00
G01 X13.13765 Y20.12866
G01 X13.15449 Y20.11181
G01 X13.51193
G01 X13.52877 Y20.12866
G01 X13.51193 Y20.11181
G01 Y19.75437
G01 X13.52877 Y19.73753
G01 X13.51193 Y19.75437
G01 X13.15449
G01 X13.13765 Y19.73753
G01 X13.15449 Y19.75437
G00 Z0.19685


(No. 25: Hole 37)
G00 X13.19697 Y20.53548 Z0.19685
G00 Z0.01969
G01 Z0.00000 F78.00
G01 Z-0.08000
G01 X12.52457 F156.00
G01 X12.50773 Y20.51863
G01 X12.52457 Y20.53548
G01 Y20.89292
G01 X12.50773 Y20.90976
G01 X12.52457 Y20.89292
G01 X13.19697
G01 X13.21381 Y20.90976
G01 X13.19697 Y20.89292
G01 Y20.53548
G01 X13.21381 Y20.51863
G01 X13.19697 Y20.53548
G01 Z-0.16000 F78.00
G01 X12.52457 F156.00
G01 X12.50773 Y20.51863
G01 X12.52457 Y20.53548
G01 Y20.89292
G01 X12.50773 Y20.90976
G01 X12.52457 Y20.89292
G01 X13.19697
G01 X13.21381 Y20.90976
G01 X13.19697 Y20.89292
G01 Y20.53548
G01 X13.21381 Y20.51863
G01 X13.19697 Y20.53548
G01 Z-0.24000 F78.00
G01 X12.52457 F156.00
G01 X12.50773 Y20.51863
G01 X12.52457 Y20.53548
G01 Y20.89292
G01 X12.50773 Y20.90976
G01 X12.52457 Y20.89292
G01 X13.19697
G01 X13.21381 Y20.90976
G01 X13.19697 Y20.89292
G01 Y20.53548
G01 X13.21381 Y20.51863
G01 X13.19697 Y20.53548
G01 Z-0.32000 F78.00
G01 X12.52457 F156.00
G01 X12.50773 Y20.51863
G01 X12.52457 Y20.53548
G01 Y20.89292
G01 X12.50773 Y20.90976
G01 X12.52457 Y20.89292
G01 X13.19697
G01 X13.21381 Y20.90976
G01 X13.19697 Y20.89292
G01 Y20.53548
G01 X13.21381 Y20.51863
G01 X13.19697 Y20.53548
G01 Z-0.40000 F78.00
G01 X12.52457 F156.00
G01 X12.50773 Y20.51863
G01 X12.52457 Y20.53548
G01 Y20.89292
G01 X12.50773 Y20.90976
G01 X12.52457 Y20.89292
G01 X13.19697
G01 X13.21381 Y20.90976
G01 X13.19697 Y20.89292
G01 Y20.53548
G01 X13.21381 Y20.51863
G01 X13.19697 Y20.53548
G01 Z-0.48000 F78.00
G01 X12.52457 F156.00
G01 X12.50773 Y20.51863
G01 X12.52457 Y20.53548
G01 Y20.89292
G01 X12.50773 Y20.90976
G01 X12.52457 Y20.89292
G01 X13.19697
G01 X13.21381 Y20.90976
G01 X13.19697 Y20.89292
G01 Y20.53548
G01 X13.21381 Y20.51863
G01 X13.19697 Y20.53548
G01 Z-0.52000 F78.00
G01 X12.52457 F156.00
G01 X12.50773 Y20.51863
G01 X12.52457 Y20.53548
G01 Y20.89292
G01 X12.50773 Y20.90976
G01 X12.52457 Y20.89292
G01 X13.19697
G01 X13.21381 Y20.90976
G01 X13.19697 Y20.89292
G01 Y20.53548
G01 X13.21381 Y20.51863
G01 X13.19697 Y20.53548
G00 Z0.19685


(No. 26: Hole 38)
G00 X11.90535 Y20.62087 Z0.19685
G00 Z0.01969
G01 Z0.00000 F78.00
G01 Z-0.08000
G02 X11.91121 Y20.81090 I0.05778 J0.09332 F156.00
G02 X12.07284 Y20.71082 I0.05193 J-0.09670
G02 X11.90535 Y20.62087 I-0.10971 J0.00338
G01 Z-0.16000 F78.00
G02 X11.91121 Y20.81090 I0.05778 J0.09332 F156.00
G02 X12.07284 Y20.71082 I0.05193 J-0.09670
G02 X11.90535 Y20.62087 I-0.10971 J0.00338
G01 Z-0.24000 F78.00
G02 X11.91121 Y20.81090 I0.05778 J0.09332 F156.00
G02 X12.07284 Y20.71082 I0.05193 J-0.09670
G02 X11.90535 Y20.62087 I-0.10971 J0.00338
G01 Z-0.32000 F78.00
G02 X11.91121 Y20.81090 I0.05778 J0.09332 F156.00
G02 X12.07284 Y20.71082 I0.05193 J-0.09670
G02 X11.90535 Y20.62087 I-0.10971 J0.00338
G01 Z-0.40000 F78.00
G02 X11.91121 Y20.81090 I0.05778 J0.09332 F156.00
G02 X12.07284 Y20.71082 I0.05193 J-0.09670
G02 X11.90535 Y20.62087 I-0.10971 J0.00338
G01 Z-0.48000 F78.00
G02 X11.91121 Y20.81090 I0.05778 J0.09332 F156.00
G02 X12.07284 Y20.71082 I0.05193 J-0.09670
G02 X11.90535 Y20.62087 I-0.10971 J0.00338
G01 Z-0.52000 F78.00
G02 X11.91121 Y20.81090 I0.05778 J0.09332 F156.00
G02 X12.07284 Y20.71082 I0.05193 J-0.09670
G02 X11.90535 Y20.62087 I-0.10971 J0.00338
G00 Z0.19685


(No. 27: Hole 41)
G00 X10.91941 Y21.00792 Z0.19685
G00 Z0.01969
G01 Z0.00000 F78.00
G01 Z-0.08000
G01 X10.56197 F156.00
G01 X10.54513 Y20.99108
G01 X10.56197 Y21.00792
G01 Y22.34961
G01 X10.54513 Y22.36645
G01 X10.56197 Y22.34961
G01 X10.91941
G01 X10.93626 Y22.36645
G01 X10.91941 Y22.34961
G01 Y21.00792
G01 X10.93626 Y20.99108
G01 X10.91941 Y21.00792
G01 Z-0.16000 F78.00
G01 X10.56197 F156.00
G01 X10.54513 Y20.99108
G01 X10.56197 Y21.00792
G01 Y22.34961
G01 X10.54513 Y22.36645
G01 X10.56197 Y22.34961
G01 X10.91941
G01 X10.93626 Y22.36645
G01 X10.91941 Y22.34961
G01 Y21.00792
G01 X10.93626 Y20.99108
G01 X10.91941 Y21.00792
G01 Z-0.24000 F78.00
G01 X10.56197 F156.00
G01 X10.54513 Y20.99108
G01 X10.56197 Y21.00792
G01 Y22.34961
G01 X10.54513 Y22.36645
G01 X10.56197 Y22.34961
G01 X10.91941
G01 X10.93626 Y22.36645
G01 X10.91941 Y22.34961
G01 Y21.00792
G01 X10.93626 Y20.99108
G01 X10.91941 Y21.00792
G01 Z-0.32000 F78.00
G01 X10.56197 F156.00
G01 X10.54513 Y20.99108
G01 X10.56197 Y21.00792
G01 Y22.34961
G01 X10.54513 Y22.36645
G01 X10.56197 Y22.34961
G01 X10.91941
G01 X10.93626 Y22.36645
G01 X10.91941 Y22.34961
G01 Y21.00792
G01 X10.93626 Y20.99108
G01 X10.91941 Y21.00792
G01 Z-0.40000 F78.00
G01 X10.56197 F156.00
G01 X10.54513 Y20.99108
G01 X10.56197 Y21.00792
G01 Y22.34961
G01 X10.54513 Y22.36645
G01 X10.56197 Y22.34961
G01 X10.91941
G01 X10.93626 Y22.36645
G01 X10.91941 Y22.34961
G01 Y21.00792
G01 X10.93626 Y20.99108
G01 X10.91941 Y21.00792
G01 Z-0.48000 F78.00
G01 X10.56197 F156.00
G01 X10.54513 Y20.99108
G01 X10.56197 Y21.00792
G01 Y22.34961
G01 X10.54513 Y22.36645
G01 X10.56197 Y22.34961
G01 X10.91941
G01 X10.93626 Y22.36645
G01 X10.91941 Y22.34961
G01 Y21.00792
G01 X10.93626 Y20.99108
G01 X10.91941 Y21.00792
G01 Z-0.52000 F78.00
G01 X10.56197 F156.00
G01 X10.54513 Y20.99108
G01 X10.56197 Y21.00792
G01 Y22.34961
G01 X10.54513 Y22.36645
G01 X10.56197 Y22.34961
G01 X10.91941
G01 X10.93626 Y22.36645
G01 X10.91941 Y22.34961
G01 Y21.00792
G01 X10.93626 Y20.99108
G01 X10.91941 Y21.00792
G00 Z0.19685


(No. 28: Hole 40)
G00 X10.69177 Y22.76161 Z0.19685
G00 Z0.01969
G01 Z0.00000 F78.00
G01 Z-0.08000
G02 X10.68006 Y22.95136 I0.04892 J0.09825 F156.00
G02 X10.85025 Y22.86662 I0.06063 J-0.09150
G02 X10.69177 Y22.76161 I-0.10955 J-0.00676
G01 Z-0.16000 F78.00
G02 X10.68006 Y22.95136 I0.04892 J0.09825 F156.00
G02 X10.85025 Y22.86662 I0.06063 J-0.09150
G02 X10.69177 Y22.76161 I-0.10955 J-0.00676
G01 Z-0.24000 F78.00
G02 X10.68006 Y22.95136 I0.04892 J0.09825 F156.00
G02 X10.85025 Y22.86662 I0.06063 J-0.09150
G02 X10.69177 Y22.76161 I-0.10955 J-0.00676
G01 Z-0.32000 F78.00
G02 X10.68006 Y22.95136 I0.04892 J0.09825 F156.00
G02 X10.85025 Y22.86662 I0.06063 J-0.09150
G02 X10.69177 Y22.76161 I-0.10955 J-0.00676
G01 Z-0.40000 F78.00
G02 X10.68006 Y22.95136 I0.04892 J0.09825 F156.00
G02 X10.85025 Y22.86662 I0.06063 J-0.09150
G02 X10.69177 Y22.76161 I-0.10955 J-0.00676
G01 Z-0.48000 F78.00
G02 X10.68006 Y22.95136 I0.04892 J0.09825 F156.00
G02 X10.85025 Y22.86662 I0.06063 J-0.09150
G02 X10.69177 Y22.76161 I-0.10955 J-0.00676
G01 Z-0.52000 F78.00
G02 X10.68006 Y22.95136 I0.04892 J0.09825 F156.00
G02 X10.85025 Y22.86662 I0.06063 J-0.09150
G02 X10.69177 Y22.76161 I-0.10955 J-0.00676
G00 Z0.19685


(No. 29: Hole 79)
G00 X8.97051 Y25.07279 Z0.19685
G00 Z0.01969
G01 Z-0.08000 F78.00
G01 Y24.62311 F156.00
G01 X8.89082
G01 Y25.67260
G01 X8.90945 Y25.88374
G01 X8.91048 Y27.84921
G01 X8.94981
G01 X8.95085 Y25.88892
G01 X8.97051 Y25.67260
G01 Y25.07279
G01 X9.02330 Y25.07324
G01 Y24.57033
G01 X8.83803
G01 Y25.67467
G01 X8.85666 Y25.89720
G01 X8.85770 Y27.90199
G01 X9.00260
G01 X9.00363 Y25.90237
G01 X9.02330 Y25.67467
G01 Y25.07324
G01 X9.04999 Y25.07484
G01 Y24.95943
G01 Y24.54296
G01 X9.06683 Y24.52611
G01 X9.04999 Y24.54296
G01 X8.81066
G01 X8.79382 Y24.52611
G01 X8.81066 Y24.54296
G01 Y25.67362
G01 X8.81063 Y25.67319
G01 X8.83012 Y25.90706
G01 X8.83035 Y26.51113
G01 Y26.69915
G01 Y27.63231
G01 Y27.92953
G01 X8.81351 Y27.94637
G01 X8.83035 Y27.92953
G01 X9.02687
G01 X9.04042 Y27.94445
G01 X9.02687 Y27.92953
G01 X9.03031 Y27.89418
G01 Y26.69246
G01 Y26.51744
G01 Y25.91262
G01 X9.04999 Y25.67362
G01 Y25.31293
G01 Y25.07484
G00 Z0.19685
G00 X8.97051 Y25.07651
G00 Z-0.06031
G01 Z-0.15750 F78.00
G01 Y24.62311 F156.00
G01 X8.89082
G01 Y25.67260
G01 X8.90945 Y25.88374
G01 X8.91048 Y27.84921
G01 X8.94981
G01 X8.95085 Y25.88892
G01 X8.97051 Y25.67260
G01 Y25.07651
G01 X9.02330 Y25.07693
G01 Y24.57033
G01 X8.83803
G01 Y25.67467
G01 X8.85666 Y25.89720
G01 X8.85770 Y27.90199
G01 X9.00260
G01 X9.00363 Y25.90237
G01 X9.02330 Y25.67467
G01 Y25.07693
G01 X9.04999 Y25.07841
G01 Y24.95943
G01 Y24.54296
G01 X9.06683 Y24.52611
G01 X9.04999 Y24.54296
G01 X8.81066
G01 X8.79382 Y24.52611
G01 X8.81066 Y24.54296
G01 Y25.67362
G01 X8.81063 Y25.67319
G01 X8.83012 Y25.90706
G01 X8.83035 Y26.51113
G01 Y26.69915
G01 Y27.63231
G01 Y27.92953
G01 X8.81351 Y27.94637
G01 X8.83035 Y27.92953
G01 X9.02687
G01 X9.04042 Y27.94445
G01 X9.02687 Y27.92953
G01 X9.03031 Y27.89418
G01 Y26.69246
G01 Y26.51744
G01 Y25.91262
G01 X9.04999 Y25.67362
G01 Y25.31293
G01 Y25.07841
G00 Z0.19685


(No. 30: Hole 76)
G00 X9.13651 Y25.01654 Z0.19685
G00 Z0.01969
G01 Z0.00000 F78.00
G01 Z-0.08000
G01 Y25.25582 F156.00
G01 X9.11966 Y25.27266
G01 X9.13651 Y25.25582
G01 X9.25778
G01 X9.27462 Y25.27266
G01 X9.25778 Y25.25582
G01 X9.25780 Y25.01654
G01 X9.27463 Y24.99971
G01 X9.25780 Y25.01654
G01 X9.13651
G01 X9.11966 Y24.99970
G01 X9.13651 Y25.01654
G01 Z-0.16000 F78.00
G01 Y25.25582 F156.00
G01 X9.11966 Y25.27266
G01 X9.13651 Y25.25582
G01 X9.25778
G01 X9.27462 Y25.27266
G01 X9.25778 Y25.25582
G01 X9.25780 Y25.01654
G01 X9.27463 Y24.99971
G01 X9.25780 Y25.01654
G01 X9.13651
G01 X9.11966 Y24.99970
G01 X9.13651 Y25.01654
G01 Z-0.24000 F78.00
G01 Y25.25582 F156.00
G01 X9.11966 Y25.27266
G01 X9.13651 Y25.25582
G01 X9.25778
G01 X9.27462 Y25.27266
G01 X9.25778 Y25.25582
G01 X9.25780 Y25.01654
G01 X9.27463 Y24.99971
G01 X9.25780 Y25.01654
G01 X9.13651
G01 X9.11966 Y24.99970
G01 X9.13651 Y25.01654
G01 Z-0.32000 F78.00
G01 Y25.25582 F156.00
G01 X9.11966 Y25.27266
G01 X9.13651 Y25.25582
G01 X9.25778
G01 X9.27462 Y25.27266
G01 X9.25778 Y25.25582
G01 X9.25780 Y25.01654
G01 X9.27463 Y24.99971
G01 X9.25780 Y25.01654
G01 X9.13651
G01 X9.11966 Y24.99970
G01 X9.13651 Y25.01654
G01 Z-0.40000 F78.00
G01 Y25.25582 F156.00
G01 X9.11966 Y25.27266
G01 X9.13651 Y25.25582
G01 X9.25778
G01 X9.27462 Y25.27266
G01 X9.25778 Y25.25582
G01 X9.25780 Y25.01654
G01 X9.27463 Y24.99971
G01 X9.25780 Y25.01654
G01 X9.13651
G01 X9.11966 Y24.99970
G01 X9.13651 Y25.01654
G01 Z-0.48000 F78.00
G01 Y25.25582 F156.00
G01 X9.11966 Y25.27266
G01 X9.13651 Y25.25582
G01 X9.25778
G01 X9.27462 Y25.27266
G01 X9.25778 Y25.25582
G01 X9.25780 Y25.01654
G01 X9.27463 Y24.99971
G01 X9.25780 Y25.01654
G01 X9.13651
G01 X9.11966 Y24.99970
G01 X9.13651 Y25.01654
G01 Z-0.52000 F78.00
G01 Y25.25582 F156.00
G01 X9.11966 Y25.27266
G01 X9.13651 Y25.25582
G01 X9.25778
G01 X9.27462 Y25.27266
G01 X9.25778 Y25.25582
G01 X9.25780 Y25.01654
G01 X9.27463 Y24.99971
G01 X9.25780 Y25.01654
G01 X9.13651
G01 X9.11966 Y24.99970
G01 X9.13651 Y25.01654
G00 Z0.19685


(No. 31: Hole 77)
G00 X8.59664 Y25.73649 Z0.19685
G00 Z0.01969
G01 Z0.00000 F78.00
G01 Z-0.08000
G02 X8.61612 Y25.85473 I0.01874 J0.05763 F156.00
G01 X9.24453
G02 Y25.73351 I0.00073 J-0.06061
G01 X8.61612
G02 X8.59664 Y25.73649 I-0.00058 J0.06127
G01 Z-0.16000 F78.00
G02 X8.61612 Y25.85473 I0.01874 J0.05763 F156.00
G01 X9.24453
G02 Y25.73351 I0.00073 J-0.06061
G01 X8.61612
G02 X8.59664 Y25.73649 I-0.00058 J0.06127
G01 Z-0.24000 F78.00
G02 X8.61612 Y25.85473 I0.01874 J0.05763 F156.00
G01 X9.24453
G02 Y25.73351 I0.00073 J-0.06061
G01 X8.61612
G02 X8.59664 Y25.73649 I-0.00058 J0.06127
G01 Z-0.31500 F78.00
G02 X8.61612 Y25.85473 I0.01874 J0.05763 F156.00
G01 X9.24453
G02 Y25.73351 I0.00073 J-0.06061
G01 X8.61612
G02 X8.59664 Y25.73649 I-0.00058 J0.06127
G00 Z0.19685


(No. 32: Hole 72)
G00 X8.19163 Y25.79839 Z0.19685
G00 Z0.01969
G01 Z0.00000 F78.00
G01 Z-0.08000
G02 X8.14526 Y25.98276 I0.03004 J0.10557 F156.00
G02 X8.32811 Y25.93073 I0.07641 J-0.07880
G02 X8.19163 Y25.79839 I-0.10645 J-0.02677
G01 Z-0.16000 F78.00
G02 X8.14526 Y25.98276 I0.03004 J0.10557 F156.00
G02 X8.32811 Y25.93073 I0.07641 J-0.07880
G02 X8.19163 Y25.79839 I-0.10645 J-0.02677
G01 Z-0.24000 F78.00
G02 X8.14526 Y25.98276 I0.03004 J0.10557 F156.00
G02 X8.32811 Y25.93073 I0.07641 J-0.07880
G02 X8.19163 Y25.79839 I-0.10645 J-0.02677
G01 Z-0.32000 F78.00
G02 X8.14526 Y25.98276 I0.03004 J0.10557 F156.00
G02 X8.32811 Y25.93073 I0.07641 J-0.07880
G02 X8.19163 Y25.79839 I-0.10645 J-0.02677
G01 Z-0.40000 F78.00
G02 X8.14526 Y25.98276 I0.03004 J0.10557 F156.00
G02 X8.32811 Y25.93073 I0.07641 J-0.07880
G02 X8.19163 Y25.79839 I-0.10645 J-0.02677
G01 Z-0.48000 F78.00
G02 X8.14526 Y25.98276 I0.03004 J0.10557 F156.00
G02 X8.32811 Y25.93073 I0.07641 J-0.07880
G02 X8.19163 Y25.79839 I-0.10645 J-0.02677
G01 Z-0.52000 F78.00
G02 X8.14526 Y25.98276 I0.03004 J0.10557 F156.00
G02 X8.32811 Y25.93073 I0.07641 J-0.07880
G02 X8.19163 Y25.79839 I-0.10645 J-0.02677
G00 Z0.19685


(No. 33: Hole 71)
G00 X8.19163 Y27.20075 Z0.19685
G00 Z0.01969
G01 Z0.00000 F78.00
G01 Z-0.08000
G02 X8.14526 Y27.38512 I0.03004 J0.10557 F156.00
G02 X8.32811 Y27.33309 I0.07641 J-0.07880
G02 X8.19163 Y27.20075 I-0.10645 J-0.02677
G01 Z-0.16000 F78.00
G02 X8.14526 Y27.38512 I0.03004 J0.10557 F156.00
G02 X8.32811 Y27.33309 I0.07641 J-0.07880
G02 X8.19163 Y27.20075 I-0.10645 J-0.02677
G01 Z-0.24000 F78.00
G02 X8.14526 Y27.38512 I0.03004 J0.10557 F156.00
G02 X8.32811 Y27.33309 I0.07641 J-0.07880
G02 X8.19163 Y27.20075 I-0.10645 J-0.02677
G01 Z-0.32000 F78.00
G02 X8.14526 Y27.38512 I0.03004 J0.10557 F156.00
G02 X8.32811 Y27.33309 I0.07641 J-0.07880
G02 X8.19163 Y27.20075 I-0.10645 J-0.02677
G01 Z-0.40000 F78.00
G02 X8.14526 Y27.38512 I0.03004 J0.10557 F156.00
G02 X8.32811 Y27.33309 I0.07641 J-0.07880
G02 X8.19163 Y27.20075 I-0.10645 J-0.02677
G01 Z-0.48000 F78.00
G02 X8.14526 Y27.38512 I0.03004 J0.10557 F156.00
G02 X8.32811 Y27.33309 I0.07641 J-0.07880
G02 X8.19163 Y27.20075 I-0.10645 J-0.02677
G01 Z-0.52000 F78.00
G02 X8.14526 Y27.38512 I0.03004 J0.10557 F156.00
G02 X8.32811 Y27.33309 I0.07641 J-0.07880
G02 X8.19163 Y27.20075 I-0.10645 J-0.02677
G00 Z0.19685


(No. 34: Hole 78)
G00 X8.74933 Y27.50908 Z0.19685
G00 Z0.01969
G01 Z0.00000 F78.00
G01 Z-0.08000
G01 X9.11133 F156.00
G01 X9.12283 Y27.51049
G03 X9.12434 Y27.46997 I0.13647 J-0.01518
G03 X9.18223 Y27.42521 I0.05689 J0.01376
G02 X9.17930 Y27.41461 I-0.00199 J-0.00516
G01 X9.08781
G01 X8.77285
G01 X8.68135
G02 X8.67994 Y27.42554 I-0.00097 J0.00543
G03 X8.73783 Y27.48309 I0.00030 J0.05759
G01 Y27.57520
G01 X8.72099 Y27.59204
G01 X8.73783 Y27.57520
G01 X8.77324
G01 X9.08741
G01 X9.12283
G01 X9.13967 Y27.59204
G01 X9.12283 Y27.57520
G01 Y27.51049
G01 X9.11133 Y27.50908
G01 Z-0.16000 F78.00
G01 X8.74933 F156.00
G01 X8.73783 Y27.51049
G01 Y27.57520
G01 X8.72099 Y27.59204
G01 X8.73783 Y27.57520
G01 X8.77324
G01 X9.08741
G01 X9.12283
G01 X9.13967 Y27.59204
G01 X9.12283 Y27.57520
G01 Y27.48309
G03 X9.18223 Y27.42521 I0.05827 J0.00038
G02 X9.17930 Y27.41461 I-0.00199 J-0.00516
G01 X9.08781
G01 X8.77285
G01 X8.68135
G02 X8.67994 Y27.42554 I-0.00097 J0.00543
G03 X8.73783 Y27.48309 I0.00030 J0.05759
G01 Y27.51049
G01 X8.74933 Y27.50908
G01 Z-0.24000 F78.00
G01 X9.11133 F156.00
G01 X9.12283 Y27.51049
G03 X9.12434 Y27.46997 I0.13647 J-0.01518
G03 X9.18223 Y27.42521 I0.05689 J0.01376
G02 X9.17930 Y27.41461 I-0.00199 J-0.00516
G01 X9.08781
G01 X8.77285
G01 X8.68135
G02 X8.67994 Y27.42554 I-0.00097 J0.00543
G03 X8.73783 Y27.48309 I0.00030 J0.05759
G01 Y27.57520
G01 X8.72099 Y27.59204
G01 X8.73783 Y27.57520
G01 X8.77324
G01 X9.08741
G01 X9.12283
G01 X9.13967 Y27.59204
G01 X9.12283 Y27.57520
G01 Y27.51049
G01 X9.11133 Y27.50908
G01 Z-0.30000 F78.00
G01 X8.74933 F156.00
G01 X8.73783 Y27.51049
G01 Y27.57520
G01 X8.72099 Y27.59204
G01 X8.73783 Y27.57520
G01 X8.77324
G01 X9.08741
G01 X9.12283
G01 X9.13967 Y27.59204
G01 X9.12283 Y27.57520
G01 Y27.48309
G03 X9.18223 Y27.42521 I0.05827 J0.00038
G02 X9.17930 Y27.41461 I-0.00199 J-0.00516
G01 X9.08781
G01 X8.77285
G01 X8.68135
G02 X8.67994 Y27.42554 I-0.00097 J0.00543
G03 X8.73783 Y27.48309 I0.00030 J0.05759
G01 Y27.51049
G01 X8.74933 Y27.50908
G00 Z0.19685


(No. 35: Hole 75)
G00 X9.25778 Y27.95446 Z0.19685
G00 Z0.01969
G01 Z0.00000 F78.00
G01 Z-0.08000
G01 X9.13656 F156.00
G01 X9.11972 Y27.93762
G01 X9.13656 Y27.95446
G01 Y27.98703
G01 Y28.19374
G01 X9.11972 Y28.21058
G01 X9.13656 Y28.19374
G01 X9.25778
G01 X9.27462 Y28.21058
G01 X9.25778 Y28.19374
G01 Y27.95446
G01 X9.27462 Y27.93762
G01 X9.25778 Y27.95446
G01 Z-0.16000 F78.00
G01 X9.13656 F156.00
G01 X9.11972 Y27.93762
G01 X9.13656 Y27.95446
G01 Y27.98703
G01 Y28.19374
G01 X9.11972 Y28.21058
G01 X9.13656 Y28.19374
G01 X9.25778
G01 X9.27462 Y28.21058
G01 X9.25778 Y28.19374
G01 Y27.95446
G01 X9.27462 Y27.93762
G01 X9.25778 Y27.95446
G01 Z-0.24000 F78.00
G01 X9.13656 F156.00
G01 X9.11972 Y27.93762
G01 X9.13656 Y27.95446
G01 Y27.98703
G01 Y28.19374
G01 X9.11972 Y28.21058
G01 X9.13656 Y28.19374
G01 X9.25778
G01 X9.27462 Y28.21058
G01 X9.25778 Y28.19374
G01 Y27.95446
G01 X9.27462 Y27.93762
G01 X9.25778 Y27.95446
G01 Z-0.32000 F78.00
G01 X9.13656 F156.00
G01 X9.11972 Y27.93762
G01 X9.13656 Y27.95446
G01 Y27.98703
G01 Y28.19374
G01 X9.11972 Y28.21058
G01 X9.13656 Y28.19374
G01 X9.25778
G01 X9.27462 Y28.21058
G01 X9.25778 Y28.19374
G01 Y27.95446
G01 X9.27462 Y27.93762
G01 X9.25778 Y27.95446
G01 Z-0.40000 F78.00
G01 X9.13656 F156.00
G01 X9.11972 Y27.93762
G01 X9.13656 Y27.95446
G01 Y27.98703
G01 Y28.19374
G01 X9.11972 Y28.21058
G01 X9.13656 Y28.19374
G01 X9.25778
G01 X9.27462 Y28.21058
G01 X9.25778 Y28.19374
G01 Y27.95446
G01 X9.27462 Y27.93762
G01 X9.25778 Y27.95446
G01 Z-0.48000 F78.00
G01 X9.13656 F156.00
G01 X9.11972 Y27.93762
G01 X9.13656 Y27.95446
G01 Y27.98703
G01 Y28.19374
G01 X9.11972 Y28.21058
G01 X9.13656 Y28.19374
G01 X9.25778
G01 X9.27462 Y28.21058
G01 X9.25778 Y28.19374
G01 Y27.95446
G01 X9.27462 Y27.93762
G01 X9.25778 Y27.95446
G01 Z-0.52000 F78.00
G01 X9.13656 F156.00
G01 X9.11972 Y27.93762
G01 X9.13656 Y27.95446
G01 Y27.98703
G01 Y28.19374
G01 X9.11972 Y28.21058
G01 X9.13656 Y28.19374
G01 X9.25778
G01 X9.27462 Y28.21058
G01 X9.25778 Y28.19374
G01 Y27.95446
G01 X9.27462 Y27.93762
G01 X9.25778 Y27.95446
G00 Z0.19685


(No. 36: Hole 65)
G00 X5.93798 Y27.96933 Z0.19685
G00 Z0.01969
G01 Z0.00000 F78.00
G01 Z-0.08000
G01 X5.69865 F156.00
G01 X5.68181 Y27.95249
G01 X5.69865 Y27.96933
G01 Y28.09055
G01 X5.68181 Y28.10740
G01 X5.69865 Y28.09055
G01 X5.93798
G01 X5.95483 Y28.10740
G01 X5.93798 Y28.09055
G01 Y27.96933
G01 X5.95483 Y27.95249
G01 X5.93798 Y27.96933
G01 Z-0.16000 F78.00
G01 X5.69865 F156.00
G01 X5.68181 Y27.95249
G01 X5.69865 Y27.96933
G01 Y28.09055
G01 X5.68181 Y28.10740
G01 X5.69865 Y28.09055
G01 X5.93798
G01 X5.95483 Y28.10740
G01 X5.93798 Y28.09055
G01 Y27.96933
G01 X5.95483 Y27.95249
G01 X5.93798 Y27.96933
G01 Z-0.24000 F78.00
G01 X5.69865 F156.00
G01 X5.68181 Y27.95249
G01 X5.69865 Y27.96933
G01 Y28.09055
G01 X5.68181 Y28.10740
G01 X5.69865 Y28.09055
G01 X5.93798
G01 X5.95483 Y28.10740
G01 X5.93798 Y28.09055
G01 Y27.96933
G01 X5.95483 Y27.95249
G01 X5.93798 Y27.96933
G01 Z-0.32000 F78.00
G01 X5.69865 F156.00
G01 X5.68181 Y27.95249
G01 X5.69865 Y27.96933
G01 Y28.09055
G01 X5.68181 Y28.10740
G01 X5.69865 Y28.09055
G01 X5.93798
G01 X5.95483 Y28.10740
G01 X5.93798 Y28.09055
G01 Y27.96933
G01 X5.95483 Y27.95249
G01 X5.93798 Y27.96933
G01 Z-0.40000 F78.00
G01 X5.69865 F156.00
G01 X5.68181 Y27.95249
G01 X5.69865 Y27.96933
G01 Y28.09055
G01 X5.68181 Y28.10740
G01 X5.69865 Y28.09055
G01 X5.93798
G01 X5.95483 Y28.10740
G01 X5.93798 Y28.09055
G01 Y27.96933
G01 X5.95483 Y27.95249
G01 X5.93798 Y27.96933
G01 Z-0.48000 F78.00
G01 X5.69865 F156.00
G01 X5.68181 Y27.95249
G01 X5.69865 Y27.96933
G01 Y28.09055
G01 X5.68181 Y28.10740
G01 X5.69865 Y28.09055
G01 X5.93798
G01 X5.95483 Y28.10740
G01 X5.93798 Y28.09055
G01 Y27.96933
G01 X5.95483 Y27.95249
G01 X5.93798 Y27.96933
G01 Z-0.52000 F78.00
G01 X5.69865 F156.00
G01 X5.68181 Y27.95249
G01 X5.69865 Y27.96933
G01 Y28.09055
G01 X5.68181 Y28.10740
G01 X5.69865 Y28.09055
G01 X5.93798
G01 X5.95483 Y28.10740
G01 X5.93798 Y28.09055
G01 Y27.96933
G01 X5.95483 Y27.95249
G01 X5.93798 Y27.96933
G00 Z0.19685


(No. 37: Hole 64)
G00 X5.93798 Y25.10713 Z0.19685
G00 Z0.01969
G01 Z0.00000 F78.00
G01 Z-0.08000
G01 X5.69865 F156.00
G01 X5.68181 Y25.09029
G01 X5.69865 Y25.10713
G01 Y25.22835
G01 X5.68181 Y25.24519
G01 X5.69865 Y25.22835
G01 X5.93798
G01 X5.95483 Y25.24519
G01 X5.93798 Y25.22835
G01 Y25.10713
G01 X5.95483 Y25.09029
G01 X5.93798 Y25.10713
G01 Z-0.16000 F78.00
G01 X5.69865 F156.00
G01 X5.68181 Y25.09029
G01 X5.69865 Y25.10713
G01 Y25.22835
G01 X5.68181 Y25.24519
G01 X5.69865 Y25.22835
G01 X5.93798
G01 X5.95483 Y25.24519
G01 X5.93798 Y25.22835
G01 Y25.10713
G01 X5.95483 Y25.09029
G01 X5.93798 Y25.10713
G01 Z-0.24000 F78.00
G01 X5.69865 F156.00
G01 X5.68181 Y25.09029
G01 X5.69865 Y25.10713
G01 Y25.22835
G01 X5.68181 Y25.24519
G01 X5.69865 Y25.22835
G01 X5.93798
G01 X5.95483 Y25.24519
G01 X5.93798 Y25.22835
G01 Y25.10713
G01 X5.95483 Y25.09029
G01 X5.93798 Y25.10713
G01 Z-0.32000 F78.00
G01 X5.69865 F156.00
G01 X5.68181 Y25.09029
G01 X5.69865 Y25.10713
G01 Y25.22835
G01 X5.68181 Y25.24519
G01 X5.69865 Y25.22835
G01 X5.93798
G01 X5.95483 Y25.24519
G01 X5.93798 Y25.22835
G01 Y25.10713
G01 X5.95483 Y25.09029
G01 X5.93798 Y25.10713
G01 Z-0.40000 F78.00
G01 X5.69865 F156.00
G01 X5.68181 Y25.09029
G01 X5.69865 Y25.10713
G01 Y25.22835
G01 X5.68181 Y25.24519
G01 X5.69865 Y25.22835
G01 X5.93798
G01 X5.95483 Y25.24519
G01 X5.93798 Y25.22835
G01 Y25.10713
G01 X5.95483 Y25.09029
G01 X5.93798 Y25.10713
G01 Z-0.48000 F78.00
G01 X5.69865 F156.00
G01 X5.68181 Y25.09029
G01 X5.69865 Y25.10713
G01 Y25.22835
G01 X5.68181 Y25.24519
G01 X5.69865 Y25.22835
G01 X5.93798
G01 X5.95483 Y25.24519
G01 X5.93798 Y25.22835
G01 Y25.10713
G01 X5.95483 Y25.09029
G01 X5.93798 Y25.10713
G01 Z-0.52000 F78.00
G01 X5.69865 F156.00
G01 X5.68181 Y25.09029
G01 X5.69865 Y25.10713
G01 Y25.22835
G01 X5.68181 Y25.24519
G01 X5.69865 Y25.22835
G01 X5.93798
G01 X5.95483 Y25.24519
G01 X5.93798 Y25.22835
G01 Y25.10713
G01 X5.95483 Y25.09029
G01 X5.93798 Y25.10713
G00 Z0.19685


(No. 38: Hole 46)
G00 X3.33489 Y22.55427 Z0.19685
G00 Z0.01969
G01 Z0.00000 F78.00
G01 Z-0.08000
G02 X3.13304 Y23.03446 I0.03769 J0.29837 F156.00
G02 X3.64982 Y22.96918 I0.23955 J-0.18183
G02 X3.33489 Y22.55427 I-0.27724 J-0.11654
G01 Z-0.16000 F78.00
G02 X3.13304 Y23.03446 I0.03769 J0.29837 F156.00
G02 X3.64982 Y22.96918 I0.23955 J-0.18183
G02 X3.33489 Y22.55427 I-0.27724 J-0.11654
G01 Z-0.24000 F78.00
G02 X3.13304 Y23.03446 I0.03769 J0.29837 F156.00
G02 X3.64982 Y22.96918 I0.23955 J-0.18183
G02 X3.33489 Y22.55427 I-0.27724 J-0.11654
G01 Z-0.32000 F78.00
G02 X3.13304 Y23.03446 I0.03769 J0.29837 F156.00
G02 X3.64982 Y22.96918 I0.23955 J-0.18183
G02 X3.33489 Y22.55427 I-0.27724 J-0.11654
G01 Z-0.40000 F78.00
G02 X3.13304 Y23.03446 I0.03769 J0.29837 F156.00
G02 X3.64982 Y22.96918 I0.23955 J-0.18183
G02 X3.33489 Y22.55427 I-0.27724 J-0.11654
G01 Z-0.48000 F78.00
G02 X3.13304 Y23.03446 I0.03769 J0.29837 F156.00
G02 X3.64982 Y22.96918 I0.23955 J-0.18183
G02 X3.33489 Y22.55427 I-0.27724 J-0.11654
G01 Z-0.52000 F78.00
G02 X3.13304 Y23.03446 I0.03769 J0.29837 F156.00
G02 X3.64982 Y22.96918 I0.23955 J-0.18183
G02 X3.33489 Y22.55427 I-0.27724 J-0.11654
G00 Z0.19685


(No. 39: Hole 47)
G00 X2.33883 Y22.75057 Z0.19685
G00 Z0.01969
G01 Z0.00000 F78.00
G01 Z-0.08000
G02 X2.25937 Y22.92328 I0.01013 J0.10929 F156.00
G02 X2.44868 Y22.90574 I0.08959 J-0.06342
G02 X2.33883 Y22.75057 I-0.09971 J-0.04588
G01 Z-0.16000 F78.00
G02 X2.25937 Y22.92328 I0.01013 J0.10929 F156.00
G02 X2.44868 Y22.90574 I0.08959 J-0.06342
G02 X2.33883 Y22.75057 I-0.09971 J-0.04588
G01 Z-0.24000 F78.00
G02 X2.25937 Y22.92328 I0.01013 J0.10929 F156.00
G02 X2.44868 Y22.90574 I0.08959 J-0.06342
G02 X2.33883 Y22.75057 I-0.09971 J-0.04588
G01 Z-0.32000 F78.00
G02 X2.25937 Y22.92328 I0.01013 J0.10929 F156.00
G02 X2.44868 Y22.90574 I0.08959 J-0.06342
G02 X2.33883 Y22.75057 I-0.09971 J-0.04588
G01 Z-0.40000 F78.00
G02 X2.25937 Y22.92328 I0.01013 J0.10929 F156.00
G02 X2.44868 Y22.90574 I0.08959 J-0.06342
G02 X2.33883 Y22.75057 I-0.09971 J-0.04588
G01 Z-0.48000 F78.00
G02 X2.25937 Y22.92328 I0.01013 J0.10929 F156.00
G02 X2.44868 Y22.90574 I0.08959 J-0.06342
G02 X2.33883 Y22.75057 I-0.09971 J-0.04588
G01 Z-0.52000 F78.00
G02 X2.25937 Y22.92328 I0.01013 J0.10929 F156.00
G02 X2.44868 Y22.90574 I0.08959 J-0.06342
G02 X2.33883 Y22.75057 I-0.09971 J-0.04588
G00 Z0.19685


(No. 40: Hole 67)
G00 X2.14365 Y25.01024 Z0.19685
G00 Z0.01969
G01 Z0.00000 F78.00
G01 Z-0.08000
G01 Y25.24952 F156.00
G01 X2.12681 Y25.26636
G01 X2.14365 Y25.24952
G01 X2.26487
G01 X2.28171 Y25.26636
G01 X2.26487 Y25.24952
G01 Y25.01024
G01 X2.28171 Y24.99340
G01 X2.26487 Y25.01024
G01 X2.14365
G01 X2.12681 Y24.99340
G01 X2.14365 Y25.01024
G01 Z-0.16000 F78.00
G01 Y25.24952 F156.00
G01 X2.12681 Y25.26636
G01 X2.14365 Y25.24952
G01 X2.26487
G01 X2.28171 Y25.26636
G01 X2.26487 Y25.24952
G01 Y25.01024
G01 X2.28171 Y24.99340
G01 X2.26487 Y25.01024
G01 X2.14365
G01 X2.12681 Y24.99340
G01 X2.14365 Y25.01024
G01 Z-0.24000 F78.00
G01 Y25.24952 F156.00
G01 X2.12681 Y25.26636
G01 X2.14365 Y25.24952
G01 X2.26487
G01 X2.28171 Y25.26636
G01 X2.26487 Y25.24952
G01 Y25.01024
G01 X2.28171 Y24.99340
G01 X2.26487 Y25.01024
G01 X2.14365
G01 X2.12681 Y24.99340
G01 X2.14365 Y25.01024
G01 Z-0.32000 F78.00
G01 Y25.24952 F156.00
G01 X2.12681 Y25.26636
G01 X2.14365 Y25.24952
G01 X2.26487
G01 X2.28171 Y25.26636
G01 X2.26487 Y25.24952
G01 Y25.01024
G01 X2.28171 Y24.99340
G01 X2.26487 Y25.01024
G01 X2.14365
G01 X2.12681 Y24.99340
G01 X2.14365 Y25.01024
G01 Z-0.40000 F78.00
G01 Y25.24952 F156.00
G01 X2.12681 Y25.26636
G01 X2.14365 Y25.24952
G01 X2.26487
G01 X2.28171 Y25.26636
G01 X2.26487 Y25.24952
G01 Y25.01024
G01 X2.28171 Y24.99340
G01 X2.26487 Y25.01024
G01 X2.14365
G01 X2.12681 Y24.99340
G01 X2.14365 Y25.01024
G01 Z-0.48000 F78.00
G01 Y25.24952 F156.00
G01 X2.12681 Y25.26636
G01 X2.14365 Y25.24952
G01 X2.26487
G01 X2.28171 Y25.26636
G01 X2.26487 Y25.24952
G01 Y25.01024
G01 X2.28171 Y24.99340
G01 X2.26487 Y25.01024
G01 X2.14365
G01 X2.12681 Y24.99340
G01 X2.14365 Y25.01024
G01 Z-0.52000 F78.00
G01 Y25.24952 F156.00
G01 X2.12681 Y25.26636
G01 X2.14365 Y25.24952
G01 X2.26487
G01 X2.28171 Y25.26636
G01 X2.26487 Y25.24952
G01 Y25.01024
G01 X2.28171 Y24.99340
G01 X2.26487 Y25.01024
G01 X2.14365
G01 X2.12681 Y24.99340
G01 X2.14365 Y25.01024
G00 Z0.19685


(No. 41: Hole 70)
G00 X1.95793 Y25.63856 Z0.19685
G00 Z0.01969
G01 Z-0.08000 F78.00
G01 Y25.35461 F156.00
G01 X1.91757
G01 Y27.31490
G01 X1.90825 Y27.41012
G01 X1.89790 Y27.52914
G01 Y28.58070
G01 X1.97760
G01 Y27.53121
G01 X1.95793 Y27.32111
G01 Y25.63856
G01 X2.01072 Y25.64194
G01 Y25.31010
G01 X2.00968 Y25.30182
G01 X1.86478
G01 Y27.30248
G01 X1.84926 Y27.47739
G01 X1.84512 Y27.52707
G01 Y28.63349
G01 X2.03038
G01 Y27.52914
G01 X2.01072 Y27.30765
G01 Y25.64194
G01 X2.03739 Y25.64260
G01 Y25.30981
G01 X2.03396 Y25.27445
G01 X2.04750 Y25.25953
G01 X2.03396 Y25.27445
G01 X1.83743
G01 X1.82059 Y25.25761
G01 X1.83743 Y25.27445
G01 Y25.84687
G01 Y26.50522
G01 Y26.69285
G01 Y26.69324
G01 Y27.29295
G01 X1.81775 Y27.52897
G01 Y28.66103
G01 X1.80091 Y28.67787
G01 X1.81775 Y28.66103
G01 X2.05708 Y28.66105
G01 X2.07391 Y28.67788
G01 X2.05708 Y28.66105
G01 Y27.89106
G01 Y27.53062
G01 X2.05711 Y27.53105
G01 X2.03763 Y27.29807
G01 X2.03739 Y26.68615
G01 Y26.51192
G01 Y25.64260
G00 Z0.19685
G00 X1.95793 Y25.65145
G00 Z-0.06031
G01 Z-0.15750 F78.00
G01 Y25.35461 F156.00
G01 X1.91757
G01 Y27.31490
G01 X1.90825 Y27.41012
G01 X1.89790 Y27.52914
G01 Y28.58070
G01 X1.97760
G01 Y27.53121
G01 X1.95793 Y27.32111
G01 Y25.65145
G01 X2.01072 Y25.65466
G01 Y25.31010
G01 X2.00968 Y25.30182
G01 X1.86478
G01 Y27.30248
G01 X1.84926 Y27.47739
G01 X1.84512 Y27.52707
G01 Y28.63349
G01 X2.03038
G01 Y27.52914
G01 X2.01072 Y27.30765
G01 Y25.65466
G01 X2.03739 Y25.65528
G01 Y25.30981
G01 X2.03396 Y25.27445
G01 X2.04750 Y25.25953
G01 X2.03396 Y25.27445
G01 X1.83743
G01 X1.82059 Y25.25761
G01 X1.83743 Y25.27445
G01 Y25.84687
G01 Y26.50522
G01 Y26.69285
G01 Y26.69324
G01 Y27.29295
G01 X1.81775 Y27.52897
G01 Y28.66103
G01 X1.80091 Y28.67787
G01 X1.81775 Y28.66103
G01 X2.05708 Y28.66105
G01 X2.07391 Y28.67788
G01 X2.05708 Y28.66105
G01 Y27.89106
G01 Y27.53062
G01 X2.05711 Y27.53105
G01 X2.03763 Y27.29807
G01 X2.03739 Y26.68615
G01 Y26.51192
G01 Y25.65528
G00 Z0.19685


(No. 42: Hole 69)
G00 X2.11832 Y25.69486 Z0.19685
G00 Z0.01969
G01 Z0.00000 F78.00
G01 Z-0.08000
G01 X1.75641 F156.00
G01 X1.74491 Y25.69346
G03 X1.74340 Y25.73401 I-0.13659 J0.01520
G03 X1.68551 Y25.77877 I-0.05689 J-0.01376
G02 X1.68844 Y25.78937 I0.00199 J0.00516
G01 X1.77993
G01 X2.09489
G01 X2.18639
G02 X2.18780 Y25.77844 I0.00097 J-0.00543
G03 X2.12991 Y25.72089 I-0.00030 J-0.05759
G01 X2.12993 Y25.62878
G01 X2.14676 Y25.61195
G01 X2.12993 Y25.62878
G01 X1.78033
G01 X1.74491
G01 X1.72807 Y25.61194
G01 X1.74491 Y25.62878
G01 Y25.69346
G01 X1.75641 Y25.69486
G01 Z-0.16000 F78.00
G01 X2.11832 F156.00
G01 X2.12992 Y25.69344
G01 X2.12993 Y25.62878
G01 X2.14676 Y25.61195
G01 X2.12993 Y25.62878
G01 X1.78033
G01 X1.74491
G01 X1.72807 Y25.61194
G01 X1.74491 Y25.62878
G01 Y25.72089
G03 X1.68551 Y25.77877 I-0.05827 J-0.00038
G02 X1.68844 Y25.78937 I0.00199 J0.00516
G01 X1.77993
G01 X2.09489
G01 X2.18639
G02 X2.18780 Y25.77844 I0.00097 J-0.00543
G03 X2.12991 Y25.72089 I-0.00030 J-0.05759
G01 X2.12992 Y25.69344
G01 X2.11832 Y25.69486
G01 Z-0.24000 F78.00
G01 X1.75641 F156.00
G01 X1.74491 Y25.69346
G03 X1.74340 Y25.73401 I-0.13659 J0.01520
G03 X1.68551 Y25.77877 I-0.05689 J-0.01376
G02 X1.68844 Y25.78937 I0.00199 J0.00516
G01 X1.77993
G01 X2.09489
G01 X2.18639
G02 X2.18780 Y25.77844 I0.00097 J-0.00543
G03 X2.12991 Y25.72089 I-0.00030 J-0.05759
G01 X2.12993 Y25.62878
G01 X2.14676 Y25.61195
G01 X2.12993 Y25.62878
G01 X1.78033
G01 X1.74491
G01 X1.72807 Y25.61194
G01 X1.74491 Y25.62878
G01 Y25.69346
G01 X1.75641 Y25.69486
G01 Z-0.30000 F78.00
G01 X2.11832 F156.00
G01 X2.12992 Y25.69344
G01 X2.12993 Y25.62878
G01 X2.14676 Y25.61195
G01 X2.12993 Y25.62878
G01 X1.78033
G01 X1.74491
G01 X1.72807 Y25.61194
G01 X1.74491 Y25.62878
G01 Y25.72089
G03 X1.68551 Y25.77877 I-0.05827 J-0.00038
G02 X1.68844 Y25.78937 I0.00199 J0.00516
G01 X1.77993
G01 X2.09489
G01 X2.18639
G02 X2.18780 Y25.77844 I0.00097 J-0.00543
G03 X2.12991 Y25.72089 I-0.00030 J-0.05759
G01 X2.12992 Y25.69344
G01 X2.11832 Y25.69486
G00 Z0.19685


(No. 43: Hole 63)
G00 X1.22875 Y25.78790 Z0.19685
G00 Z0.01969
G01 Z0.00000 F78.00
G01 Z-0.08000
G02 X1.13370 Y25.95254 I0.00000 J0.10976 F156.00
G02 X1.32381 I0.09506 J-0.05488
G02 X1.22875 Y25.78790 I-0.09506 J-0.05488
G01 Z-0.16000 F78.00
G02 X1.13370 Y25.95254 I0.00000 J0.10976 F156.00
G02 X1.32381 I0.09506 J-0.05488
G02 X1.22875 Y25.78790 I-0.09506 J-0.05488
G01 Z-0.24000 F78.00
G02 X1.13370 Y25.95254 I0.00000 J0.10976 F156.00
G02 X1.32381 I0.09506 J-0.05488
G02 X1.22875 Y25.78790 I-0.09506 J-0.05488
G01 Z-0.32000 F78.00
G02 X1.13370 Y25.95254 I0.00000 J0.10976 F156.00
G02 X1.32381 I0.09506 J-0.05488
G02 X1.22875 Y25.78790 I-0.09506 J-0.05488
G01 Z-0.40000 F78.00
G02 X1.13370 Y25.95254 I0.00000 J0.10976 F156.00
G02 X1.32381 I0.09506 J-0.05488
G02 X1.22875 Y25.78790 I-0.09506 J-0.05488
G01 Z-0.48000 F78.00
G02 X1.13370 Y25.95254 I0.00000 J0.10976 F156.00
G02 X1.32381 I0.09506 J-0.05488
G02 X1.22875 Y25.78790 I-0.09506 J-0.05488
G01 Z-0.52000 F78.00
G02 X1.13370 Y25.95254 I0.00000 J0.10976 F156.00
G02 X1.32381 I0.09506 J-0.05488
G02 X1.22875 Y25.78790 I-0.09506 J-0.05488
G00 Z0.19685


(No. 44: Hole 62)
G00 X1.22875 Y27.19026 Z0.19685
G00 Z0.01969
G01 Z0.00000 F78.00
G01 Z-0.08000
G02 X1.13370 Y27.35490 I0.00000 J0.10976 F156.00
G02 X1.32381 I0.09506 J-0.05488
G02 X1.22875 Y27.19026 I-0.09506 J-0.05488
G01 Z-0.16000 F78.00
G02 X1.13370 Y27.35490 I0.00000 J0.10976 F156.00
G02 X1.32381 I0.09506 J-0.05488
G02 X1.22875 Y27.19026 I-0.09506 J-0.05488
G01 Z-0.24000 F78.00
G02 X1.13370 Y27.35490 I0.00000 J0.10976 F156.00
G02 X1.32381 I0.09506 J-0.05488
G02 X1.22875 Y27.19026 I-0.09506 J-0.05488
G01 Z-0.32000 F78.00
G02 X1.13370 Y27.35490 I0.00000 J0.10976 F156.00
G02 X1.32381 I0.09506 J-0.05488
G02 X1.22875 Y27.19026 I-0.09506 J-0.05488
G01 Z-0.40000 F78.00
G02 X1.13370 Y27.35490 I0.00000 J0.10976 F156.00
G02 X1.32381 I0.09506 J-0.05488
G02 X1.22875 Y27.19026 I-0.09506 J-0.05488
G01 Z-0.48000 F78.00
G02 X1.13370 Y27.35490 I0.00000 J0.10976 F156.00
G02 X1.32381 I0.09506 J-0.05488
G02 X1.22875 Y27.19026 I-0.09506 J-0.05488
G01 Z-0.52000 F78.00
G02 X1.13370 Y27.35490 I0.00000 J0.10976 F156.00
G02 X1.32381 I0.09506 J-0.05488
G02 X1.22875 Y27.19026 I-0.09506 J-0.05488
G00 Z0.19685


(No. 45: Hole 68)
G00 X1.61916 Y27.35049 Z0.19685
G00 Z0.01969
G01 Z0.00000 F78.00
G01 Z-0.08000
G02 X1.60274 Y27.46827 I0.00328 J0.06049 F156.00
G01 X1.76091 Y27.46905
G01 X2.11446 Y27.47072
G01 X2.25158 Y27.47137
G02 X2.25177 Y27.35016 I0.00162 J-0.06060
G01 X1.78002 Y27.35085
G01 X1.77962
G02 X1.61916 Y27.35049 I-0.13992 J27.17193
G01 Z-0.16000 F78.00
G02 X1.60274 Y27.46827 I0.00328 J0.06049 F156.00
G01 X1.76091 Y27.46905
G01 X2.11446 Y27.47072
G01 X2.25158 Y27.47137
G02 X2.25177 Y27.35016 I0.00162 J-0.06060
G01 X1.78002 Y27.35085
G01 X1.77962
G02 X1.61916 Y27.35049 I-0.13992 J27.17193
G01 Z-0.24000 F78.00
G02 X1.60274 Y27.46827 I0.00328 J0.06049 F156.00
G01 X1.76091 Y27.46905
G01 X2.11446 Y27.47072
G01 X2.25158 Y27.47137
G02 X2.25177 Y27.35016 I0.00162 J-0.06060
G01 X1.78002 Y27.35085
G01 X1.77962
G02 X1.61916 Y27.35049 I-0.13992 J27.17193
G01 Z-0.31500 F78.00
G02 X1.60274 Y27.46827 I0.00328 J0.06049 F156.00
G01 X1.76091 Y27.46905
G01 X2.11446 Y27.47072
G01 X2.25158 Y27.47137
G02 X2.25177 Y27.35016 I0.00162 J-0.06060
G01 X1.78002 Y27.35085
G01 X1.77962
G02 X1.61916 Y27.35049 I-0.13992 J27.17193
G00 Z0.19685


(No. 46: Hole 66)
G00 X2.14359 Y27.94816 Z0.19685
G00 Z0.01969
G01 Z0.00000 F78.00
G01 Z-0.08000
G01 Y28.18744 F156.00
G01 X2.12675 Y28.20428
G01 X2.14359 Y28.18744
G01 X2.26487
G01 X2.28171 Y28.20428
G01 X2.26487 Y28.18744
G01 Y27.94816
G01 X2.28171 Y27.93132
G01 X2.26487 Y27.94816
G01 X2.14359
G01 X2.12675 Y27.93132
G01 X2.14359 Y27.94816
G01 Z-0.16000 F78.00
G01 Y28.18744 F156.00
G01 X2.12675 Y28.20428
G01 X2.14359 Y28.18744
G01 X2.26487
G01 X2.28171 Y28.20428
G01 X2.26487 Y28.18744
G01 Y27.94816
G01 X2.28171 Y27.93132
G01 X2.26487 Y27.94816
G01 X2.14359
G01 X2.12675 Y27.93132
G01 X2.14359 Y27.94816
G01 Z-0.24000 F78.00
G01 Y28.18744 F156.00
G01 X2.12675 Y28.20428
G01 X2.14359 Y28.18744
G01 X2.26487
G01 X2.28171 Y28.20428
G01 X2.26487 Y28.18744
G01 Y27.94816
G01 X2.28171 Y27.93132
G01 X2.26487 Y27.94816
G01 X2.14359
G01 X2.12675 Y27.93132
G01 X2.14359 Y27.94816
G01 Z-0.32000 F78.00
G01 Y28.18744 F156.00
G01 X2.12675 Y28.20428
G01 X2.14359 Y28.18744
G01 X2.26487
G01 X2.28171 Y28.20428
G01 X2.26487 Y28.18744
G01 Y27.94816
G01 X2.28171 Y27.93132
G01 X2.26487 Y27.94816
G01 X2.14359
G01 X2.12675 Y27.93132
G01 X2.14359 Y27.94816
G01 Z-0.40000 F78.00
G01 Y28.18744 F156.00
G01 X2.12675 Y28.20428
G01 X2.14359 Y28.18744
G01 X2.26487
G01 X2.28171 Y28.20428
G01 X2.26487 Y28.18744
G01 Y27.94816
G01 X2.28171 Y27.93132
G01 X2.26487 Y27.94816
G01 X2.14359
G01 X2.12675 Y27.93132
G01 X2.14359 Y27.94816
G01 Z-0.48000 F78.00
G01 Y28.18744 F156.00
G01 X2.12675 Y28.20428
G01 X2.14359 Y28.18744
G01 X2.26487
G01 X2.28171 Y28.20428
G01 X2.26487 Y28.18744
G01 Y27.94816
G01 X2.28171 Y27.93132
G01 X2.26487 Y27.94816
G01 X2.14359
G01 X2.12675 Y27.93132
G01 X2.14359 Y27.94816
G01 Z-0.52000 F78.00
G01 Y28.18744 F156.00
G01 X2.12675 Y28.20428
G01 X2.14359 Y28.18744
G01 X2.26487
G01 X2.28171 Y28.20428
G01 X2.26487 Y28.18744
G01 Y27.94816
G01 X2.28171 Y27.93132
G01 X2.26487 Y27.94816
G01 X2.14359
G01 X2.12675 Y27.93132
G01 X2.14359 Y27.94816
G00 Z0.19685


(No. 47: Hole 45)
G00 X3.35241 Y20.60630 Z0.19685
G00 Z0.01969
G01 Z0.00000 F78.00
G01 Z-0.08000
G02 X3.28923 Y20.78561 I0.02017 J0.10789 F156.00
G02 X3.47610 Y20.75068 I0.08335 J-0.07141
G02 X3.35241 Y20.60630 I-0.10352 J-0.03648
G01 Z-0.16000 F78.00
G02 X3.28923 Y20.78561 I0.02017 J0.10789 F156.00
G02 X3.47610 Y20.75068 I0.08335 J-0.07141
G02 X3.35241 Y20.60630 I-0.10352 J-0.03648
G01 Z-0.24000 F78.00
G02 X3.28923 Y20.78561 I0.02017 J0.10789 F156.00
G02 X3.47610 Y20.75068 I0.08335 J-0.07141
G02 X3.35241 Y20.60630 I-0.10352 J-0.03648
G01 Z-0.32000 F78.00
G02 X3.28923 Y20.78561 I0.02017 J0.10789 F156.00
G02 X3.47610 Y20.75068 I0.08335 J-0.07141
G02 X3.35241 Y20.60630 I-0.10352 J-0.03648
G01 Z-0.40000 F78.00
G02 X3.28923 Y20.78561 I0.02017 J0.10789 F156.00
G02 X3.47610 Y20.75068 I0.08335 J-0.07141
G02 X3.35241 Y20.60630 I-0.10352 J-0.03648
G01 Z-0.48000 F78.00
G02 X3.28923 Y20.78561 I0.02017 J0.10789 F156.00
G02 X3.47610 Y20.75068 I0.08335 J-0.07141
G02 X3.35241 Y20.60630 I-0.10352 J-0.03648
G01 Z-0.52000 F78.00
G02 X3.28923 Y20.78561 I0.02017 J0.10789 F156.00
G02 X3.47610 Y20.75068 I0.08335 J-0.07141
G02 X3.35241 Y20.60630 I-0.10352 J-0.03648
G00 Z0.19685


(No. 48: Hole 50)
G00 X2.33805 Y19.68010 Z0.19685
G00 Z0.01969
G01 Z0.00000 F78.00
G01 Z-0.08000
G02 X2.25859 Y19.85281 I0.01013 J0.10929 F156.00
G02 X2.44789 Y19.83527 I0.08959 J-0.06342
G02 X2.33805 Y19.68010 I-0.09971 J-0.04588
G01 Z-0.16000 F78.00
G02 X2.25859 Y19.85281 I0.01013 J0.10929 F156.00
G02 X2.44789 Y19.83527 I0.08959 J-0.06342
G02 X2.33805 Y19.68010 I-0.09971 J-0.04588
G01 Z-0.24000 F78.00
G02 X2.25859 Y19.85281 I0.01013 J0.10929 F156.00
G02 X2.44789 Y19.83527 I0.08959 J-0.06342
G02 X2.33805 Y19.68010 I-0.09971 J-0.04588
G01 Z-0.32000 F78.00
G02 X2.25859 Y19.85281 I0.01013 J0.10929 F156.00
G02 X2.44789 Y19.83527 I0.08959 J-0.06342
G02 X2.33805 Y19.68010 I-0.09971 J-0.04588
G01 Z-0.40000 F78.00
G02 X2.25859 Y19.85281 I0.01013 J0.10929 F156.00
G02 X2.44789 Y19.83527 I0.08959 J-0.06342
G02 X2.33805 Y19.68010 I-0.09971 J-0.04588
G01 Z-0.48000 F78.00
G02 X2.25859 Y19.85281 I0.01013 J0.10929 F156.00
G02 X2.44789 Y19.83527 I0.08959 J-0.06342
G02 X2.33805 Y19.68010 I-0.09971 J-0.04588
G01 Z-0.52000 F78.00
G02 X2.25859 Y19.85281 I0.01013 J0.10929 F156.00
G02 X2.44789 Y19.83527 I0.08959 J-0.06342
G02 X2.33805 Y19.68010 I-0.09971 J-0.04588
G00 Z0.19685


(No. 49: Hole 49)
G00 X0.93164 Y19.67963 Z0.19685
G00 Z0.01969
G01 Z0.00000 F78.00
G01 Z-0.08000
G02 X0.83658 Y19.84427 I0.00000 J0.10976 F156.00
G02 X1.02669 I0.09506 J-0.05488
G02 X0.93164 Y19.67963 I-0.09506 J-0.05488
G01 Z-0.16000 F78.00
G02 X0.83658 Y19.84427 I0.00000 J0.10976 F156.00
G02 X1.02669 I0.09506 J-0.05488
G02 X0.93164 Y19.67963 I-0.09506 J-0.05488
G01 Z-0.24000 F78.00
G02 X0.83658 Y19.84427 I0.00000 J0.10976 F156.00
G02 X1.02669 I0.09506 J-0.05488
G02 X0.93164 Y19.67963 I-0.09506 J-0.05488
G01 Z-0.32000 F78.00
G02 X0.83658 Y19.84427 I0.00000 J0.10976 F156.00
G02 X1.02669 I0.09506 J-0.05488
G02 X0.93164 Y19.67963 I-0.09506 J-0.05488
G01 Z-0.40000 F78.00
G02 X0.83658 Y19.84427 I0.00000 J0.10976 F156.00
G02 X1.02669 I0.09506 J-0.05488
G02 X0.93164 Y19.67963 I-0.09506 J-0.05488
G01 Z-0.48000 F78.00
G02 X0.83658 Y19.84427 I0.00000 J0.10976 F156.00
G02 X1.02669 I0.09506 J-0.05488
G02 X0.93164 Y19.67963 I-0.09506 J-0.05488
G01 Z-0.52000 F78.00
G02 X0.83658 Y19.84427 I0.00000 J0.10976 F156.00
G02 X1.02669 I0.09506 J-0.05488
G02 X0.93164 Y19.67963 I-0.09506 J-0.05488
G00 Z0.19685


(No. 50: Hole 48)
G00 X0.93164 Y20.60443 Z0.19685
G00 Z0.01969
G01 Z0.00000 F78.00
G01 Z-0.08000
G02 X0.83658 Y20.76908 I0.00000 J0.10976 F156.00
G02 X1.02669 I0.09506 J-0.05488
G02 X0.93164 Y20.60443 I-0.09506 J-0.05488
G01 Z-0.16000 F78.00
G02 X0.83658 Y20.76908 I0.00000 J0.10976 F156.00
G02 X1.02669 I0.09506 J-0.05488
G02 X0.93164 Y20.60443 I-0.09506 J-0.05488
G01 Z-0.24000 F78.00
G02 X0.83658 Y20.76908 I0.00000 J0.10976 F156.00
G02 X1.02669 I0.09506 J-0.05488
G02 X0.93164 Y20.60443 I-0.09506 J-0.05488
G01 Z-0.32000 F78.00
G02 X0.83658 Y20.76908 I0.00000 J0.10976 F156.00
G02 X1.02669 I0.09506 J-0.05488
G02 X0.93164 Y20.60443 I-0.09506 J-0.05488
G01 Z-0.40000 F78.00
G02 X0.83658 Y20.76908 I0.00000 J0.10976 F156.00
G02 X1.02669 I0.09506 J-0.05488
G02 X0.93164 Y20.60443 I-0.09506 J-0.05488
G01 Z-0.48000 F78.00
G02 X0.83658 Y20.76908 I0.00000 J0.10976 F156.00
G02 X1.02669 I0.09506 J-0.05488
G02 X0.93164 Y20.60443 I-0.09506 J-0.05488
G01 Z-0.52000 F78.00
G02 X0.83658 Y20.76908 I0.00000 J0.10976 F156.00
G02 X1.02669 I0.09506 J-0.05488
G02 X0.93164 Y20.60443 I-0.09506 J-0.05488
G00 Z0.19685


(No. 51: Hole 51)
G00 X0.75292 Y17.70713 Z0.19685
G00 Z0.01969
G01 Z0.00000 F78.00
G01 Z-0.08000
G01 Y19.00945 F156.00
G01 X0.73608 Y19.02629
G01 X0.75292 Y19.00945
G01 X1.11036
G01 X1.12720 Y19.02629
G01 X1.11036 Y19.00945
G01 Y18.83073
G03 X1.16786 Y18.77323 I0.05750 J0.00000
G01 X2.11274
G03 X2.17024 Y18.83073 I0.00000 J0.05750
G01 Y19.00945
G01 X2.15340 Y19.02629
G01 X2.17024 Y19.00945
G01 X2.52768
G01 X2.54452 Y19.02629
G01 X2.52768 Y19.00945
G01 Y17.70713
G01 X2.54452 Y17.69029
G01 X2.52768 Y17.70713
G01 X2.17024
G01 X2.15340 Y17.69029
G01 X2.17024 Y17.70713
G01 Y17.88585
G03 X2.11274 Y17.94335 I-0.05750 J0.00000
G01 X1.16786
G03 X1.11036 Y17.88585 I0.00000 J-0.05750
G01 Y17.70713
G01 X1.12720 Y17.69029
G01 X1.11036 Y17.70713
G01 X0.75292
G01 X0.73608 Y17.69029
G01 X0.75292 Y17.70713
G01 Z-0.16000 F78.00
G01 Y19.00945 F156.00
G01 X0.73608 Y19.02629
G01 X0.75292 Y19.00945
G01 X1.11036
G01 X1.12720 Y19.02629
G01 X1.11036 Y19.00945
G01 Y18.83073
G03 X1.16786 Y18.77323 I0.05750 J0.00000
G01 X2.11274
G03 X2.17024 Y18.83073 I0.00000 J0.05750
G01 Y19.00945
G01 X2.15340 Y19.02629
G01 X2.17024 Y19.00945
G01 X2.52768
G01 X2.54452 Y19.02629
G01 X2.52768 Y19.00945
G01 Y17.70713
G01 X2.54452 Y17.69029
G01 X2.52768 Y17.70713
G01 X2.17024
G01 X2.15340 Y17.69029
G01 X2.17024 Y17.70713
G01 Y17.88585
G03 X2.11274 Y17.94335 I-0.05750 J0.00000
G01 X1.16786
G03 X1.11036 Y17.88585 I0.00000 J-0.05750
G01 Y17.70713
G01 X1.12720 Y17.69029
G01 X1.11036 Y17.70713
G01 X0.75292
G01 X0.73608 Y17.69029
G01 X0.75292 Y17.70713
G01 Z-0.24000 F78.00
G01 Y19.00945 F156.00
G01 X0.73608 Y19.02629
G01 X0.75292 Y19.00945
G01 X1.11036
G01 X1.12720 Y19.02629
G01 X1.11036 Y19.00945
G01 Y18.83073
G03 X1.16786 Y18.77323 I0.05750 J0.00000
G01 X2.11274
G03 X2.17024 Y18.83073 I0.00000 J0.05750
G01 Y19.00945
G01 X2.15340 Y19.02629
G01 X2.17024 Y19.00945
G01 X2.52768
G01 X2.54452 Y19.02629
G01 X2.52768 Y19.00945
G01 Y17.70713
G01 X2.54452 Y17.69029
G01 X2.52768 Y17.70713
G01 X2.17024
G01 X2.15340 Y17.69029
G01 X2.17024 Y17.70713
G01 Y17.88585
G03 X2.11274 Y17.94335 I-0.05750 J0.00000
G01 X1.16786
G03 X1.11036 Y17.88585 I0.00000 J-0.05750
G01 Y17.70713
G01 X1.12720 Y17.69029
G01 X1.11036 Y17.70713
G01 X0.75292
G01 X0.73608 Y17.69029
G01 X0.75292 Y17.70713
G01 Z-0.32000 F78.00
G01 Y19.00945 F156.00
G01 X0.73608 Y19.02629
G01 X0.75292 Y19.00945
G01 X1.11036
G01 X1.12720 Y19.02629
G01 X1.11036 Y19.00945
G01 Y18.83073
G03 X1.16786 Y18.77323 I0.05750 J0.00000
G01 X2.11274
G03 X2.17024 Y18.83073 I0.00000 J0.05750
G01 Y19.00945
G01 X2.15340 Y19.02629
G01 X2.17024 Y19.00945
G01 X2.52768
G01 X2.54452 Y19.02629
G01 X2.52768 Y19.00945
G01 Y17.70713
G01 X2.54452 Y17.69029
G01 X2.52768 Y17.70713
G01 X2.17024
G01 X2.15340 Y17.69029
G01 X2.17024 Y17.70713
G01 Y17.88585
G03 X2.11274 Y17.94335 I-0.05750 J0.00000
G01 X1.16786
G03 X1.11036 Y17.88585 I0.00000 J-0.05750
G01 Y17.70713
G01 X1.12720 Y17.69029
G01 X1.11036 Y17.70713
G01 X0.75292
G01 X0.73608 Y17.69029
G01 X0.75292 Y17.70713
G01 Z-0.40000 F78.00
G01 Y19.00945 F156.00
G01 X0.73608 Y19.02629
G01 X0.75292 Y19.00945
G01 X1.11036
G01 X1.12720 Y19.02629
G01 X1.11036 Y19.00945
G01 Y18.83073
G03 X1.16786 Y18.77323 I0.05750 J0.00000
G01 X2.11274
G03 X2.17024 Y18.83073 I0.00000 J0.05750
G01 Y19.00945
G01 X2.15340 Y19.02629
G01 X2.17024 Y19.00945
G01 X2.52768
G01 X2.54452 Y19.02629
G01 X2.52768 Y19.00945
G01 Y17.70713
G01 X2.54452 Y17.69029
G01 X2.52768 Y17.70713
G01 X2.17024
G01 X2.15340 Y17.69029
G01 X2.17024 Y17.70713
G01 Y17.88585
G03 X2.11274 Y17.94335 I-0.05750 J0.00000
G01 X1.16786
G03 X1.11036 Y17.88585 I0.00000 J-0.05750
G01 Y17.70713
G01 X1.12720 Y17.69029
G01 X1.11036 Y17.70713
G01 X0.75292
G01 X0.73608 Y17.69029
G01 X0.75292 Y17.70713
G01 Z-0.48000 F78.00
G01 Y19.00945 F156.00
G01 X0.73608 Y19.02629
G01 X0.75292 Y19.00945
G01 X1.11036
G01 X1.12720 Y19.02629
G01 X1.11036 Y19.00945
G01 Y18.83073
G03 X1.16786 Y18.77323 I0.05750 J0.00000
G01 X2.11274
G03 X2.17024 Y18.83073 I0.00000 J0.05750
G01 Y19.00945
G01 X2.15340 Y19.02629
G01 X2.17024 Y19.00945
G01 X2.52768
G01 X2.54452 Y19.02629
G01 X2.52768 Y19.00945
G01 Y17.70713
G01 X2.54452 Y17.69029
G01 X2.52768 Y17.70713
G01 X2.17024
G01 X2.15340 Y17.69029
G01 X2.17024 Y17.70713
G01 Y17.88585
G03 X2.11274 Y17.94335 I-0.05750 J0.00000
G01 X1.16786
G03 X1.11036 Y17.88585 I0.00000 J-0.05750
G01 Y17.70713
G01 X1.12720 Y17.69029
G01 X1.11036 Y17.70713
G01 X0.75292
G01 X0.73608 Y17.69029
G01 X0.75292 Y17.70713
G01 Z-0.52000 F78.00
G01 Y19.00945 F156.00
G01 X0.73608 Y19.02629
G01 X0.75292 Y19.00945
G01 X1.11036
G01 X1.12720 Y19.02629
G01 X1.11036 Y19.00945
G01 Y18.83073
G03 X1.16786 Y18.77323 I0.05750 J0.00000
G01 X2.11274
G03 X2.17024 Y18.83073 I0.00000 J0.05750
G01 Y19.00945
G01 X2.15340 Y19.02629
G01 X2.17024 Y19.00945
G01 X2.52768
G01 X2.54452 Y19.02629
G01 X2.52768 Y19.00945
G01 Y17.70713
G01 X2.54452 Y17.69029
G01 X2.52768 Y17.70713
G01 X2.17024
G01 X2.15340 Y17.69029
G01 X2.17024 Y17.70713
G01 Y17.88585
G03 X2.11274 Y17.94335 I-0.05750 J0.00000
G01 X1.16786
G03 X1.11036 Y17.88585 I0.00000 J-0.05750
G01 Y17.70713
G01 X1.12720 Y17.69029
G01 X1.11036 Y17.70713
G01 X0.75292
G01 X0.73608 Y17.69029
G01 X0.75292 Y17.70713
G00 Z0.19685


(No. 52: Hole 52)
G00 X0.92151 Y16.81789 Z0.19685
G00 Z0.01969
G01 Z0.00000 F78.00
G01 Z-0.08000
G02 X0.84205 Y16.99061 I0.01013 J0.10929 F156.00
G02 X1.03135 Y16.97306 I0.08959 J-0.06342
G02 X0.92151 Y16.81789 I-0.09971 J-0.04588
G01 Z-0.16000 F78.00
G02 X0.84205 Y16.99061 I0.01013 J0.10929 F156.00
G02 X1.03135 Y16.97306 I0.08959 J-0.06342
G02 X0.92151 Y16.81789 I-0.09971 J-0.04588
G01 Z-0.24000 F78.00
G02 X0.84205 Y16.99061 I0.01013 J0.10929 F156.00
G02 X1.03135 Y16.97306 I0.08959 J-0.06342
G02 X0.92151 Y16.81789 I-0.09971 J-0.04588
G01 Z-0.32000 F78.00
G02 X0.84205 Y16.99061 I0.01013 J0.10929 F156.00
G02 X1.03135 Y16.97306 I0.08959 J-0.06342
G02 X0.92151 Y16.81789 I-0.09971 J-0.04588
G01 Z-0.40000 F78.00
G02 X0.84205 Y16.99061 I0.01013 J0.10929 F156.00
G02 X1.03135 Y16.97306 I0.08959 J-0.06342
G02 X0.92151 Y16.81789 I-0.09971 J-0.04588
G01 Z-0.48000 F78.00
G02 X0.84205 Y16.99061 I0.01013 J0.10929 F156.00
G02 X1.03135 Y16.97306 I0.08959 J-0.06342
G02 X0.92151 Y16.81789 I-0.09971 J-0.04588
G01 Z-0.52000 F78.00
G02 X0.84205 Y16.99061 I0.01013 J0.10929 F156.00
G02 X1.03135 Y16.97306 I0.08959 J-0.06342
G02 X0.92151 Y16.81789 I-0.09971 J-0.04588
G00 Z0.19685


(No. 53: Hole 53)
G00 X0.92151 Y15.89309 Z0.19685
G00 Z0.01969
G01 Z0.00000 F78.00
G01 Z-0.08000
G02 X0.84205 Y16.06580 I0.01013 J0.10929 F156.00
G02 X1.03135 Y16.04826 I0.08959 J-0.06342
G02 X0.92151 Y15.89309 I-0.09971 J-0.04588
G01 Z-0.16000 F78.00
G02 X0.84205 Y16.06580 I0.01013 J0.10929 F156.00
G02 X1.03135 Y16.04826 I0.08959 J-0.06342
G02 X0.92151 Y15.89309 I-0.09971 J-0.04588
G01 Z-0.24000 F78.00
G02 X0.84205 Y16.06580 I0.01013 J0.10929 F156.00
G02 X1.03135 Y16.04826 I0.08959 J-0.06342
G02 X0.92151 Y15.89309 I-0.09971 J-0.04588
G01 Z-0.32000 F78.00
G02 X0.84205 Y16.06580 I0.01013 J0.10929 F156.00
G02 X1.03135 Y16.04826 I0.08959 J-0.06342
G02 X0.92151 Y15.89309 I-0.09971 J-0.04588
G01 Z-0.40000 F78.00
G02 X0.84205 Y16.06580 I0.01013 J0.10929 F156.00
G02 X1.03135 Y16.04826 I0.08959 J-0.06342
G02 X0.92151 Y15.89309 I-0.09971 J-0.04588
G01 Z-0.48000 F78.00
G02 X0.84205 Y16.06580 I0.01013 J0.10929 F156.00
G02 X1.03135 Y16.04826 I0.08959 J-0.06342
G02 X0.92151 Y15.89309 I-0.09971 J-0.04588
G01 Z-0.52000 F78.00
G02 X0.84205 Y16.06580 I0.01013 J0.10929 F156.00
G02 X1.03135 Y16.04826 I0.08959 J-0.06342
G02 X0.92151 Y15.89309 I-0.09971 J-0.04588
G00 Z0.19685


(No. 54: Hole 54)
G00 X2.33805 Y16.81789 Z0.19685
G00 Z0.01969
G01 Z0.00000 F78.00
G01 Z-0.08000
G02 X2.25859 Y16.99061 I0.01013 J0.10929 F156.00
G02 X2.44789 Y16.97306 I0.08959 J-0.06342
G02 X2.33805 Y16.81789 I-0.09971 J-0.04588
G01 Z-0.16000 F78.00
G02 X2.25859 Y16.99061 I0.01013 J0.10929 F156.00
G02 X2.44789 Y16.97306 I0.08959 J-0.06342
G02 X2.33805 Y16.81789 I-0.09971 J-0.04588
G01 Z-0.24000 F78.00
G02 X2.25859 Y16.99061 I0.01013 J0.10929 F156.00
G02 X2.44789 Y16.97306 I0.08959 J-0.06342
G02 X2.33805 Y16.81789 I-0.09971 J-0.04588
G01 Z-0.32000 F78.00
G02 X2.25859 Y16.99061 I0.01013 J0.10929 F156.00
G02 X2.44789 Y16.97306 I0.08959 J-0.06342
G02 X2.33805 Y16.81789 I-0.09971 J-0.04588
G01 Z-0.40000 F78.00
G02 X2.25859 Y16.99061 I0.01013 J0.10929 F156.00
G02 X2.44789 Y16.97306 I0.08959 J-0.06342
G02 X2.33805 Y16.81789 I-0.09971 J-0.04588
G01 Z-0.48000 F78.00
G02 X2.25859 Y16.99061 I0.01013 J0.10929 F156.00
G02 X2.44789 Y16.97306 I0.08959 J-0.06342
G02 X2.33805 Y16.81789 I-0.09971 J-0.04588
G01 Z-0.52000 F78.00
G02 X2.25859 Y16.99061 I0.01013 J0.10929 F156.00
G02 X2.44789 Y16.97306 I0.08959 J-0.06342
G02 X2.33805 Y16.81789 I-0.09971 J-0.04588
G00 Z0.19685


(No. 55: Hole 55)
G00 X3.35241 Y15.89449 Z0.19685
G00 Z0.01969
G01 Z0.00000 F78.00
G01 Z-0.08000
G02 X3.28923 Y16.07380 I0.02017 J0.10789 F156.00
G02 X3.47610 Y16.03886 I0.08335 J-0.07141
G02 X3.35241 Y15.89449 I-0.10352 J-0.03648
G01 Z-0.16000 F78.00
G02 X3.28923 Y16.07380 I0.02017 J0.10789 F156.00
G02 X3.47610 Y16.03886 I0.08335 J-0.07141
G02 X3.35241 Y15.89449 I-0.10352 J-0.03648
G01 Z-0.24000 F78.00
G02 X3.28923 Y16.07380 I0.02017 J0.10789 F156.00
G02 X3.47610 Y16.03886 I0.08335 J-0.07141
G02 X3.35241 Y15.89449 I-0.10352 J-0.03648
G01 Z-0.32000 F78.00
G02 X3.28923 Y16.07380 I0.02017 J0.10789 F156.00
G02 X3.47610 Y16.03886 I0.08335 J-0.07141
G02 X3.35241 Y15.89449 I-0.10352 J-0.03648
G01 Z-0.40000 F78.00
G02 X3.28923 Y16.07380 I0.02017 J0.10789 F156.00
G02 X3.47610 Y16.03886 I0.08335 J-0.07141
G02 X3.35241 Y15.89449 I-0.10352 J-0.03648
G01 Z-0.48000 F78.00
G02 X3.28923 Y16.07380 I0.02017 J0.10789 F156.00
G02 X3.47610 Y16.03886 I0.08335 J-0.07141
G02 X3.35241 Y15.89449 I-0.10352 J-0.03648
G01 Z-0.52000 F78.00
G02 X3.28923 Y16.07380 I0.02017 J0.10789 F156.00
G02 X3.47610 Y16.03886 I0.08335 J-0.07141
G02 X3.35241 Y15.89449 I-0.10352 J-0.03648
G00 Z0.19685


(No. 56: Hole 58)
G00 X4.21748 Y15.82366 Z0.19685
G00 Z0.01969
G01 Z0.00000 F78.00
G01 Z-0.08000
G01 Y16.18111 F156.00
G01 X4.20064 Y16.19795
G01 X4.21748 Y16.18111
G01 X6.31705
G01 X6.33389 Y16.19795
G01 X6.31705 Y16.18111
G01 Y15.82366
G01 X6.33389 Y15.80682
G01 X6.31705 Y15.82366
G01 X4.21748
G01 X4.20064 Y15.80682
G01 X4.21748 Y15.82366
G01 Z-0.16000 F78.00
G01 Y16.18111 F156.00
G01 X4.20064 Y16.19795
G01 X4.21748 Y16.18111
G01 X6.31705
G01 X6.33389 Y16.19795
G01 X6.31705 Y16.18111
G01 Y15.82366
G01 X6.33389 Y15.80682
G01 X6.31705 Y15.82366
G01 X4.21748
G01 X4.20064 Y15.80682
G01 X4.21748 Y15.82366
G01 Z-0.24000 F78.00
G01 Y16.18111 F156.00
G01 X4.20064 Y16.19795
G01 X4.21748 Y16.18111
G01 X6.31705
G01 X6.33389 Y16.19795
G01 X6.31705 Y16.18111
G01 Y15.82366
G01 X6.33389 Y15.80682
G01 X6.31705 Y15.82366
G01 X4.21748
G01 X4.20064 Y15.80682
G01 X4.21748 Y15.82366
G01 Z-0.32000 F78.00
G01 Y16.18111 F156.00
G01 X4.20064 Y16.19795
G01 X4.21748 Y16.18111
G01 X6.31705
G01 X6.33389 Y16.19795
G01 X6.31705 Y16.18111
G01 Y15.82366
G01 X6.33389 Y15.80682
G01 X6.31705 Y15.82366
G01 X4.21748
G01 X4.20064 Y15.80682
G01 X4.21748 Y15.82366
G01 Z-0.40000 F78.00
G01 Y16.18111 F156.00
G01 X4.20064 Y16.19795
G01 X4.21748 Y16.18111
G01 X6.31705
G01 X6.33389 Y16.19795
G01 X6.31705 Y16.18111
G01 Y15.82366
G01 X6.33389 Y15.80682
G01 X6.31705 Y15.82366
G01 X4.21748
G01 X4.20064 Y15.80682
G01 X4.21748 Y15.82366
G01 Z-0.48000 F78.00
G01 Y16.18111 F156.00
G01 X4.20064 Y16.19795
G01 X4.21748 Y16.18111
G01 X6.31705
G01 X6.33389 Y16.19795
G01 X6.31705 Y16.18111
G01 Y15.82366
G01 X6.33389 Y15.80682
G01 X6.31705 Y15.82366
G01 X4.21748
G01 X4.20064 Y15.80682
G01 X4.21748 Y15.82366
G01 Z-0.52000 F78.00
G01 Y16.18111 F156.00
G01 X4.20064 Y16.19795
G01 X4.21748 Y16.18111
G01 X6.31705
G01 X6.33389 Y16.19795
G01 X6.31705 Y16.18111
G01 Y15.82366
G01 X6.33389 Y15.80682
G01 X6.31705 Y15.82366
G01 X4.21748
G01 X4.20064 Y15.80682
G01 X4.21748 Y15.82366
G00 Z0.19685


(No. 57: Hole 57)
G00 X3.29779 Y13.57265 Z0.19685
G00 Z0.01969
G01 Z0.00000 F78.00
G01 Z-0.08000
G02 X3.15771 Y14.07436 I0.07479 J0.29129 F156.00
G02 X3.66224 Y13.94482 I0.21487 J-0.21042
G02 X3.29779 Y13.57265 I-0.28966 J-0.08087
G01 Z-0.16000 F78.00
G02 X3.15771 Y14.07436 I0.07479 J0.29129 F156.00
G02 X3.66224 Y13.94482 I0.21487 J-0.21042
G02 X3.29779 Y13.57265 I-0.28966 J-0.08087
G01 Z-0.24000 F78.00
G02 X3.15771 Y14.07436 I0.07479 J0.29129 F156.00
G02 X3.66224 Y13.94482 I0.21487 J-0.21042
G02 X3.29779 Y13.57265 I-0.28966 J-0.08087
G01 Z-0.32000 F78.00
G02 X3.15771 Y14.07436 I0.07479 J0.29129 F156.00
G02 X3.66224 Y13.94482 I0.21487 J-0.21042
G02 X3.29779 Y13.57265 I-0.28966 J-0.08087
G01 Z-0.40000 F78.00
G02 X3.15771 Y14.07436 I0.07479 J0.29129 F156.00
G02 X3.66224 Y13.94482 I0.21487 J-0.21042
G02 X3.29779 Y13.57265 I-0.28966 J-0.08087
G01 Z-0.48000 F78.00
G02 X3.15771 Y14.07436 I0.07479 J0.29129 F156.00
G02 X3.66224 Y13.94482 I0.21487 J-0.21042
G02 X3.29779 Y13.57265 I-0.28966 J-0.08087
G01 Z-0.52000 F78.00
G02 X3.15771 Y14.07436 I0.07479 J0.29129 F156.00
G02 X3.66224 Y13.94482 I0.21487 J-0.21042
G02 X3.29779 Y13.57265 I-0.28966 J-0.08087
G00 Z0.19685


(No. 58: Hole 56)
G00 X2.32879 Y13.74882 Z0.19685
G00 Z0.01969
G01 Z0.00000 F78.00
G01 Z-0.08000
G02 X2.26561 Y13.92813 I0.02017 J0.10789 F156.00
G02 X2.45248 Y13.89320 I0.08335 J-0.07141
G02 X2.32879 Y13.74882 I-0.10352 J-0.03648
G01 Z-0.16000 F78.00
G02 X2.26561 Y13.92813 I0.02017 J0.10789 F156.00
G02 X2.45248 Y13.89320 I0.08335 J-0.07141
G02 X2.32879 Y13.74882 I-0.10352 J-0.03648
G01 Z-0.24000 F78.00
G02 X2.26561 Y13.92813 I0.02017 J0.10789 F156.00
G02 X2.45248 Y13.89320 I0.08335 J-0.07141
G02 X2.32879 Y13.74882 I-0.10352 J-0.03648
G01 Z-0.32000 F78.00
G02 X2.26561 Y13.92813 I0.02017 J0.10789 F156.00
G02 X2.45248 Y13.89320 I0.08335 J-0.07141
G02 X2.32879 Y13.74882 I-0.10352 J-0.03648
G01 Z-0.40000 F78.00
G02 X2.26561 Y13.92813 I0.02017 J0.10789 F156.00
G02 X2.45248 Y13.89320 I0.08335 J-0.07141
G02 X2.32879 Y13.74882 I-0.10352 J-0.03648
G01 Z-0.48000 F78.00
G02 X2.26561 Y13.92813 I0.02017 J0.10789 F156.00
G02 X2.45248 Y13.89320 I0.08335 J-0.07141
G02 X2.32879 Y13.74882 I-0.10352 J-0.03648
G01 Z-0.52000 F78.00
G02 X2.26561 Y13.92813 I0.02017 J0.10789 F156.00
G02 X2.45248 Y13.89320 I0.08335 J-0.07141
G02 X2.32879 Y13.74882 I-0.10352 J-0.03648
G00 Z0.19685


(No. 59: Hole 13)
G00 X1.61367 Y11.68554 Z0.19685
G00 Z0.01969
G01 Z0.00000 F78.00
G01 Z-0.08000
G02 X1.50060 Y11.97363 I0.02663 J0.17668 F156.00
G02 X1.80663 Y11.92751 I0.13970 J-0.11141
G02 X1.61367 Y11.68554 I-0.16633 J-0.06528
G01 Z-0.16000 F78.00
G02 X1.50060 Y11.97363 I0.02663 J0.17668 F156.00
G02 X1.80663 Y11.92751 I0.13970 J-0.11141
G02 X1.61367 Y11.68554 I-0.16633 J-0.06528
G01 Z-0.24000 F78.00
G02 X1.50060 Y11.97363 I0.02663 J0.17668 F156.00
G02 X1.80663 Y11.92751 I0.13970 J-0.11141
G02 X1.61367 Y11.68554 I-0.16633 J-0.06528
G01 Z-0.32000 F78.00
G02 X1.50060 Y11.97363 I0.02663 J0.17668 F156.00
G02 X1.80663 Y11.92751 I0.13970 J-0.11141
G02 X1.61367 Y11.68554 I-0.16633 J-0.06528
G01 Z-0.40000 F78.00
G02 X1.50060 Y11.97363 I0.02663 J0.17668 F156.00
G02 X1.80663 Y11.92751 I0.13970 J-0.11141
G02 X1.61367 Y11.68554 I-0.16633 J-0.06528
G01 Z-0.48000 F78.00
G02 X1.50060 Y11.97363 I0.02663 J0.17668 F156.00
G02 X1.80663 Y11.92751 I0.13970 J-0.11141
G02 X1.61367 Y11.68554 I-0.16633 J-0.06528
G01 Z-0.52000 F78.00
G02 X1.50060 Y11.97363 I0.02663 J0.17668 F156.00
G02 X1.80663 Y11.92751 I0.13970 J-0.11141
G02 X1.61367 Y11.68554 I-0.16633 J-0.06528
G00 Z0.19685


(No. 60: Hole 12)
G00 X0.92151 Y11.48624 Z0.19685
G00 Z0.01969
G01 Z0.00000 F78.00
G01 Z-0.08000
G02 X0.84205 Y11.65895 I0.01013 J0.10929 F156.00
G02 X1.03135 Y11.64141 I0.08959 J-0.06342
G02 X0.92151 Y11.48624 I-0.09971 J-0.04588
G01 Z-0.16000 F78.00
G02 X0.84205 Y11.65895 I0.01013 J0.10929 F156.00
G02 X1.03135 Y11.64141 I0.08959 J-0.06342
G02 X0.92151 Y11.48624 I-0.09971 J-0.04588
G01 Z-0.24000 F78.00
G02 X0.84205 Y11.65895 I0.01013 J0.10929 F156.00
G02 X1.03135 Y11.64141 I0.08959 J-0.06342
G02 X0.92151 Y11.48624 I-0.09971 J-0.04588
G01 Z-0.32000 F78.00
G02 X0.84205 Y11.65895 I0.01013 J0.10929 F156.00
G02 X1.03135 Y11.64141 I0.08959 J-0.06342
G02 X0.92151 Y11.48624 I-0.09971 J-0.04588
G01 Z-0.40000 F78.00
G02 X0.84205 Y11.65895 I0.01013 J0.10929 F156.00
G02 X1.03135 Y11.64141 I0.08959 J-0.06342
G02 X0.92151 Y11.48624 I-0.09971 J-0.04588
G01 Z-0.48000 F78.00
G02 X0.84205 Y11.65895 I0.01013 J0.10929 F156.00
G02 X1.03135 Y11.64141 I0.08959 J-0.06342
G02 X0.92151 Y11.48624 I-0.09971 J-0.04588
G01 Z-0.52000 F78.00
G02 X0.84205 Y11.65895 I0.01013 J0.10929 F156.00
G02 X1.03135 Y11.64141 I0.08959 J-0.06342
G02 X0.92151 Y11.48624 I-0.09971 J-0.04588
G00 Z0.19685


(No. 61: Hole 14)
G00 X2.32879 Y11.48764 Z0.19685
G00 Z0.01969
G01 Z0.00000 F78.00
G01 Z-0.08000
G02 X2.26561 Y11.66694 I0.02017 J0.10789 F156.00
G02 X2.45248 Y11.63201 I0.08335 J-0.07141
G02 X2.32879 Y11.48764 I-0.10352 J-0.03648
G01 Z-0.16000 F78.00
G02 X2.26561 Y11.66694 I0.02017 J0.10789 F156.00
G02 X2.45248 Y11.63201 I0.08335 J-0.07141
G02 X2.32879 Y11.48764 I-0.10352 J-0.03648
G01 Z-0.24000 F78.00
G02 X2.26561 Y11.66694 I0.02017 J0.10789 F156.00
G02 X2.45248 Y11.63201 I0.08335 J-0.07141
G02 X2.32879 Y11.48764 I-0.10352 J-0.03648
G01 Z-0.32000 F78.00
G02 X2.26561 Y11.66694 I0.02017 J0.10789 F156.00
G02 X2.45248 Y11.63201 I0.08335 J-0.07141
G02 X2.32879 Y11.48764 I-0.10352 J-0.03648
G01 Z-0.40000 F78.00
G02 X2.26561 Y11.66694 I0.02017 J0.10789 F156.00
G02 X2.45248 Y11.63201 I0.08335 J-0.07141
G02 X2.32879 Y11.48764 I-0.10352 J-0.03648
G01 Z-0.48000 F78.00
G02 X2.26561 Y11.66694 I0.02017 J0.10789 F156.00
G02 X2.45248 Y11.63201 I0.08335 J-0.07141
G02 X2.32879 Y11.48764 I-0.10352 J-0.03648
G01 Z-0.52000 F78.00
G02 X2.26561 Y11.66694 I0.02017 J0.10789 F156.00
G02 X2.45248 Y11.63201 I0.08335 J-0.07141
G02 X2.32879 Y11.48764 I-0.10352 J-0.03648
G00 Z0.19685


(No. 62: Hole 11)
G00 X0.75292 Y10.07800 Z0.19685
G00 Z0.01969
G01 Z0.00000 F78.00
G01 Z-0.08000
G01 Y10.75040 F156.00
G01 X0.73608 Y10.76725
G01 X0.75292 Y10.75040
G01 X2.52768
G01 X2.54452 Y10.76725
G01 X2.52768 Y10.75040
G01 Y10.07800
G01 X2.54452 Y10.06116
G01 X2.52768 Y10.07800
G01 X0.75292
G01 X0.73608 Y10.06116
G01 X0.75292 Y10.07800
G01 Z-0.16000 F78.00
G01 Y10.75040 F156.00
G01 X0.73608 Y10.76725
G01 X0.75292 Y10.75040
G01 X2.52768
G01 X2.54452 Y10.76725
G01 X2.52768 Y10.75040
G01 Y10.07800
G01 X2.54452 Y10.06116
G01 X2.52768 Y10.07800
G01 X0.75292
G01 X0.73608 Y10.06116
G01 X0.75292 Y10.07800
G01 Z-0.24000 F78.00
G01 Y10.75040 F156.00
G01 X0.73608 Y10.76725
G01 X0.75292 Y10.75040
G01 X2.52768
G01 X2.54452 Y10.76725
G01 X2.52768 Y10.75040
G01 Y10.07800
G01 X2.54452 Y10.06116
G01 X2.52768 Y10.07800
G01 X0.75292
G01 X0.73608 Y10.06116
G01 X0.75292 Y10.07800
G01 Z-0.32000 F78.00
G01 Y10.75040 F156.00
G01 X0.73608 Y10.76725
G01 X0.75292 Y10.75040
G01 X2.52768
G01 X2.54452 Y10.76725
G01 X2.52768 Y10.75040
G01 Y10.07800
G01 X2.54452 Y10.06116
G01 X2.52768 Y10.07800
G01 X0.75292
G01 X0.73608 Y10.06116
G01 X0.75292 Y10.07800
G01 Z-0.40000 F78.00
G01 Y10.75040 F156.00
G01 X0.73608 Y10.76725
G01 X0.75292 Y10.75040
G01 X2.52768
G01 X2.54452 Y10.76725
G01 X2.52768 Y10.75040
G01 Y10.07800
G01 X2.54452 Y10.06116
G01 X2.52768 Y10.07800
G01 X0.75292
G01 X0.73608 Y10.06116
G01 X0.75292 Y10.07800
G01 Z-0.48000 F78.00
G01 Y10.75040 F156.00
G01 X0.73608 Y10.76725
G01 X0.75292 Y10.75040
G01 X2.52768
G01 X2.54452 Y10.76725
G01 X2.52768 Y10.75040
G01 Y10.07800
G01 X2.54452 Y10.06116
G01 X2.52768 Y10.07800
G01 X0.75292
G01 X0.73608 Y10.06116
G01 X0.75292 Y10.07800
G01 Z-0.52000 F78.00
G01 Y10.75040 F156.00
G01 X0.73608 Y10.76725
G01 X0.75292 Y10.75040
G01 X2.52768
G01 X2.54452 Y10.76725
G01 X2.52768 Y10.75040
G01 Y10.07800
G01 X2.54452 Y10.06116
G01 X2.52768 Y10.07800
G01 X0.75292
G01 X0.73608 Y10.06116
G01 X0.75292 Y10.07800
G00 Z0.19685


(No. 63: Hole 15)
G00 X4.39844 Y8.91694 Z0.19685
G00 Z0.01969
G01 Z0.00000 F78.00
G01 Z-0.08000
G02 X4.26208 Y11.67526 I0.72808 J1.41852 F156.00
G02 X6.71904 Y10.41419 I0.86444 J-1.33980
G02 X4.39844 Y8.91694 I-1.59252 J-0.07873
G01 Z-0.16000 F78.00
G02 X4.26208 Y11.67526 I0.72808 J1.41852 F156.00
G02 X6.71904 Y10.41419 I0.86444 J-1.33980
G02 X4.39844 Y8.91694 I-1.59252 J-0.07873
G01 Z-0.24000 F78.00
G02 X4.26208 Y11.67526 I0.72808 J1.41852 F156.00
G02 X6.71904 Y10.41419 I0.86444 J-1.33980
G02 X4.39844 Y8.91694 I-1.59252 J-0.07873
G01 Z-0.32000 F78.00
G02 X4.26208 Y11.67526 I0.72808 J1.41852 F156.00
G02 X6.71904 Y10.41419 I0.86444 J-1.33980
G02 X4.39844 Y8.91694 I-1.59252 J-0.07873
G01 Z-0.40000 F78.00
G02 X4.26208 Y11.67526 I0.72808 J1.41852 F156.00
G02 X6.71904 Y10.41419 I0.86444 J-1.33980
G02 X4.39844 Y8.91694 I-1.59252 J-0.07873
G01 Z-0.48000 F78.00
G02 X4.26208 Y11.67526 I0.72808 J1.41852 F156.00
G02 X6.71904 Y10.41419 I0.86444 J-1.33980
G02 X4.39844 Y8.91694 I-1.59252 J-0.07873
G01 Z-0.52000 F78.00
G02 X4.26208 Y11.67526 I0.72808 J1.41852 F156.00
G02 X6.71904 Y10.41419 I0.86444 J-1.33980
G02 X4.39844 Y8.91694 I-1.59252 J-0.07873
G00 Z0.19685


(No. 64: Hole 16)
G00 X8.40808 Y9.78756 Z0.19685
G00 Z0.01969
G01 Z0.00000 F78.00
G01 Z-0.08000
G02 X8.65691 Y11.02703 I0.48222 J0.54791 F156.00
G02 X9.60591 Y10.19180 I0.23339 J-0.69157
G02 X8.40808 Y9.78756 I-0.71561 J0.14366
G01 Z-0.16000 F78.00
G02 X8.65691 Y11.02703 I0.48222 J0.54791 F156.00
G02 X9.60591 Y10.19180 I0.23339 J-0.69157
G02 X8.40808 Y9.78756 I-0.71561 J0.14366
G01 Z-0.24000 F78.00
G02 X8.65691 Y11.02703 I0.48222 J0.54791 F156.00
G02 X9.60591 Y10.19180 I0.23339 J-0.69157
G02 X8.40808 Y9.78756 I-0.71561 J0.14366
G01 Z-0.32000 F78.00
G02 X8.65691 Y11.02703 I0.48222 J0.54791 F156.00
G02 X9.60591 Y10.19180 I0.23339 J-0.69157
G02 X8.40808 Y9.78756 I-0.71561 J0.14366
G01 Z-0.40000 F78.00
G02 X8.65691 Y11.02703 I0.48222 J0.54791 F156.00
G02 X9.60591 Y10.19180 I0.23339 J-0.69157
G02 X8.40808 Y9.78756 I-0.71561 J0.14366
G01 Z-0.48000 F78.00
G02 X8.65691 Y11.02703 I0.48222 J0.54791 F156.00
G02 X9.60591 Y10.19180 I0.23339 J-0.69157
G02 X8.40808 Y9.78756 I-0.71561 J0.14366
G01 Z-0.52000 F78.00
G02 X8.65691 Y11.02703 I0.48222 J0.54791 F156.00
G02 X9.60591 Y10.19180 I0.23339 J-0.69157
G02 X8.40808 Y9.78756 I-0.71561 J0.14366
G00 Z0.19685


(No. 65: Hole 17)
G00 X10.56197 Y9.55457 Z0.19685
G00 Z0.01969
G01 Z0.00000 F78.00
G01 Z-0.08000
G01 Y10.85689 F156.00
G01 X10.54513 Y10.87373
G01 X10.56197 Y10.85689
G01 X10.91941
G01 X10.93626 Y10.87373
G01 X10.91941 Y10.85689
G01 Y9.55457
G01 X10.93626 Y9.53773
G01 X10.91941 Y9.55457
G01 X10.56197
G01 X10.54513 Y9.53773
G01 X10.56197 Y9.55457
G01 Z-0.16000 F78.00
G01 Y10.85689 F156.00
G01 X10.54513 Y10.87373
G01 X10.56197 Y10.85689
G01 X10.91941
G01 X10.93626 Y10.87373
G01 X10.91941 Y10.85689
G01 Y9.55457
G01 X10.93626 Y9.53773
G01 X10.91941 Y9.55457
G01 X10.56197
G01 X10.54513 Y9.53773
G01 X10.56197 Y9.55457
G01 Z-0.24000 F78.00
G01 Y10.85689 F156.00
G01 X10.54513 Y10.87373
G01 X10.56197 Y10.85689
G01 X10.91941
G01 X10.93626 Y10.87373
G01 X10.91941 Y10.85689
G01 Y9.55457
G01 X10.93626 Y9.53773
G01 X10.91941 Y9.55457
G01 X10.56197
G01 X10.54513 Y9.53773
G01 X10.56197 Y9.55457
G01 Z-0.32000 F78.00
G01 Y10.85689 F156.00
G01 X10.54513 Y10.87373
G01 X10.56197 Y10.85689
G01 X10.91941
G01 X10.93626 Y10.87373
G01 X10.91941 Y10.85689
G01 Y9.55457
G01 X10.93626 Y9.53773
G01 X10.91941 Y9.55457
G01 X10.56197
G01 X10.54513 Y9.53773
G01 X10.56197 Y9.55457
G01 Z-0.40000 F78.00
G01 Y10.85689 F156.00
G01 X10.54513 Y10.87373
G01 X10.56197 Y10.85689
G01 X10.91941
G01 X10.93626 Y10.87373
G01 X10.91941 Y10.85689
G01 Y9.55457
G01 X10.93626 Y9.53773
G01 X10.91941 Y9.55457
G01 X10.56197
G01 X10.54513 Y9.53773
G01 X10.56197 Y9.55457
G01 Z-0.48000 F78.00
G01 Y10.85689 F156.00
G01 X10.54513 Y10.87373
G01 X10.56197 Y10.85689
G01 X10.91941
G01 X10.93626 Y10.87373
G01 X10.91941 Y10.85689
G01 Y9.55457
G01 X10.93626 Y9.53773
G01 X10.91941 Y9.55457
G01 X10.56197
G01 X10.54513 Y9.53773
G01 X10.56197 Y9.55457
G01 Z-0.52000 F78.00
G01 Y10.85689 F156.00
G01 X10.54513 Y10.87373
G01 X10.56197 Y10.85689
G01 X10.91941
G01 X10.93626 Y10.87373
G01 X10.91941 Y10.85689
G01 Y9.55457
G01 X10.93626 Y9.53773
G01 X10.91941 Y9.55457
G01 X10.56197
G01 X10.54513 Y9.53773
G01 X10.56197 Y9.55457
G00 Z0.19685


(No. 66: Hole 18)
G00 X10.65310 Y8.74195 Z0.19685
G00 Z0.01969
G01 Z0.00000 F78.00
G01 Z-0.08000
G02 X10.72720 Y8.91702 I0.08759 J0.06615 F156.00
G02 X10.84177 Y8.76531 I0.01349 J-0.10893
G02 X10.65310 Y8.74195 I-0.10108 J0.04278
G01 Z-0.16000 F78.00
G02 X10.72720 Y8.91702 I0.08759 J0.06615 F156.00
G02 X10.84177 Y8.76531 I0.01349 J-0.10893
G02 X10.65310 Y8.74195 I-0.10108 J0.04278
G01 Z-0.24000 F78.00
G02 X10.72720 Y8.91702 I0.08759 J0.06615 F156.00
G02 X10.84177 Y8.76531 I0.01349 J-0.10893
G02 X10.65310 Y8.74195 I-0.10108 J0.04278
G01 Z-0.32000 F78.00
G02 X10.72720 Y8.91702 I0.08759 J0.06615 F156.00
G02 X10.84177 Y8.76531 I0.01349 J-0.10893
G02 X10.65310 Y8.74195 I-0.10108 J0.04278
G01 Z-0.40000 F78.00
G02 X10.72720 Y8.91702 I0.08759 J0.06615 F156.00
G02 X10.84177 Y8.76531 I0.01349 J-0.10893
G02 X10.65310 Y8.74195 I-0.10108 J0.04278
G01 Z-0.48000 F78.00
G02 X10.72720 Y8.91702 I0.08759 J0.06615 F156.00
G02 X10.84177 Y8.76531 I0.01349 J-0.10893
G02 X10.65310 Y8.74195 I-0.10108 J0.04278
G01 Z-0.52000 F78.00
G02 X10.72720 Y8.91702 I0.08759 J0.06615 F156.00
G02 X10.84177 Y8.76531 I0.01349 J-0.10893
G02 X10.65310 Y8.74195 I-0.10108 J0.04278
G00 Z0.19685


(No. 67: Hole 19)
G00 X13.15449 Y9.76323 Z0.19685
G00 Z0.01969
G01 Z0.00000 F78.00
G01 Z-0.08000
G01 Y10.43563 F156.00
G01 X13.13765 Y10.45247
G01 X13.15449 Y10.43563
G01 X13.51193
G01 X13.52877 Y10.45247
G01 X13.51193 Y10.43563
G01 Y9.76323
G01 X13.52877 Y9.74639
G01 X13.51193 Y9.76323
G01 X13.15449
G01 X13.13765 Y9.74639
G01 X13.15449 Y9.76323
G01 Z-0.16000 F78.00
G01 Y10.43563 F156.00
G01 X13.13765 Y10.45247
G01 X13.15449 Y10.43563
G01 X13.51193
G01 X13.52877 Y10.45247
G01 X13.51193 Y10.43563
G01 Y9.76323
G01 X13.52877 Y9.74639
G01 X13.51193 Y9.76323
G01 X13.15449
G01 X13.13765 Y9.74639
G01 X13.15449 Y9.76323
G01 Z-0.24000 F78.00
G01 Y10.43563 F156.00
G01 X13.13765 Y10.45247
G01 X13.15449 Y10.43563
G01 X13.51193
G01 X13.52877 Y10.45247
G01 X13.51193 Y10.43563
G01 Y9.76323
G01 X13.52877 Y9.74639
G01 X13.51193 Y9.76323
G01 X13.15449
G01 X13.13765 Y9.74639
G01 X13.15449 Y9.76323
G01 Z-0.32000 F78.00
G01 Y10.43563 F156.00
G01 X13.13765 Y10.45247
G01 X13.15449 Y10.43563
G01 X13.51193
G01 X13.52877 Y10.45247
G01 X13.51193 Y10.43563
G01 Y9.76323
G01 X13.52877 Y9.74639
G01 X13.51193 Y9.76323
G01 X13.15449
G01 X13.13765 Y9.74639
G01 X13.15449 Y9.76323
G01 Z-0.40000 F78.00
G01 Y10.43563 F156.00
G01 X13.13765 Y10.45247
G01 X13.15449 Y10.43563
G01 X13.51193
G01 X13.52877 Y10.45247
G01 X13.51193 Y10.43563
G01 Y9.76323
G01 X13.52877 Y9.74639
G01 X13.51193 Y9.76323
G01 X13.15449
G01 X13.13765 Y9.74639
G01 X13.15449 Y9.76323
G01 Z-0.48000 F78.00
G01 Y10.43563 F156.00
G01 X13.13765 Y10.45247
G01 X13.15449 Y10.43563
G01 X13.51193
G01 X13.52877 Y10.45247
G01 X13.51193 Y10.43563
G01 Y9.76323
G01 X13.52877 Y9.74639
G01 X13.51193 Y9.76323
G01 X13.15449
G01 X13.13765 Y9.74639
G01 X13.15449 Y9.76323
G01 Z-0.52000 F78.00
G01 Y10.43563 F156.00
G01 X13.13765 Y10.45247
G01 X13.15449 Y10.43563
G01 X13.51193
G01 X13.52877 Y10.45247
G01 X13.51193 Y10.43563
G01 Y9.76323
G01 X13.52877 Y9.74639
G01 X13.51193 Y9.76323
G01 X13.15449
G01 X13.13765 Y9.74639
