(Project Spindlemount 80mm)
(Created by Estlcam version 11 build 11.212)
(Machining time about 00:07:49 hours)

(Required tools:)
(End mill 1/8)
G20
G90
G94
M03 S24000
G00 Z0.20000


(No. 1: Hole 1)
G00 X2.69411 Y2.55438
G00 Z0.01969
G01 Z0.00000 F80.00 S24000
G01 Z-0.08000
G02 X3.44816 Y5.06287 I1.10116 J1.03657 F160.00
G02 X5.24355 Y3.15559 I0.34711 J-1.47192
G02 X2.69411 Y2.55438 I-1.44828 J0.43535
G01 Z-0.16000 F80.00
G02 X3.44816 Y5.06287 I1.10116 J1.03657 F160.00
G02 X5.24355 Y3.15559 I0.34711 J-1.47192
G02 X2.69411 Y2.55438 I-1.44828 J0.43535
G01 Z-0.24000 F80.00
G02 X3.44816 Y5.06287 I1.10116 J1.03657 F160.00
G02 X5.24355 Y3.15559 I0.34711 J-1.47192
G02 X2.69411 Y2.55438 I-1.44828 J0.43535
G01 Z-0.32000 F80.00
G02 X3.44816 Y5.06287 I1.10116 J1.03657 F160.00
G02 X5.24355 Y3.15559 I0.34711 J-1.47192
G02 X2.69411 Y2.55438 I-1.44828 J0.43535
G01 Z-0.40000 F80.00
G02 X3.44816 Y5.06287 I1.10116 J1.03657 F160.00
G02 X5.24355 Y3.15559 I0.34711 J-1.47192
G02 X2.69411 Y2.55438 I-1.44828 J0.43535
G01 Z-0.48000 F80.00
G02 X3.44816 Y5.06287 I1.10116 J1.03657 F160.00
G02 X5.24355 Y3.15559 I0.34711 J-1.47192
G02 X2.69411 Y2.55438 I-1.44828 J0.43535
G01 Z-0.52000 F80.00
G02 X3.44816 Y5.06287 I1.10116 J1.03657 F160.00
G02 X5.24355 Y3.15559 I0.34711 J-1.47192
G02 X2.69411 Y2.55438 I-1.44828 J0.43535
G00 Z0.20000


(No. 2: Hole 9)
G00 X2.00735 Y7.83258 Z0.20000
G00 Z0.01969
G01 Z0.00000 F80.00
G01 Z-0.08000
G01 Y7.86506 F160.00
G01 X2.15797
G01 Y7.83258
G01 X2.00735
G01 Z-0.16000 F80.00
G01 Y7.86506 F160.00
G01 X2.15797
G01 Y7.83258
G01 X2.00735
G01 Z-0.24000 F80.00
G01 Y7.86506 F160.00
G01 X2.15797
G01 Y7.83258
G01 X2.00735
G01 Z-0.32000 F80.00
G01 Y7.86506 F160.00
G01 X2.15797
G01 Y7.83258
G01 X2.00735
G01 Z-0.40000 F80.00
G01 Y7.86506 F160.00
G01 X2.15797
G01 Y7.83258
G01 X2.00735
G01 Z-0.48000 F80.00
G01 Y7.86506 F160.00
G01 X2.15797
G01 Y7.83258
G01 X2.00735
G01 Z-0.52000 F80.00
G01 Y7.86506 F160.00
G01 X2.15797
G01 Y7.83258
G01 X2.00735
G00 Z0.20000


(No. 3: Hole 10)
G00 X1.31496 Y9.63383 Z0.20000
G00 Z0.01969
G01 Z0.00000 F80.00
G01 Z-0.08000
G02 X1.22424 Y9.79096 I0.00000 J0.10476 F160.00
G02 X1.40568 I0.09072 J-0.05238
G02 X1.31496 Y9.63383 I-0.09072 J-0.05238
G01 Z-0.16000 F80.00
G02 X1.22424 Y9.79096 I0.00000 J0.10476 F160.00
G02 X1.40568 I0.09072 J-0.05238
G02 X1.31496 Y9.63383 I-0.09072 J-0.05238
G01 Z-0.24000 F80.00
G02 X1.22424 Y9.79096 I0.00000 J0.10476 F160.00
G02 X1.40568 I0.09072 J-0.05238
G02 X1.31496 Y9.63383 I-0.09072 J-0.05238
G01 Z-0.32000 F80.00
G02 X1.22424 Y9.79096 I0.00000 J0.10476 F160.00
G02 X1.40568 I0.09072 J-0.05238
G02 X1.31496 Y9.63383 I-0.09072 J-0.05238
G01 Z-0.40000 F80.00
G02 X1.22424 Y9.79096 I0.00000 J0.10476 F160.00
G02 X1.40568 I0.09072 J-0.05238
G02 X1.31496 Y9.63383 I-0.09072 J-0.05238
G01 Z-0.48000 F80.00
G02 X1.22424 Y9.79096 I0.00000 J0.10476 F160.00
G02 X1.40568 I0.09072 J-0.05238
G02 X1.31496 Y9.63383 I-0.09072 J-0.05238
G01 Z-0.52000 F80.00
G02 X1.22424 Y9.79096 I0.00000 J0.10476 F160.00
G02 X1.40568 I0.09072 J-0.05238
G02 X1.31496 Y9.63383 I-0.09072 J-0.05238
G00 Z0.20000


(No. 4: Hole 8)
G00 X2.15797 Y11.61211 Z0.20000
G00 Z0.01969
G01 Z0.00000 F80.00
G01 Z-0.08000
G01 X2.00738 F160.00
G01 Y11.64459
G01 X2.15797
G01 Y11.61211
G01 Z-0.16000 F80.00
G01 X2.00738 F160.00
G01 Y11.64459
G01 X2.15797
G01 Y11.61211
G01 Z-0.24000 F80.00
G01 X2.00738 F160.00
G01 Y11.64459
G01 X2.15797
G01 Y11.61211
G01 Z-0.32000 F80.00
G01 X2.00738 F160.00
G01 Y11.64459
G01 X2.15797
G01 Y11.61211
G01 Z-0.40000 F80.00
G01 X2.00738 F160.00
G01 Y11.64459
G01 X2.15797
G01 Y11.61211
G01 Z-0.48000 F80.00
G01 X2.00738 F160.00
G01 Y11.64459
G01 X2.15797
G01 Y11.61211
G01 Z-0.52000 F80.00
G01 X2.00738 F160.00
G01 Y11.64459
G01 X2.15797
G01 Y11.61211
G00 Z0.20000


(No. 5: Hole 6)
G00 X4.94720 Y11.07440 Z0.20000
G00 Z0.01969
G01 Z0.00000 F80.00
G01 Z-0.08000
G02 X4.88601 Y11.43830 I0.07445 J0.19962 F160.00
G02 X5.23175 Y11.30935 I0.13565 J-0.16429
G02 X4.94720 Y11.07440 I-0.21010 J-0.03533
G01 Z-0.16000 F80.00
G02 X4.88601 Y11.43830 I0.07445 J0.19962 F160.00
G02 X5.23175 Y11.30935 I0.13565 J-0.16429
G02 X4.94720 Y11.07440 I-0.21010 J-0.03533
G01 Z-0.24000 F80.00
G02 X4.88601 Y11.43830 I0.07445 J0.19962 F160.00
G02 X5.23175 Y11.30935 I0.13565 J-0.16429
G02 X4.94720 Y11.07440 I-0.21010 J-0.03533
G01 Z-0.32000 F80.00
G02 X4.88601 Y11.43830 I0.07445 J0.19962 F160.00
G02 X5.23175 Y11.30935 I0.13565 J-0.16429
G02 X4.94720 Y11.07440 I-0.21010 J-0.03533
G01 Z-0.40000 F80.00
G02 X4.88601 Y11.43830 I0.07445 J0.19962 F160.00
G02 X5.23175 Y11.30935 I0.13565 J-0.16429
G02 X4.94720 Y11.07440 I-0.21010 J-0.03533
G01 Z-0.48000 F80.00
G02 X4.88601 Y11.43830 I0.07445 J0.19962 F160.00
G02 X5.23175 Y11.30935 I0.13565 J-0.16429
G02 X4.94720 Y11.07440 I-0.21010 J-0.03533
G01 Z-0.52000 F80.00
G02 X4.88601 Y11.43830 I0.07445 J0.19962 F160.00
G02 X5.23175 Y11.30935 I0.13565 J-0.16429
G02 X4.94720 Y11.07440 I-0.21010 J-0.03533
G00 Z0.20000


(No. 6: Hole 22)
G00 X5.43185 Y10.49771 Z0.20000
G00 Z0.01969
G01 Z0.00000 F80.00
G01 Z-0.08000
G02 X5.45259 Y10.60522 I0.01994 J0.05191 F160.00
G01 X5.58957
G01 X5.94390
G01 X6.08087
G02 Y10.49400 I0.00079 J-0.05561
G01 X5.45259
G02 X5.43185 Y10.49771 I-0.00063 J0.05624
G01 Z-0.16000 F80.00
G02 X5.45259 Y10.60522 I0.01994 J0.05191 F160.00
G01 X5.58957
G01 X5.94390
G01 X6.08087
G02 Y10.49400 I0.00079 J-0.05561
G01 X5.45259
G02 X5.43185 Y10.49771 I-0.00063 J0.05624
G01 Z-0.24000 F80.00
G02 X5.45259 Y10.60522 I0.01994 J0.05191 F160.00
G01 X5.58957
G01 X5.94390
G01 X6.08087
G02 Y10.49400 I0.00079 J-0.05561
G01 X5.45259
G02 X5.43185 Y10.49771 I-0.00063 J0.05624
G01 Z-0.32000 F80.00
G02 X5.45259 Y10.60522 I0.01994 J0.05191 F160.00
G01 X5.58957
G01 X5.94390
G01 X6.08087
G02 Y10.49400 I0.00079 J-0.05561
G01 X5.45259
G02 X5.43185 Y10.49771 I-0.00063 J0.05624
G00 Z0.20000


(No. 7: Hole 5)
G00 X6.38383 Y10.35070 Z0.20000
G00 Z0.01969
G01 Z0.00000 F80.00
G01 Z-0.08000
G02 X6.38942 Y10.53206 I0.05515 J0.08907 F160.00
G02 X6.54368 Y10.43654 I0.04956 J-0.09229
G02 X6.38383 Y10.35070 I-0.10471 J0.00323
G01 Z-0.16000 F80.00
G02 X6.38942 Y10.53206 I0.05515 J0.08907 F160.00
G02 X6.54368 Y10.43654 I0.04956 J-0.09229
G02 X6.38383 Y10.35070 I-0.10471 J0.00323
G01 Z-0.24000 F80.00
G02 X6.38942 Y10.53206 I0.05515 J0.08907 F160.00
G02 X6.54368 Y10.43654 I0.04956 J-0.09229
G02 X6.38383 Y10.35070 I-0.10471 J0.00323
G01 Z-0.32000 F80.00
G02 X6.38942 Y10.53206 I0.05515 J0.08907 F160.00
G02 X6.54368 Y10.43654 I0.04956 J-0.09229
G02 X6.38383 Y10.35070 I-0.10471 J0.00323
G01 Z-0.40000 F80.00
G02 X6.38942 Y10.53206 I0.05515 J0.08907 F160.00
G02 X6.54368 Y10.43654 I0.04956 J-0.09229
G02 X6.38383 Y10.35070 I-0.10471 J0.00323
G01 Z-0.48000 F80.00
G02 X6.38942 Y10.53206 I0.05515 J0.08907 F160.00
G02 X6.54368 Y10.43654 I0.04956 J-0.09229
G02 X6.38383 Y10.35070 I-0.10471 J0.00323
G01 Z-0.52000 F80.00
G02 X6.38942 Y10.53206 I0.05515 J0.08907 F160.00
G02 X6.54368 Y10.43654 I0.04956 J-0.09229
G02 X6.38383 Y10.35070 I-0.10471 J0.00323
G00 Z0.20000


(No. 8: Hole 4)
G00 X6.38383 Y8.94834 Z0.20000
G00 Z0.01969
G01 Z0.00000 F80.00
G01 Z-0.08000
G02 X6.38942 Y9.12969 I0.05515 J0.08907 F160.00
G02 X6.54368 Y9.03418 I0.04956 J-0.09229
G02 X6.38383 Y8.94834 I-0.10471 J0.00323
G01 Z-0.16000 F80.00
G02 X6.38942 Y9.12969 I0.05515 J0.08907 F160.00
G02 X6.54368 Y9.03418 I0.04956 J-0.09229
G02 X6.38383 Y8.94834 I-0.10471 J0.00323
G01 Z-0.24000 F80.00
G02 X6.38942 Y9.12969 I0.05515 J0.08907 F160.00
G02 X6.54368 Y9.03418 I0.04956 J-0.09229
G02 X6.38383 Y8.94834 I-0.10471 J0.00323
G01 Z-0.32000 F80.00
G02 X6.38942 Y9.12969 I0.05515 J0.08907 F160.00
G02 X6.54368 Y9.03418 I0.04956 J-0.09229
G02 X6.38383 Y8.94834 I-0.10471 J0.00323
G01 Z-0.40000 F80.00
G02 X6.38942 Y9.12969 I0.05515 J0.08907 F160.00
G02 X6.54368 Y9.03418 I0.04956 J-0.09229
G02 X6.38383 Y8.94834 I-0.10471 J0.00323
G01 Z-0.48000 F80.00
G02 X6.38942 Y9.12969 I0.05515 J0.08907 F160.00
G02 X6.54368 Y9.03418 I0.04956 J-0.09229
G02 X6.38383 Y8.94834 I-0.10471 J0.00323
G01 Z-0.52000 F80.00
G02 X6.38942 Y9.12969 I0.05515 J0.08907 F160.00
G02 X6.54368 Y9.03418 I0.04956 J-0.09229
G02 X6.38383 Y8.94834 I-0.10471 J0.00323
G00 Z0.20000


(No. 9: Hole 23)
G00 X5.94173 Y8.83342 Z0.20000
G00 Z0.01969
G01 Z0.00000 F80.00
G01 Z-0.08000
G01 X5.59173 F160.00
G01 X5.57923 Y8.83200
G03 X5.57720 Y8.87645 I-0.12458 J0.01656
G03 X5.51660 Y8.92319 I-0.06060 J-0.01591
G01 X5.51631 Y8.92346
G01 X5.51635 Y8.92387
G01 X5.51670 Y8.92407
G01 X5.51785 Y8.92411
G01 X5.92421
G01 X6.01562
G01 X6.01686 Y8.92406
G01 X6.01716 Y8.92378
G01 X6.01711 Y8.92338
G01 X6.01676 Y8.92317
G03 X5.95423 Y8.86063 I0.00004 J-0.06257
G01 Y8.77352
G01 X5.97254 Y8.75522
G01 X5.95423 Y8.77352
G01 X5.57923
G01 X5.56093 Y8.75522
G01 X5.57923 Y8.77352
G01 Y8.83200
G01 X5.59173 Y8.83342
G01 Z-0.16000 F80.00
G01 X5.94173 F160.00
G01 X5.95423 Y8.83200
G01 Y8.77352
G01 X5.97254 Y8.75522
G01 X5.95423 Y8.77352
G01 X5.57923
G01 X5.56093 Y8.75522
G01 X5.57923 Y8.77352
G01 Y8.86063
G03 X5.51660 Y8.92319 I-0.06260 J-0.00005
G01 X5.51631 Y8.92346
G01 X5.51635 Y8.92387
G01 X5.51670 Y8.92407
G01 X5.51785 Y8.92411
G01 X5.92421
G01 X6.01562
G01 X6.01686 Y8.92406
G01 X6.01716 Y8.92378
G01 X6.01711 Y8.92338
G01 X6.01676 Y8.92317
G03 X5.95423 Y8.86063 I0.00004 J-0.06257
G01 Y8.83200
G01 X5.94173 Y8.83342
G01 Z-0.24000 F80.00
G01 X5.59173 F160.00
G01 X5.57923 Y8.83200
G03 X5.57720 Y8.87645 I-0.12458 J0.01656
G03 X5.51660 Y8.92319 I-0.06060 J-0.01591
G01 X5.51631 Y8.92346
G01 X5.51635 Y8.92387
G01 X5.51670 Y8.92407
G01 X5.51785 Y8.92411
G01 X5.92421
G01 X6.01562
G01 X6.01686 Y8.92406
G01 X6.01716 Y8.92378
G01 X6.01711 Y8.92338
G01 X6.01676 Y8.92317
G03 X5.95423 Y8.86063 I0.00004 J-0.06257
G01 Y8.77352
G01 X5.97254 Y8.75522
G01 X5.95423 Y8.77352
G01 X5.57923
G01 X5.56093 Y8.75522
G01 X5.57923 Y8.77352
G01 Y8.83200
G01 X5.59173 Y8.83342
G01 Z-0.30000 F80.00
G01 X5.94173 F160.00
G01 X5.95423 Y8.83200
G01 Y8.77352
G01 X5.97254 Y8.75522
G01 X5.95423 Y8.77352
G01 X5.57923
G01 X5.56093 Y8.75522
G01 X5.57923 Y8.77352
G01 Y8.86063
G03 X5.51660 Y8.92319 I-0.06260 J-0.00005
G01 X5.51631 Y8.92346
G01 X5.51635 Y8.92387
G01 X5.51670 Y8.92407
G01 X5.51785 Y8.92411
G01 X5.92421
G01 X6.01562
G01 X6.01686 Y8.92406
G01 X6.01716 Y8.92378
G01 X6.01711 Y8.92338
G01 X6.01676 Y8.92317
G03 X5.95423 Y8.86063 I0.00004 J-0.06257
G01 Y8.83200
G01 X5.94173 Y8.83342
G00 Z0.20000


(No. 10: Hole 26)
G00 X5.77519 Y8.86450 Z0.20000
G00 Z0.01969
G01 Z-0.08000 F80.00
G01 Y8.50632 F160.00
G01 X5.75832
G01 Y10.45594
G01 X5.75044 Y10.53582
G01 X5.73919 Y10.67082
G01 Y12.18732
G01 X5.79432
G01 Y10.67082
G01 X5.77519 Y10.46157
G01 Y8.86450
G01 X5.83257 Y8.86740
G01 Y8.44894
G01 X5.70094
G01 Y10.44132
G01 X5.68632 Y10.61232
G01 X5.68182 Y10.66857
G01 Y12.24469
G01 X5.85169
G01 Y10.66857
G01 X5.83257 Y10.44694
G01 Y8.86740
G01 X5.86177 Y8.86807
G01 X5.86171 Y8.41919
G01 X5.88002 Y8.40089
G01 X5.86171 Y8.41919
G01 X5.67175 Y8.41929
G01 X5.65341 Y8.40092
G01 X5.67175 Y8.41929
G01 Y10.43110
G01 X5.65207 Y10.67032
G01 Y12.27490
G01 X5.63376 Y12.29321
G01 X5.65207 Y12.27490
G01 X5.88140
G01 X5.89970 Y12.29321
G01 X5.88140 Y12.27490
G01 X5.88142 Y10.67055
G01 X5.86196 Y10.43708
G01 X5.86177 Y8.86807
G00 Z0.20000
G00 X5.77519 Y8.87591
G00 Z-0.06031
G01 Z-0.16000 F80.00
G01 Y8.50632 F160.00
G01 X5.75832
G01 Y10.45594
G01 X5.75044 Y10.53582
G01 X5.73919 Y10.67082
G01 Y12.18732
G01 X5.79432
G01 Y10.67082
G01 X5.77519 Y10.46157
G01 Y8.87591
G01 X5.83257 Y8.87870
G01 Y8.44894
G01 X5.70094
G01 Y10.44132
G01 X5.68632 Y10.61232
G01 X5.68182 Y10.66857
G01 Y12.24469
G01 X5.85169
G01 Y10.66857
G01 X5.83257 Y10.44694
G01 Y8.87870
G01 X5.86177 Y8.87935
G01 X5.86171 Y8.41919
G01 X5.88002 Y8.40089
G01 X5.86171 Y8.41919
G01 X5.67175 Y8.41929
G01 X5.65341 Y8.40092
G01 X5.67175 Y8.41929
G01 Y10.43110
G01 X5.65207 Y10.67032
G01 Y12.27490
G01 X5.63376 Y12.29321
G01 X5.65207 Y12.27490
G01 X5.88140
G01 X5.89970 Y12.29321
G01 X5.88140 Y12.27490
G01 X5.88142 Y10.67055
G01 X5.86196 Y10.43708
G01 X5.86177 Y8.87935
G00 Z0.20000


(No. 11: Hole 3)
G00 X4.91955 Y8.01616 Z0.20000
G00 Z0.01969
G01 Z0.00000 F80.00
G01 Z-0.08000
G02 X4.91077 Y8.38507 I0.10210 J0.18699 F160.00
G02 X5.23464 Y8.20822 I0.11089 J-0.18192
G02 X4.91955 Y8.01616 I-0.21299 J-0.00507
G01 Z-0.16000 F80.00
G02 X4.91077 Y8.38507 I0.10210 J0.18699 F160.00
G02 X5.23464 Y8.20822 I0.11089 J-0.18192
G02 X4.91955 Y8.01616 I-0.21299 J-0.00507
G01 Z-0.24000 F80.00
G02 X4.91077 Y8.38507 I0.10210 J0.18699 F160.00
G02 X5.23464 Y8.20822 I0.11089 J-0.18192
G02 X4.91955 Y8.01616 I-0.21299 J-0.00507
G01 Z-0.32000 F80.00
G02 X4.91077 Y8.38507 I0.10210 J0.18699 F160.00
G02 X5.23464 Y8.20822 I0.11089 J-0.18192
G02 X4.91955 Y8.01616 I-0.21299 J-0.00507
G01 Z-0.40000 F80.00
G02 X4.91077 Y8.38507 I0.10210 J0.18699 F160.00
G02 X5.23464 Y8.20822 I0.11089 J-0.18192
G02 X4.91955 Y8.01616 I-0.21299 J-0.00507
G01 Z-0.48000 F80.00
G02 X4.91077 Y8.38507 I0.10210 J0.18699 F160.00
G02 X5.23464 Y8.20822 I0.11089 J-0.18192
G02 X4.91955 Y8.01616 I-0.21299 J-0.00507
G01 Z-0.52000 F80.00
G02 X4.91077 Y8.38507 I0.10210 J0.18699 F160.00
G02 X5.23464 Y8.20822 I0.11089 J-0.18192
G02 X4.91955 Y8.01616 I-0.21299 J-0.00507
G00 Z0.20000


(No. 12: Hole 2)
G00 X5.28147 Y7.37353 Z0.20000
G00 Z0.01969
G01 Z0.00000 F80.00
G01 Z-0.08000
G02 X5.28705 Y7.55489 I0.05515 J0.08907 F160.00
G02 X5.44132 Y7.45937 I0.04956 J-0.09229
G02 X5.28147 Y7.37353 I-0.10471 J0.00323
G01 Z-0.16000 F80.00
G02 X5.28705 Y7.55489 I0.05515 J0.08907 F160.00
G02 X5.44132 Y7.45937 I0.04956 J-0.09229
G02 X5.28147 Y7.37353 I-0.10471 J0.00323
G01 Z-0.24000 F80.00
G02 X5.28705 Y7.55489 I0.05515 J0.08907 F160.00
G02 X5.44132 Y7.45937 I0.04956 J-0.09229
G02 X5.28147 Y7.37353 I-0.10471 J0.00323
G01 Z-0.32000 F80.00
G02 X5.28705 Y7.55489 I0.05515 J0.08907 F160.00
G02 X5.44132 Y7.45937 I0.04956 J-0.09229
G02 X5.28147 Y7.37353 I-0.10471 J0.00323
G01 Z-0.40000 F80.00
G02 X5.28705 Y7.55489 I0.05515 J0.08907 F160.00
G02 X5.44132 Y7.45937 I0.04956 J-0.09229
G02 X5.28147 Y7.37353 I-0.10471 J0.00323
G01 Z-0.48000 F80.00
G02 X5.28705 Y7.55489 I0.05515 J0.08907 F160.00
G02 X5.44132 Y7.45937 I0.04956 J-0.09229
G02 X5.28147 Y7.37353 I-0.10471 J0.00323
G01 Z-0.52000 F80.00
G02 X5.28705 Y7.55489 I0.05515 J0.08907 F160.00
G02 X5.44132 Y7.45937 I0.04956 J-0.09229
G02 X5.28147 Y7.37353 I-0.10471 J0.00323
G00 Z0.20000


(No. 13: Hole 7)
G00 X5.29877 Y11.91688 Z0.20000
G00 Z0.01969
G01 Z0.00000 F80.00
G01 Z-0.08000
G02 X5.27094 Y12.09618 I0.03784 J0.09768 F160.00
G02 X5.44013 Y12.03064 I0.06567 J-0.08161
G02 X5.29877 Y11.91688 I-0.10352 J-0.01607
G01 Z-0.16000 F80.00
G02 X5.27094 Y12.09618 I0.03784 J0.09768 F160.00
G02 X5.44013 Y12.03064 I0.06567 J-0.08161
G02 X5.29877 Y11.91688 I-0.10352 J-0.01607
G01 Z-0.24000 F80.00
G02 X5.27094 Y12.09618 I0.03784 J0.09768 F160.00
G02 X5.44013 Y12.03064 I0.06567 J-0.08161
G02 X5.29877 Y11.91688 I-0.10352 J-0.01607
G01 Z-0.32000 F80.00
G02 X5.27094 Y12.09618 I0.03784 J0.09768 F160.00
G02 X5.44013 Y12.03064 I0.06567 J-0.08161
G02 X5.29877 Y11.91688 I-0.10352 J-0.01607
G01 Z-0.40000 F80.00
G02 X5.27094 Y12.09618 I0.03784 J0.09768 F160.00
G02 X5.44013 Y12.03064 I0.06567 J-0.08161
G02 X5.29877 Y11.91688 I-0.10352 J-0.01607
G01 Z-0.48000 F80.00
G02 X5.27094 Y12.09618 I0.03784 J0.09768 F160.00
G02 X5.44013 Y12.03064 I0.06567 J-0.08161
G02 X5.29877 Y11.91688 I-0.10352 J-0.01607
G01 Z-0.52000 F80.00
G02 X5.27094 Y12.09618 I0.03784 J0.09768 F160.00
G02 X5.44013 Y12.03064 I0.06567 J-0.08161
G02 X5.29877 Y11.91688 I-0.10352 J-0.01607
G00 Z0.20000


(No. 14: Hole 29)
G00 X5.73919 Y14.11868 Z0.20000
G00 Z0.01969
G01 Z-0.08000 F80.00
G01 Y15.10437 F160.00
G01 X5.75832 Y15.31362
G01 Y17.27000
G01 X5.77519
G01 Y15.31925
G01 X5.79432 Y15.10437
G01 Y13.58900
G01 X5.73919
G01 Y14.11868
G01 X5.68182 Y14.11981
G01 Y15.10662
G01 X5.70094 Y15.32825
G01 Y17.32737
G01 X5.83257
G01 Y15.33387
G01 X5.85169 Y15.10662
G01 Y13.53162
G01 X5.68182
G01 Y14.11981
G01 X5.65206 Y14.12008
G01 X5.65205 Y15.10598
G01 X5.67150 Y15.33970
G01 X5.67175 Y17.35758
G01 X5.86171 Y17.35748
G01 Y15.34567
G01 X5.88140 Y15.10558
G01 Y13.50187
G01 X5.65207
G01 X5.65206 Y14.12008
G00 Z0.20000
G00 X5.73919 Y14.12332
G00 Z-0.06031
G01 Z-0.16000 F80.00
G01 Y15.10437 F160.00
G01 X5.75832 Y15.31362
G01 Y17.27000
G01 X5.77519
G01 Y15.31925
G01 X5.79432 Y15.10437
G01 Y13.58900
G01 X5.73919
G01 Y14.12332
G01 X5.68182 Y14.12442
G01 Y15.10662
G01 X5.70094 Y15.32825
G01 Y17.32737
G01 X5.83257
G01 Y15.33387
G01 X5.85169 Y15.10662
G01 Y13.53162
G01 X5.68182
G01 Y14.12442
G01 X5.65206 Y14.12468
G01 X5.65205 Y15.10598
G01 X5.67150 Y15.33970
G01 X5.67175 Y17.35758
G01 X5.86171 Y17.35748
G01 Y15.34567
G01 X5.88140 Y15.10558
G01 Y13.50187
G01 X5.65207
G01 X5.65206 Y14.12468
G00 Z0.20000


(No. 15: Hole 19)
G00 X5.29877 Y13.66413 Z0.20000
G00 Z0.01969
G01 Z0.00000 F80.00
G01 Z-0.08000
G02 X5.27094 Y13.84342 I0.03784 J0.09768 F160.00
G02 X5.44013 Y13.77788 I0.06567 J-0.08161
G02 X5.29877 Y13.66413 I-0.10352 J-0.01607
G01 Z-0.16000 F80.00
G02 X5.27094 Y13.84342 I0.03784 J0.09768 F160.00
G02 X5.44013 Y13.77788 I0.06567 J-0.08161
G02 X5.29877 Y13.66413 I-0.10352 J-0.01607
G01 Z-0.24000 F80.00
G02 X5.27094 Y13.84342 I0.03784 J0.09768 F160.00
G02 X5.44013 Y13.77788 I0.06567 J-0.08161
G02 X5.29877 Y13.66413 I-0.10352 J-0.01607
G01 Z-0.32000 F80.00
G02 X5.27094 Y13.84342 I0.03784 J0.09768 F160.00
G02 X5.44013 Y13.77788 I0.06567 J-0.08161
G02 X5.29877 Y13.66413 I-0.10352 J-0.01607
G01 Z-0.40000 F80.00
G02 X5.27094 Y13.84342 I0.03784 J0.09768 F160.00
G02 X5.44013 Y13.77788 I0.06567 J-0.08161
G02 X5.29877 Y13.66413 I-0.10352 J-0.01607
G01 Z-0.48000 F80.00
G02 X5.27094 Y13.84342 I0.03784 J0.09768 F160.00
G02 X5.44013 Y13.77788 I0.06567 J-0.08161
G02 X5.29877 Y13.66413 I-0.10352 J-0.01607
G01 Z-0.52000 F80.00
G02 X5.27094 Y13.84342 I0.03784 J0.09768 F160.00
G02 X5.44013 Y13.77788 I0.06567 J-0.08161
G02 X5.29877 Y13.66413 I-0.10352 J-0.01607
G00 Z0.20000


(No. 16: Hole 18)
G00 X4.96163 Y14.29622 Z0.20000
G00 Z0.01969
G01 Z0.00000 F80.00
G01 Z-0.08000
G02 X4.87463 Y14.65483 I0.06002 J0.20442 F160.00
G02 X5.22870 Y14.55087 I0.14702 J-0.15419
G02 X4.96163 Y14.29622 I-0.20705 J-0.05023
G01 Z-0.16000 F80.00
G02 X4.87463 Y14.65483 I0.06002 J0.20442 F160.00
G02 X5.22870 Y14.55087 I0.14702 J-0.15419
G02 X4.96163 Y14.29622 I-0.20705 J-0.05023
G01 Z-0.24000 F80.00
G02 X4.87463 Y14.65483 I0.06002 J0.20442 F160.00
G02 X5.22870 Y14.55087 I0.14702 J-0.15419
G02 X4.96163 Y14.29622 I-0.20705 J-0.05023
G01 Z-0.32000 F80.00
G02 X4.87463 Y14.65483 I0.06002 J0.20442 F160.00
G02 X5.22870 Y14.55087 I0.14702 J-0.15419
G02 X4.96163 Y14.29622 I-0.20705 J-0.05023
G01 Z-0.40000 F80.00
G02 X4.87463 Y14.65483 I0.06002 J0.20442 F160.00
G02 X5.22870 Y14.55087 I0.14702 J-0.15419
G02 X4.96163 Y14.29622 I-0.20705 J-0.05023
G01 Z-0.48000 F80.00
G02 X4.87463 Y14.65483 I0.06002 J0.20442 F160.00
G02 X5.22870 Y14.55087 I0.14702 J-0.15419
G02 X4.96163 Y14.29622 I-0.20705 J-0.05023
G01 Z-0.52000 F80.00
G02 X4.87463 Y14.65483 I0.06002 J0.20442 F160.00
G02 X5.22870 Y14.55087 I0.14702 J-0.15419
G02 X4.96163 Y14.29622 I-0.20705 J-0.05023
G00 Z0.20000


(No. 17: Hole 28)


(No. 18: Hole 28)
G00 X5.43451 Y15.17433 Z0.20000
G00 Z0.01969
G01 Z0.00000 F80.00
G01 Z-0.08000
G02 X5.45259 Y15.28278 I0.01728 J0.05285 F160.00
G01 X5.60925
G02 X6.07205 Y15.28239 I0.20497 J-32.12191
G02 X6.09887 Y15.27890 I0.00103 J-0.09688
G02 X6.08093 Y15.17043 I-0.01720 J-0.05288
G01 X5.58968 Y15.17131
G01 X5.45249 Y15.17155
G02 X5.43451 Y15.17433 I-0.00052 J0.05634
G01 Z-0.16000 F80.00
G02 X5.45259 Y15.28278 I0.01728 J0.05285 F160.00
G01 X5.60925
G02 X6.07205 Y15.28239 I0.20497 J-32.12191
G02 X6.09887 Y15.27890 I0.00103 J-0.09688
G02 X6.08093 Y15.17043 I-0.01720 J-0.05288
G01 X5.58968 Y15.17131
G01 X5.45249 Y15.17155
G02 X5.43451 Y15.17433 I-0.00052 J0.05634
G01 Z-0.24000 F80.00
G02 X5.45259 Y15.28278 I0.01728 J0.05285 F160.00
G01 X5.60925
G02 X6.07205 Y15.28239 I0.20497 J-32.12191
G02 X6.09887 Y15.27890 I0.00103 J-0.09688
G02 X6.08093 Y15.17043 I-0.01720 J-0.05288
G01 X5.58968 Y15.17131
G01 X5.45249 Y15.17155
G02 X5.43451 Y15.17433 I-0.00052 J0.05634
G01 Z-0.32000 F80.00
G02 X5.45259 Y15.28278 I0.01728 J0.05285 F160.00
G01 X5.60925
G02 X6.07205 Y15.28239 I0.20497 J-32.12191
G02 X6.09887 Y15.27890 I0.00103 J-0.09688
G02 X6.08093 Y15.17043 I-0.01720 J-0.05288
G01 X5.58968 Y15.17131
G01 X5.45249 Y15.17155
G02 X5.43451 Y15.17433 I-0.00052 J0.05634
G00 Z0.20000


(No. 19: Hole 17)
G00 X6.40113 Y15.23893 Z0.20000
G00 Z0.01969
G01 Z0.00000 F80.00
G01 Z-0.08000
G02 X6.37330 Y15.41823 I0.03784 J0.09768 F160.00
G02 X6.54249 Y15.35268 I0.06567 J-0.08161
G02 X6.40113 Y15.23893 I-0.10352 J-0.01607
G01 Z-0.16000 F80.00
G02 X6.37330 Y15.41823 I0.03784 J0.09768 F160.00
G02 X6.54249 Y15.35268 I0.06567 J-0.08161
G02 X6.40113 Y15.23893 I-0.10352 J-0.01607
G01 Z-0.24000 F80.00
G02 X6.37330 Y15.41823 I0.03784 J0.09768 F160.00
G02 X6.54249 Y15.35268 I0.06567 J-0.08161
G02 X6.40113 Y15.23893 I-0.10352 J-0.01607
G01 Z-0.32000 F80.00
G02 X6.37330 Y15.41823 I0.03784 J0.09768 F160.00
G02 X6.54249 Y15.35268 I0.06567 J-0.08161
G02 X6.40113 Y15.23893 I-0.10352 J-0.01607
G01 Z-0.40000 F80.00
G02 X6.37330 Y15.41823 I0.03784 J0.09768 F160.00
G02 X6.54249 Y15.35268 I0.06567 J-0.08161
G02 X6.40113 Y15.23893 I-0.10352 J-0.01607
G01 Z-0.48000 F80.00
G02 X6.37330 Y15.41823 I0.03784 J0.09768 F160.00
G02 X6.54249 Y15.35268 I0.06567 J-0.08161
G02 X6.40113 Y15.23893 I-0.10352 J-0.01607
G01 Z-0.52000 F80.00
G02 X6.37330 Y15.41823 I0.03784 J0.09768 F160.00
G02 X6.54249 Y15.35268 I0.06567 J-0.08161
G02 X6.40113 Y15.23893 I-0.10352 J-0.01607
G00 Z0.20000


(No. 20: Hole 16)
G00 X6.40113 Y16.64129 Z0.20000
G00 Z0.01969
G01 Z0.00000 F80.00
G01 Z-0.08000
G02 X6.37330 Y16.82059 I0.03784 J0.09768 F160.00
G02 X6.54249 Y16.75505 I0.06567 J-0.08161
G02 X6.40113 Y16.64129 I-0.10352 J-0.01607
G01 Z-0.16000 F80.00
G02 X6.37330 Y16.82059 I0.03784 J0.09768 F160.00
G02 X6.54249 Y16.75505 I0.06567 J-0.08161
G02 X6.40113 Y16.64129 I-0.10352 J-0.01607
G01 Z-0.24000 F80.00
G02 X6.37330 Y16.82059 I0.03784 J0.09768 F160.00
G02 X6.54249 Y16.75505 I0.06567 J-0.08161
G02 X6.40113 Y16.64129 I-0.10352 J-0.01607
G01 Z-0.32000 F80.00
G02 X6.37330 Y16.82059 I0.03784 J0.09768 F160.00
G02 X6.54249 Y16.75505 I0.06567 J-0.08161
G02 X6.40113 Y16.64129 I-0.10352 J-0.01607
G01 Z-0.40000 F80.00
G02 X6.37330 Y16.82059 I0.03784 J0.09768 F160.00
G02 X6.54249 Y16.75505 I0.06567 J-0.08161
G02 X6.40113 Y16.64129 I-0.10352 J-0.01607
G01 Z-0.48000 F80.00
G02 X6.37330 Y16.82059 I0.03784 J0.09768 F160.00
G02 X6.54249 Y16.75505 I0.06567 J-0.08161
G02 X6.40113 Y16.64129 I-0.10352 J-0.01607
G01 Z-0.52000 F80.00
G02 X6.37330 Y16.82059 I0.03784 J0.09768 F160.00
G02 X6.54249 Y16.75505 I0.06567 J-0.08161
G02 X6.40113 Y16.64129 I-0.10352 J-0.01607
G00 Z0.20000


(No. 21: Hole 27)
G00 X5.94173 Y16.92795 Z0.20000
G00 Z0.01969
G01 Z0.00000 F80.00
G01 Z-0.08000
G01 X5.59173 F160.00
G01 X5.57923 Y16.93216
G01 Y17.00325
G01 X5.95423
G01 Y16.91614
G03 X6.01686 Y16.85358 I0.06260 J0.00005
G01 X6.01716 Y16.85331
G01 X6.01711 Y16.85291
G01 X6.01676 Y16.85270
G02 X5.92382 Y16.85266 I-0.09275 J104.90318
G01 X5.60965
G01 X5.51785
G01 X5.51660 Y16.85272
G01 X5.51631 Y16.85299
G01 X5.51635 Y16.85339
G01 X5.51670 Y16.85360
G03 X5.57923 Y16.91614 I-0.00004 J0.06257
G01 Y16.93216
G01 X5.59173 Y16.92795
G01 Z-0.16000 F80.00
G01 X5.94173 F160.00
G01 X5.95423 Y16.93216
G03 X5.96039 Y16.88908 I0.07833 J-0.01078
G03 X6.01686 Y16.85358 I0.05650 J0.02722
G01 X6.01716 Y16.85331
G01 X6.01711 Y16.85291
G01 X6.01676 Y16.85270
G02 X5.92382 Y16.85266 I-0.09275 J104.90318
G01 X5.60965
G01 X5.51785
G01 X5.51660 Y16.85272
G01 X5.51631 Y16.85299
G01 X5.51635 Y16.85339
G01 X5.51670 Y16.85360
G03 X5.57923 Y16.91614 I-0.00004 J0.06257
G01 Y17.00325
G01 X5.95423
G01 Y16.93216
G01 X5.94173 Y16.92795
G01 Z-0.24000 F80.00
G01 X5.59173 F160.00
G01 X5.57923 Y16.93216
G01 Y17.00325
G01 X5.95423
G01 Y16.91614
G03 X6.01686 Y16.85358 I0.06260 J0.00005
G01 X6.01716 Y16.85331
G01 X6.01711 Y16.85291
G01 X6.01676 Y16.85270
G02 X5.92382 Y16.85266 I-0.09275 J104.90318
G01 X5.60965
G01 X5.51785
G01 X5.51660 Y16.85272
G01 X5.51631 Y16.85299
G01 X5.51635 Y16.85339
G01 X5.51670 Y16.85360
G03 X5.57923 Y16.91614 I-0.00004 J0.06257
G01 Y16.93216
G01 X5.59173 Y16.92795
G01 Z-0.30000 F80.00
G01 X5.94173 F160.00
G01 X5.95423 Y16.93216
G03 X5.96039 Y16.88908 I0.07833 J-0.01078
G03 X6.01686 Y16.85358 I0.05650 J0.02722
G01 X6.01716 Y16.85331
G01 X6.01711 Y16.85291
G01 X6.01676 Y16.85270
G02 X5.92382 Y16.85266 I-0.09275 J104.90318
G01 X5.60965
G01 X5.51785
G01 X5.51660 Y16.85272
G01 X5.51631 Y16.85299
G01 X5.51635 Y16.85339
G01 X5.51670 Y16.85360
G03 X5.57923 Y16.91614 I-0.00004 J0.06257
G01 Y17.00325
G01 X5.95423
G01 Y16.93216
G01 X5.94173 Y16.92795
G00 Z0.20000


(No. 22: Hole 15)
G00 X4.97637 Y17.36677 Z0.20000
G00 Z0.01969
G01 Z0.00000 F80.00
G01 Z-0.08000
G02 X4.86401 Y17.71826 I0.04529 J0.20818 F160.00
G02 X5.22459 Y17.63982 I0.15765 J-0.14331
G02 X4.97637 Y17.36677 I-0.20293 J-0.06487
G01 Z-0.16000 F80.00
G02 X4.86401 Y17.71826 I0.04529 J0.20818 F160.00
G02 X5.22459 Y17.63982 I0.15765 J-0.14331
G02 X4.97637 Y17.36677 I-0.20293 J-0.06487
G01 Z-0.24000 F80.00
G02 X4.86401 Y17.71826 I0.04529 J0.20818 F160.00
G02 X5.22459 Y17.63982 I0.15765 J-0.14331
G02 X4.97637 Y17.36677 I-0.20293 J-0.06487
G01 Z-0.32000 F80.00
G02 X4.86401 Y17.71826 I0.04529 J0.20818 F160.00
G02 X5.22459 Y17.63982 I0.15765 J-0.14331
G02 X4.97637 Y17.36677 I-0.20293 J-0.06487
G01 Z-0.40000 F80.00
G02 X4.86401 Y17.71826 I0.04529 J0.20818 F160.00
G02 X5.22459 Y17.63982 I0.15765 J-0.14331
G02 X4.97637 Y17.36677 I-0.20293 J-0.06487
G01 Z-0.48000 F80.00
G02 X4.86401 Y17.71826 I0.04529 J0.20818 F160.00
G02 X5.22459 Y17.63982 I0.15765 J-0.14331
G02 X4.97637 Y17.36677 I-0.20293 J-0.06487
G01 Z-0.52000 F80.00
G02 X4.86401 Y17.71826 I0.04529 J0.20818 F160.00
G02 X5.22459 Y17.63982 I0.15765 J-0.14331
G02 X4.97637 Y17.36677 I-0.20293 J-0.06487
G00 Z0.20000


(No. 23: Hole 14)
G00 X5.30795 Y18.21302 Z0.20000
G00 Z0.01969
G01 Z0.00000 F80.00
G01 Z-0.08000
G02 X5.26369 Y18.38899 I0.02867 J0.10076 F160.00
G02 X5.43821 Y18.33933 I0.07292 J-0.07521
G02 X5.30795 Y18.21302 I-0.10159 J-0.02555
G01 Z-0.16000 F80.00
G02 X5.26369 Y18.38899 I0.02867 J0.10076 F160.00
G02 X5.43821 Y18.33933 I0.07292 J-0.07521
G02 X5.30795 Y18.21302 I-0.10159 J-0.02555
G01 Z-0.24000 F80.00
G02 X5.26369 Y18.38899 I0.02867 J0.10076 F160.00
G02 X5.43821 Y18.33933 I0.07292 J-0.07521
G02 X5.30795 Y18.21302 I-0.10159 J-0.02555
G01 Z-0.32000 F80.00
G02 X5.26369 Y18.38899 I0.02867 J0.10076 F160.00
G02 X5.43821 Y18.33933 I0.07292 J-0.07521
G02 X5.30795 Y18.21302 I-0.10159 J-0.02555
G01 Z-0.40000 F80.00
G02 X5.26369 Y18.38899 I0.02867 J0.10076 F160.00
G02 X5.43821 Y18.33933 I0.07292 J-0.07521
G02 X5.30795 Y18.21302 I-0.10159 J-0.02555
G01 Z-0.48000 F80.00
G02 X5.26369 Y18.38899 I0.02867 J0.10076 F160.00
G02 X5.43821 Y18.33933 I0.07292 J-0.07521
G02 X5.30795 Y18.21302 I-0.10159 J-0.02555
G01 Z-0.52000 F80.00
G02 X5.26369 Y18.38899 I0.02867 J0.10076 F160.00
G02 X5.43821 Y18.33933 I0.07292 J-0.07521
G02 X5.30795 Y18.21302 I-0.10159 J-0.02555
G00 Z0.20000


(No. 24: Hole 13)
G00 X2.15797 Y17.43888 Z0.20000
G00 Z0.01969
G01 Z0.00000 F80.00
G01 Z-0.08000
G01 X2.00738 F160.00
G01 Y17.47136
G01 X2.15797
G01 Y17.43888
G01 Z-0.16000 F80.00
G01 X2.00738 F160.00
G01 Y17.47136
G01 X2.15797
G01 Y17.43888
G01 Z-0.24000 F80.00
G01 X2.00738 F160.00
G01 Y17.47136
G01 X2.15797
G01 Y17.43888
G01 Z-0.32000 F80.00
G01 X2.00738 F160.00
G01 Y17.47136
G01 X2.15797
G01 Y17.43888
G01 Z-0.40000 F80.00
G01 X2.00738 F160.00
G01 Y17.47136
G01 X2.15797
G01 Y17.43888
G01 Z-0.48000 F80.00
G01 X2.00738 F160.00
G01 Y17.47136
G01 X2.15797
G01 Y17.43888
G01 Z-0.52000 F80.00
G01 X2.00738 F160.00
G01 Y17.47136
G01 X2.15797
G01 Y17.43888
G00 Z0.20000


(No. 25: Hole 12)
G00 X1.31496 Y15.93304 Z0.20000
G00 Z0.01969
G01 Z0.00000 F80.00
G01 Z-0.08000
G02 X1.22424 Y16.09017 I0.00000 J0.10476 F160.00
G02 X1.40568 I0.09072 J-0.05238
G02 X1.31496 Y15.93304 I-0.09072 J-0.05238
G01 Z-0.16000 F80.00
G02 X1.22424 Y16.09017 I0.00000 J0.10476 F160.00
G02 X1.40568 I0.09072 J-0.05238
G02 X1.31496 Y15.93304 I-0.09072 J-0.05238
G01 Z-0.24000 F80.00
G02 X1.22424 Y16.09017 I0.00000 J0.10476 F160.00
G02 X1.40568 I0.09072 J-0.05238
G02 X1.31496 Y15.93304 I-0.09072 J-0.05238
G01 Z-0.32000 F80.00
G02 X1.22424 Y16.09017 I0.00000 J0.10476 F160.00
G02 X1.40568 I0.09072 J-0.05238
G02 X1.31496 Y15.93304 I-0.09072 J-0.05238
G01 Z-0.40000 F80.00
G02 X1.22424 Y16.09017 I0.00000 J0.10476 F160.00
G02 X1.40568 I0.09072 J-0.05238
G02 X1.31496 Y15.93304 I-0.09072 J-0.05238
G01 Z-0.48000 F80.00
G02 X1.22424 Y16.09017 I0.00000 J0.10476 F160.00
G02 X1.40568 I0.09072 J-0.05238
G02 X1.31496 Y15.93304 I-0.09072 J-0.05238
G01 Z-0.52000 F80.00
G02 X1.22424 Y16.09017 I0.00000 J0.10476 F160.00
G02 X1.40568 I0.09072 J-0.05238
G02 X1.31496 Y15.93304 I-0.09072 J-0.05238
G00 Z0.20000


(No. 26: Hole 11)
G00 X2.15797 Y14.60423 Z0.20000
G00 Z0.01969
G01 Z0.00000 F80.00
G01 Z-0.08000
G01 X2.00738 F160.00
G01 Y14.63671
G01 X2.15797
G01 Y14.60423
G01 Z-0.16000 F80.00
G01 X2.00738 F160.00
G01 Y14.63671
G01 X2.15797
G01 Y14.60423
G01 Z-0.24000 F80.00
G01 X2.00738 F160.00
G01 Y14.63671
G01 X2.15797
G01 Y14.60423
G01 Z-0.32000 F80.00
G01 X2.00738 F160.00
G01 Y14.63671
G01 X2.15797
G01 Y14.60423
G01 Z-0.40000 F80.00
G01 X2.00738 F160.00
G01 Y14.63671
G01 X2.15797
G01 Y14.60423
G01 Z-0.48000 F80.00
G01 X2.00738 F160.00
G01 Y14.63671
G01 X2.15797
G01 Y14.60423
G01 Z-0.52000 F80.00
G01 X2.00738 F160.00
G01 Y14.63671
G01 X2.15797
G01 Y14.60423
G00 Z0.20000


(No. 27: Part 3)
G00 X3.52701 Y13.37687 Z0.20000
G00 Z0.01969
G01 Z0.00000 F80.00
G01 Z-0.08000
G01 X7.14866 F160.00
G03 X7.44636 Y13.67457 I-0.00095 J0.29864
G01 Y14.66219
G01 Y14.98719
G01 Y15.97480
G03 X7.38386 Y16.03730 I-0.06250 J0.00000
G01 X5.36861
G03 X5.30621 Y15.97844 I0.00000 J-0.06250
G02 X2.28597 Y16.13797 I-1.51093 J0.06448
G02 X5.30702 Y16.09283 I1.50944 J-0.09521
G03 X5.36901 Y16.03829 I0.06199 J0.00795
G01 X7.38386
G03 X7.44636 Y16.10079 I0.00000 J0.06250
G01 Y17.47204
G01 Y17.79704
G01 Y18.40142
G03 X7.14764 Y18.69911 I-0.29864 J-0.00094
G01 X3.52667
G01 X3.20167
G01 X1.47244
G03 X1.40994 Y18.63661 I0.00000 J-0.06250
G01 Y18.08504
G03 X1.47244 Y18.02254 I0.06250 J0.00000
G01 X1.94488
G03 X2.00738 Y18.08504 I0.00000 J0.06250
G01 Y18.17644
G01 X2.00742 Y18.17759
G01 X2.00763 Y18.17794
G01 X2.00803 Y18.17798
G01 X2.00831 Y18.17769
G03 X2.07087 Y18.11506 I0.06260 J-0.00003
G01 X2.21945
G02 X2.23671 Y18.09780 I0.00088 J-0.01638
G01 Y17.75732
G02 X2.21945 Y17.74006 I-0.01638 J-0.00088
G01 X2.07087
G03 X2.00833 Y17.67753 I0.00003 J-0.06257
G01 X2.00812 Y17.67718
G01 X2.00772 Y17.67714
G01 X2.00744 Y17.67743
G03 X2.00725 Y17.77417 I-1.50649 J0.04538
G03 X1.94488 Y17.83258 I-0.06237 J-0.00409
G01 X1.47244
G03 X1.40994 Y17.77008 I0.00000 J-0.06250
G01 Y16.88770
G01 X1.42825 Y16.86939
G01 X1.40994 Y16.88770
G01 X1.07772
G03 X0.93750 Y16.74748 I0.00095 J-0.14117
G01 Y15.32811
G03 X1.07772 Y15.18789 I0.14117 J0.00095
G01 X1.40994
G01 X1.42825 Y15.20620
G01 X1.40994 Y15.18789
G01 Y14.30551
G03 X1.47244 Y14.24301 I0.06250 J0.00000
G01 X1.94488
G03 X2.00738 Y14.30551 I0.00000 J0.06250
G01 Y14.39692
G01 X2.00742 Y14.39806
G01 X2.00763 Y14.39841
G01 X2.00803 Y14.39846
G01 X2.00831 Y14.39816
G03 X2.07087 Y14.33553 I0.06260 J-0.00003
G01 X2.21945
G02 X2.23671 Y14.31827 I0.00088 J-0.01638
G01 Y13.97779
G02 X2.21945 Y13.96053 I-0.01638 J-0.00088
G01 X2.07087
G03 X2.00833 Y13.89800 I0.00003 J-0.06257
G01 X2.00812 Y13.89765
G01 X2.00772 Y13.89761
G01 X2.00744 Y13.89790
G03 X2.00725 Y13.99464 I-1.50649 J0.04538
G03 X1.94488 Y14.05305 I-0.06237 J-0.00409
G01 X1.47244
G03 X1.40994 Y13.99055 I0.00000 J-0.06250
G01 Y13.43937
G03 X1.47244 Y13.37687 I0.06250 J0.00000
G01 X3.20201
G01 X3.52701
G01 Z-0.16000 F80.00
G01 X7.14866 F160.00
G03 X7.44636 Y13.67457 I-0.00095 J0.29864
G01 Y14.66219
G01 Y14.98719
G01 Y15.97480
G03 X7.38386 Y16.03730 I-0.06250 J0.00000
G01 X5.36861
G03 X5.30621 Y15.97844 I0.00000 J-0.06250
G02 X2.28597 Y16.13797 I-1.51093 J0.06448
G02 X5.30702 Y16.09283 I1.50944 J-0.09521
G03 X5.36901 Y16.03829 I0.06199 J0.00795
G01 X7.38386
G03 X7.44636 Y16.10079 I0.00000 J0.06250
G01 Y17.47204
G01 Y17.79704
G01 Y18.40142
G03 X7.14764 Y18.69911 I-0.29864 J-0.00094
G01 X3.52667
G01 X3.20167
G01 X1.47244
G03 X1.40994 Y18.63661 I0.00000 J-0.06250
G01 Y18.08504
G03 X1.47244 Y18.02254 I0.06250 J0.00000
G01 X1.94488
G03 X2.00738 Y18.08504 I0.00000 J0.06250
G01 Y18.17644
G01 X2.00742 Y18.17759
G01 X2.00763 Y18.17794
G01 X2.00803 Y18.17798
G01 X2.00831 Y18.17769
G03 X2.07087 Y18.11506 I0.06260 J-0.00003
G01 X2.21945
G02 X2.23671 Y18.09780 I0.00088 J-0.01638
G01 Y17.75732
G02 X2.21945 Y17.74006 I-0.01638 J-0.00088
G01 X2.07087
G03 X2.00833 Y17.67753 I0.00003 J-0.06257
G01 X2.00812 Y17.67718
G01 X2.00772 Y17.67714
G01 X2.00744 Y17.67743
G03 X2.00725 Y17.77417 I-1.50649 J0.04538
G03 X1.94488 Y17.83258 I-0.06237 J-0.00409
G01 X1.47244
G03 X1.40994 Y17.77008 I0.00000 J-0.06250
G01 Y16.88770
G01 X1.42825 Y16.86939
G01 X1.40994 Y16.88770
G01 X1.07772
G03 X0.93750 Y16.74748 I0.00095 J-0.14117
G01 Y15.32811
G03 X1.07772 Y15.18789 I0.14117 J0.00095
G01 X1.40994
G01 X1.42825 Y15.20620
G01 X1.40994 Y15.18789
G01 Y14.30551
G03 X1.47244 Y14.24301 I0.06250 J0.00000
G01 X1.94488
G03 X2.00738 Y14.30551 I0.00000 J0.06250
G01 Y14.39692
G01 X2.00742 Y14.39806
G01 X2.00763 Y14.39841
G01 X2.00803 Y14.39846
G01 X2.00831 Y14.39816
G03 X2.07087 Y14.33553 I0.06260 J-0.00003
G01 X2.21945
G02 X2.23671 Y14.31827 I0.00088 J-0.01638
G01 Y13.97779
G02 X2.21945 Y13.96053 I-0.01638 J-0.00088
G01 X2.07087
G03 X2.00833 Y13.89800 I0.00003 J-0.06257
G01 X2.00812 Y13.89765
G01 X2.00772 Y13.89761
G01 X2.00744 Y13.89790
G03 X2.00725 Y13.99464 I-1.50649 J0.04538
G03 X1.94488 Y14.05305 I-0.06237 J-0.00409
G01 X1.47244
G03 X1.40994 Y13.99055 I0.00000 J-0.06250
G01 Y13.43937
G03 X1.47244 Y13.37687 I0.06250 J0.00000
G01 X3.20201
G01 X3.52701
G01 Z-0.24000 F80.00
G01 X7.14866 F160.00
G03 X7.44636 Y13.67457 I-0.00095 J0.29864
G01 Y14.66219
G01 Y14.98719
G01 Y15.97480
G03 X7.38386 Y16.03730 I-0.06250 J0.00000
G01 X5.36861
G03 X5.30621 Y15.97844 I0.00000 J-0.06250
G02 X2.28597 Y16.13797 I-1.51093 J0.06448
G02 X5.30702 Y16.09283 I1.50944 J-0.09521
G03 X5.36901 Y16.03829 I0.06199 J0.00795
G01 X7.38386
G03 X7.44636 Y16.10079 I0.00000 J0.06250
G01 Y17.47204
G01 Y17.79704
G01 Y18.40142
G03 X7.14764 Y18.69911 I-0.29864 J-0.00094
G01 X3.52667
G01 X3.20167
G01 X1.47244
G03 X1.40994 Y18.63661 I0.00000 J-0.06250
G01 Y18.08504
G03 X1.47244 Y18.02254 I0.06250 J0.00000
G01 X1.94488
G03 X2.00738 Y18.08504 I0.00000 J0.06250
G01 Y18.17644
G01 X2.00742 Y18.17759
G01 X2.00763 Y18.17794
G01 X2.00803 Y18.17798
G01 X2.00831 Y18.17769
G03 X2.07087 Y18.11506 I0.06260 J-0.00003
G01 X2.21945
G02 X2.23671 Y18.09780 I0.00088 J-0.01638
G01 Y17.75732
G02 X2.21945 Y17.74006 I-0.01638 J-0.00088
G01 X2.07087
G03 X2.00833 Y17.67753 I0.00003 J-0.06257
G01 X2.00812 Y17.67718
G01 X2.00772 Y17.67714
G01 X2.00744 Y17.67743
G03 X2.00725 Y17.77417 I-1.50649 J0.04538
G03 X1.94488 Y17.83258 I-0.06237 J-0.00409
G01 X1.47244
G03 X1.40994 Y17.77008 I0.00000 J-0.06250
G01 Y16.88770
G01 X1.42825 Y16.86939
G01 X1.40994 Y16.88770
G01 X1.07772
G03 X0.93750 Y16.74748 I0.00095 J-0.14117
G01 Y15.32811
G03 X1.07772 Y15.18789 I0.14117 J0.00095
G01 X1.40994
G01 X1.42825 Y15.20620
G01 X1.40994 Y15.18789
G01 Y14.30551
G03 X1.47244 Y14.24301 I0.06250 J0.00000
G01 X1.94488
G03 X2.00738 Y14.30551 I0.00000 J0.06250
G01 Y14.39692
G01 X2.00742 Y14.39806
G01 X2.00763 Y14.39841
G01 X2.00803 Y14.39846
G01 X2.00831 Y14.39816
G03 X2.07087 Y14.33553 I0.06260 J-0.00003
G01 X2.21945
G02 X2.23671 Y14.31827 I0.00088 J-0.01638
G01 Y13.97779
G02 X2.21945 Y13.96053 I-0.01638 J-0.00088
G01 X2.07087
G03 X2.00833 Y13.89800 I0.00003 J-0.06257
G01 X2.00812 Y13.89765
G01 X2.00772 Y13.89761
G01 X2.00744 Y13.89790
G03 X2.00725 Y13.99464 I-1.50649 J0.04538
G03 X1.94488 Y14.05305 I-0.06237 J-0.00409
G01 X1.47244
G03 X1.40994 Y13.99055 I0.00000 J-0.06250
G01 Y13.43937
G03 X1.47244 Y13.37687 I0.06250 J0.00000
G01 X3.20201
G01 X3.52701
G01 Z-0.32000 F80.00
G01 X7.14866 F160.00
G03 X7.44636 Y13.67457 I-0.00095 J0.29864
G01 Y14.66219
G01 Y14.98719
G01 Y15.97480
G03 X7.38386 Y16.03730 I-0.06250 J0.00000
G01 X5.36861
G03 X5.30621 Y15.97844 I0.00000 J-0.06250
G02 X2.28597 Y16.13797 I-1.51093 J0.06448
G02 X5.30702 Y16.09283 I1.50944 J-0.09521
G03 X5.36901 Y16.03829 I0.06199 J0.00795
G01 X7.38386
G03 X7.44636 Y16.10079 I0.00000 J0.06250
G01 Y17.47204
G01 Y17.79704
G01 Y18.40142
G03 X7.14764 Y18.69911 I-0.29864 J-0.00094
G01 X3.52667
G01 X3.20167
G01 X1.47244
G03 X1.40994 Y18.63661 I0.00000 J-0.06250
G01 Y18.08504
G03 X1.47244 Y18.02254 I0.06250 J0.00000
G01 X1.94488
G03 X2.00738 Y18.08504 I0.00000 J0.06250
G01 Y18.17644
G01 X2.00742 Y18.17759
G01 X2.00763 Y18.17794
G01 X2.00803 Y18.17798
G01 X2.00831 Y18.17769
G03 X2.07087 Y18.11506 I0.06260 J-0.00003
G01 X2.21945
G02 X2.23671 Y18.09780 I0.00088 J-0.01638
G01 Y17.75732
G02 X2.21945 Y17.74006 I-0.01638 J-0.00088
G01 X2.07087
G03 X2.00833 Y17.67753 I0.00003 J-0.06257
G01 X2.00812 Y17.67718
G01 X2.00772 Y17.67714
G01 X2.00744 Y17.67743
G03 X2.00725 Y17.77417 I-1.50649 J0.04538
G03 X1.94488 Y17.83258 I-0.06237 J-0.00409
G01 X1.47244
G03 X1.40994 Y17.77008 I0.00000 J-0.06250
G01 Y16.88770
G01 X1.42825 Y16.86939
G01 X1.40994 Y16.88770
G01 X1.07772
G03 X0.93750 Y16.74748 I0.00095 J-0.14117
G01 Y15.32811
G03 X1.07772 Y15.18789 I0.14117 J0.00095
G01 X1.40994
G01 X1.42825 Y15.20620
G01 X1.40994 Y15.18789
G01 Y14.30551
G03 X1.47244 Y14.24301 I0.06250 J0.00000
G01 X1.94488
G03 X2.00738 Y14.30551 I0.00000 J0.06250
G01 Y14.39692
G01 X2.00742 Y14.39806
G01 X2.00763 Y14.39841
G01 X2.00803 Y14.39846
G01 X2.00831 Y14.39816
G03 X2.07087 Y14.33553 I0.06260 J-0.00003
G01 X2.21945
G02 X2.23671 Y14.31827 I0.00088 J-0.01638
G01 Y13.97779
G02 X2.21945 Y13.96053 I-0.01638 J-0.00088
G01 X2.07087
G03 X2.00833 Y13.89800 I0.00003 J-0.06257
G01 X2.00812 Y13.89765
G01 X2.00772 Y13.89761
G01 X2.00744 Y13.89790
G03 X2.00725 Y13.99464 I-1.50649 J0.04538
G03 X1.94488 Y14.05305 I-0.06237 J-0.00409
G01 X1.47244
G03 X1.40994 Y13.99055 I0.00000 J-0.06250
G01 Y13.43937
G03 X1.47244 Y13.37687 I0.06250 J0.00000
G01 X3.20201
G01 X3.52701
G01 Z-0.40000 F80.00
G01 X7.14866 F160.00
G03 X7.44636 Y13.67457 I-0.00095 J0.29864
G01 Y14.66219
G01 Y14.98719
G01 Y15.97480
G03 X7.38386 Y16.03730 I-0.06250 J0.00000
G01 X5.36861
G03 X5.30621 Y15.97844 I0.00000 J-0.06250
G02 X2.28597 Y16.13797 I-1.51093 J0.06448
G02 X5.30702 Y16.09283 I1.50944 J-0.09521
G03 X5.36901 Y16.03829 I0.06199 J0.00795
G01 X7.38386
G03 X7.44636 Y16.10079 I0.00000 J0.06250
G01 Y17.47204
G01 Y17.79704
G01 Y18.40142
G03 X7.14764 Y18.69911 I-0.29864 J-0.00094
G01 X3.52667
G01 X3.20167
G01 X1.47244
G03 X1.40994 Y18.63661 I0.00000 J-0.06250
G01 Y18.08504
G03 X1.47244 Y18.02254 I0.06250 J0.00000
G01 X1.94488
G03 X2.00738 Y18.08504 I0.00000 J0.06250
G01 Y18.17644
G01 X2.00742 Y18.17759
G01 X2.00763 Y18.17794
G01 X2.00803 Y18.17798
G01 X2.00831 Y18.17769
G03 X2.07087 Y18.11506 I0.06260 J-0.00003
G01 X2.21945
G02 X2.23671 Y18.09780 I0.00088 J-0.01638
G01 Y17.75732
G02 X2.21945 Y17.74006 I-0.01638 J-0.00088
G01 X2.07087
G03 X2.00833 Y17.67753 I0.00003 J-0.06257
G01 X2.00812 Y17.67718
G01 X2.00772 Y17.67714
G01 X2.00744 Y17.67743
G03 X2.00725 Y17.77417 I-1.50649 J0.04538
G03 X1.94488 Y17.83258 I-0.06237 J-0.00409
G01 X1.47244
G03 X1.40994 Y17.77008 I0.00000 J-0.06250
G01 Y16.88770
G01 X1.42825 Y16.86939
G01 X1.40994 Y16.88770
G01 X1.07772
G03 X0.93750 Y16.74748 I0.00095 J-0.14117
G01 Y15.32811
G03 X1.07772 Y15.18789 I0.14117 J0.00095
G01 X1.40994
G01 X1.42825 Y15.20620
G01 X1.40994 Y15.18789
G01 Y14.30551
G03 X1.47244 Y14.24301 I0.06250 J0.00000
G01 X1.94488
G03 X2.00738 Y14.30551 I0.00000 J0.06250
G01 Y14.39692
G01 X2.00742 Y14.39806
G01 X2.00763 Y14.39841
G01 X2.00803 Y14.39846
G01 X2.00831 Y14.39816
G03 X2.07087 Y14.33553 I0.06260 J-0.00003
G01 X2.21945
G02 X2.23671 Y14.31827 I0.00088 J-0.01638
G01 Y13.97779
G02 X2.21945 Y13.96053 I-0.01638 J-0.00088
G01 X2.07087
G03 X2.00833 Y13.89800 I0.00003 J-0.06257
G01 X2.00812 Y13.89765
G01 X2.00772 Y13.89761
G01 X2.00744 Y13.89790
G03 X2.00725 Y13.99464 I-1.50649 J0.04538
G03 X1.94488 Y14.05305 I-0.06237 J-0.00409
G01 X1.47244
G03 X1.40994 Y13.99055 I0.00000 J-0.06250
G01 Y13.43937
G03 X1.47244 Y13.37687 I0.06250 J0.00000
G01 X3.20201
G01 X3.52701
G01 Z-0.48000 F80.00
G01 X7.14866 F160.00
G03 X7.44636 Y13.67457 I-0.00095 J0.29864
G01 Y14.66219
G00 Z-0.42000
G01 Y14.98719
G01 Z-0.40000 F80.00
G01 Z-0.48000
G01 Y15.97480 F160.00
G03 X7.38386 Y16.03730 I-0.06250 J0.00000
G01 X5.36861
G03 X5.30621 Y15.97844 I0.00000 J-0.06250
G02 X2.28597 Y16.13797 I-1.51093 J0.06448
G02 X5.30702 Y16.09283 I1.50944 J-0.09521
G03 X5.36901 Y16.03829 I0.06199 J0.00795
G01 X7.38386
G03 X7.44636 Y16.10079 I0.00000 J0.06250
G01 Y17.47204
G00 Z-0.42000
G01 Y17.79704
G01 Z-0.40000 F80.00
G01 Z-0.48000
G01 Y18.40142 F160.00
G03 X7.14764 Y18.69911 I-0.29864 J-0.00094
G01 X3.52667
G00 Z-0.42000
G01 X3.20167
G01 Z-0.40000 F80.00
G01 Z-0.48000
G01 X1.47244 F160.00
G03 X1.40994 Y18.63661 I0.00000 J-0.06250
G01 Y18.08504
G03 X1.47244 Y18.02254 I0.06250 J0.00000
G01 X1.94488
G03 X2.00738 Y18.08504 I0.00000 J0.06250
G01 Y18.17644
G01 X2.00742 Y18.17759
G01 X2.00763 Y18.17794
G01 X2.00803 Y18.17798
G01 X2.00831 Y18.17769
G03 X2.07087 Y18.11506 I0.06260 J-0.00003
G01 X2.21945
G02 X2.23671 Y18.09780 I0.00088 J-0.01638
G01 Y17.75732
G02 X2.21945 Y17.74006 I-0.01638 J-0.00088
G01 X2.07087
G03 X2.00833 Y17.67753 I0.00003 J-0.06257
G01 X2.00812 Y17.67718
G01 X2.00772 Y17.67714
G01 X2.00744 Y17.67743
G03 X2.00725 Y17.77417 I-1.50649 J0.04538
G03 X1.94488 Y17.83258 I-0.06237 J-0.00409
G01 X1.47244
G03 X1.40994 Y17.77008 I0.00000 J-0.06250
G01 Y16.88770
G01 X1.42825 Y16.86939
G01 X1.40994 Y16.88770
G01 X1.07772
G03 X0.93750 Y16.74748 I0.00095 J-0.14117
G01 Y15.32811
G03 X1.07772 Y15.18789 I0.14117 J0.00095
G01 X1.40994
G01 X1.42825 Y15.20620
G01 X1.40994 Y15.18789
G01 Y14.30551
G03 X1.47244 Y14.24301 I0.06250 J0.00000
G01 X1.94488
G03 X2.00738 Y14.30551 I0.00000 J0.06250
G01 Y14.39692
G01 X2.00742 Y14.39806
G01 X2.00763 Y14.39841
G01 X2.00803 Y14.39846
G01 X2.00831 Y14.39816
G03 X2.07087 Y14.33553 I0.06260 J-0.00003
G01 X2.21945
G02 X2.23671 Y14.31827 I0.00088 J-0.01638
G01 Y13.97779
G02 X2.21945 Y13.96053 I-0.01638 J-0.00088
G01 X2.07087
G03 X2.00833 Y13.89800 I0.00003 J-0.06257
G01 X2.00812 Y13.89765
G01 X2.00772 Y13.89761
G01 X2.00744 Y13.89790
G03 X2.00725 Y13.99464 I-1.50649 J0.04538
G03 X1.94488 Y14.05305 I-0.06237 J-0.00409
G01 X1.47244
G03 X1.40994 Y13.99055 I0.00000 J-0.06250
G01 Y13.43937
G03 X1.47244 Y13.37687 I0.06250 J0.00000
G01 X3.20201
G00 Z-0.42000
G01 X3.52701
G00 Z-0.46031
G01 Z-0.48000 F80.00
G01 Z-0.52000
G01 X7.14866 F160.00
G03 X7.44636 Y13.67457 I-0.00095 J0.29864
G01 Y14.66219
G00 Z-0.42000
G01 Y14.98719
G00 Z-0.46031
G01 Z-0.48000 F80.00
G01 Z-0.52000
G01 Y15.97480 F160.00
G03 X7.38386 Y16.03730 I-0.06250 J0.00000
G01 X5.36861
G03 X5.30621 Y15.97844 I0.00000 J-0.06250
G02 X2.28597 Y16.13797 I-1.51093 J0.06448
G02 X5.30702 Y16.09283 I1.50944 J-0.09521
G03 X5.36901 Y16.03829 I0.06199 J0.00795
G01 X7.38386
G03 X7.44636 Y16.10079 I0.00000 J0.06250
G01 Y17.47204
G00 Z-0.42000
G01 Y17.79704
G00 Z-0.46031
G01 Z-0.48000 F80.00
G01 Z-0.52000
G01 Y18.40142 F160.00
G03 X7.14764 Y18.69911 I-0.29864 J-0.00094
G01 X3.52667
G00 Z-0.42000
G01 X3.20167
G00 Z-0.46031
G01 Z-0.48000 F80.00
G01 Z-0.52000
G01 X1.47244 F160.00
G03 X1.40994 Y18.63661 I0.00000 J-0.06250
G01 Y18.08504
G03 X1.47244 Y18.02254 I0.06250 J0.00000
G01 X1.94488
G03 X2.00738 Y18.08504 I0.00000 J0.06250
G01 Y18.17644
G01 X2.00742 Y18.17759
G01 X2.00763 Y18.17794
G01 X2.00803 Y18.17798
G01 X2.00831 Y18.17769
G03 X2.07087 Y18.11506 I0.06260 J-0.00003
G01 X2.21945
G02 X2.23671 Y18.09780 I0.00088 J-0.01638
G01 Y17.75732
G02 X2.21945 Y17.74006 I-0.01638 J-0.00088
G01 X2.07087
G03 X2.00833 Y17.67753 I0.00003 J-0.06257
G01 X2.00812 Y17.67718
G01 X2.00772 Y17.67714
G01 X2.00744 Y17.67743
G03 X2.00725 Y17.77417 I-1.50649 J0.04538
G03 X1.94488 Y17.83258 I-0.06237 J-0.00409
G01 X1.47244
G03 X1.40994 Y17.77008 I0.00000 J-0.06250
G01 Y16.88770
G01 X1.42825 Y16.86939
G01 X1.40994 Y16.88770
G01 X1.07772
G03 X0.93750 Y16.74748 I0.00095 J-0.14117
G01 Y15.32811
G03 X1.07772 Y15.18789 I0.14117 J0.00095
G01 X1.40994
G01 X1.42825 Y15.20620
G01 X1.40994 Y15.18789
G01 Y14.30551
G03 X1.47244 Y14.24301 I0.06250 J0.00000
G01 X1.94488
G03 X2.00738 Y14.30551 I0.00000 J0.06250
G01 Y14.39692
G01 X2.00742 Y14.39806
G01 X2.00763 Y14.39841
G01 X2.00803 Y14.39846
G01 X2.00831 Y14.39816
G03 X2.07087 Y14.33553 I0.06260 J-0.00003
G01 X2.21945
G02 X2.23671 Y14.31827 I0.00088 J-0.01638
G01 Y13.97779
G02 X2.21945 Y13.96053 I-0.01638 J-0.00088
G01 X2.07087
G03 X2.00833 Y13.89800 I0.00003 J-0.06257
G01 X2.00812 Y13.89765
G01 X2.00772 Y13.89761
G01 X2.00744 Y13.89790
G03 X2.00725 Y13.99464 I-1.50649 J0.04538
G03 X1.94488 Y14.05305 I-0.06237 J-0.00409
G01 X1.47244
G03 X1.40994 Y13.99055 I0.00000 J-0.06250
G01 Y13.43937
G03 X1.47244 Y13.37687 I0.06250 J0.00000
G01 X3.20201
G00 Z-0.42000
G01 X3.52701
G00 Z0.20000


(No. 28: Part 2)
G00 X3.18547 Y7.07726 Z0.20000
G00 Z0.01969
G01 Z0.00000 F80.00
G01 Z-0.08000
G01 X6.12402 F160.00
G03 X6.18652 Y7.13976 I0.00000 J0.06250
G01 Y7.56270
G01 X6.16821 Y7.58100
G01 X6.18652 Y7.56270
G01 X6.84892
G01 X6.86722 Y7.58100
G01 X6.84892 Y7.56270
G01 Y7.13976
G03 X6.91142 Y7.07726 I0.06250 J0.00000
G01 X7.14866
G03 X7.44636 Y7.37496 I-0.00095 J0.29864
G01 Y8.36278
G01 Y8.68778
G01 Y9.67559
G03 X7.38386 Y9.73809 I-0.06250 J0.00000
G01 X5.36861
G03 X5.30621 Y9.67922 I0.00000 J-0.06250
G02 X2.28597 Y9.83876 I-1.51093 J0.06448
G02 X5.30702 Y9.79362 I1.50944 J-0.09521
G03 X5.36901 Y9.73907 I0.06199 J0.00795
G01 X7.38386
G03 X7.44636 Y9.80157 I0.00000 J0.06250
G01 Y11.17283
G01 Y11.49783
G01 Y12.10220
G03 X7.14866 Y12.39990 I-0.29864 J-0.00095
G01 X6.91142
G03 X6.84892 Y12.33740 I0.00000 J-0.06250
G01 Y11.92707
G01 X6.86722 Y11.90876
G01 X6.84892 Y11.92707
G01 X6.18652
G01 X6.16821 Y11.90876
G01 X6.18652 Y11.92707
G01 Y12.33740
G03 X6.12402 Y12.39990 I-0.06250 J0.00000
G01 X5.94390
G01 X3.12543
G01 X2.80043
G01 X1.47244
G03 X1.40994 Y12.33740 I0.00000 J-0.06250
G01 Y11.31339
G03 X1.47244 Y11.25089 I0.06250 J0.00000
G01 X1.94488
G03 X2.00738 Y11.31339 I0.00000 J0.06250
G01 Y11.40479
G01 X2.00742 Y11.40594
G01 X2.00763 Y11.40629
G01 X2.00803 Y11.40633
G01 X2.00831 Y11.40603
G03 X2.07087 Y11.34341 I0.06260 J-0.00003
G01 X2.21945
G02 X2.23671 Y11.32614 I0.00088 J-0.01638
G01 Y10.98567
G02 X2.21945 Y10.96841 I-0.01638 J-0.00088
G01 X2.07087
G03 X2.00833 Y10.90587 I0.00003 J-0.06257
G01 X2.00812 Y10.90553
G01 X2.00772 Y10.90548
G01 X2.00744 Y10.90578
G03 X2.00725 Y11.00251 I-1.50649 J0.04538
G03 X1.94488 Y11.06093 I-0.06237 J-0.00409
G01 X1.47244
G03 X1.40994 Y10.99843 I0.00000 J-0.06250
G01 Y10.58848
G01 X1.42825 Y10.57018
G01 X1.40994 Y10.58848
G01 X1.07772
G03 X0.93750 Y10.44827 I0.00095 J-0.14117
G01 Y9.02890
G03 X1.07772 Y8.88868 I0.14117 J0.00095
G01 X1.40994
G01 X1.42825 Y8.90699
G01 X1.40994 Y8.88868
G01 Y8.47874
G03 X1.47244 Y8.41624 I0.06250 J0.00000
G01 X1.94488
G03 X2.00738 Y8.47874 I0.00000 J0.06250
G01 Y8.57014
G01 X2.00742 Y8.57129
G01 X2.00763 Y8.57164
G01 X2.00803 Y8.57168
G01 X2.00831 Y8.57139
G03 X2.07087 Y8.50876 I0.06260 J-0.00003
G01 X2.21945
G02 X2.23671 Y8.49150 I0.00088 J-0.01638
G01 Y8.15102
G02 X2.21945 Y8.13376 I-0.01638 J-0.00088
G01 X2.07087
G03 X2.00833 Y8.07123 I0.00003 J-0.06257
G01 X2.00812 Y8.07088
G01 X2.00772 Y8.07084
G01 X2.00744 Y8.07113
G03 X2.00725 Y8.16787 I-1.50649 J0.04538
G03 X1.94488 Y8.22628 I-0.06237 J-0.00409
G01 X1.47244
G03 X1.40994 Y8.16378 I0.00000 J-0.06250
G01 Y7.13976
G03 X1.47244 Y7.07726 I0.06250 J0.00000
G01 X2.86047
G01 X3.18547
G01 Z-0.16000 F80.00
G01 X6.12402 F160.00
G03 X6.18652 Y7.13976 I0.00000 J0.06250
G01 Y7.56270
G01 X6.16821 Y7.58100
G01 X6.18652 Y7.56270
G01 X6.84892
G01 X6.86722 Y7.58100
G01 X6.84892 Y7.56270
G01 Y7.13976
G03 X6.91142 Y7.07726 I0.06250 J0.00000
G01 X7.14866
G03 X7.44636 Y7.37496 I-0.00095 J0.29864
G01 Y8.36278
G01 Y8.68778
G01 Y9.67559
G03 X7.38386 Y9.73809 I-0.06250 J0.00000
G01 X5.36861
G03 X5.30621 Y9.67922 I0.00000 J-0.06250
G02 X2.28597 Y9.83876 I-1.51093 J0.06448
G02 X5.30702 Y9.79362 I1.50944 J-0.09521
G03 X5.36901 Y9.73907 I0.06199 J0.00795
G01 X7.38386
G03 X7.44636 Y9.80157 I0.00000 J0.06250
G01 Y11.17283
G01 Y11.49783
G01 Y12.10220
G03 X7.14866 Y12.39990 I-0.29864 J-0.00095
G01 X6.91142
G03 X6.84892 Y12.33740 I0.00000 J-0.06250
G01 Y11.92707
G01 X6.86722 Y11.90876
G01 X6.84892 Y11.92707
G01 X6.18652
G01 X6.16821 Y11.90876
G01 X6.18652 Y11.92707
G01 Y12.33740
G03 X6.12402 Y12.39990 I-0.06250 J0.00000
G01 X5.94390
G01 X3.12543
G01 X2.80043
G01 X1.47244
G03 X1.40994 Y12.33740 I0.00000 J-0.06250
G01 Y11.31339
G03 X1.47244 Y11.25089 I0.06250 J0.00000
G01 X1.94488
G03 X2.00738 Y11.31339 I0.00000 J0.06250
G01 Y11.40479
G01 X2.00742 Y11.40594
G01 X2.00763 Y11.40629
G01 X2.00803 Y11.40633
G01 X2.00831 Y11.40603
G03 X2.07087 Y11.34341 I0.06260 J-0.00003
G01 X2.21945
G02 X2.23671 Y11.32614 I0.00088 J-0.01638
G01 Y10.98567
G02 X2.21945 Y10.96841 I-0.01638 J-0.00088
G01 X2.07087
G03 X2.00833 Y10.90587 I0.00003 J-0.06257
G01 X2.00812 Y10.90553
G01 X2.00772 Y10.90548
G01 X2.00744 Y10.90578
G03 X2.00725 Y11.00251 I-1.50649 J0.04538
G03 X1.94488 Y11.06093 I-0.06237 J-0.00409
G01 X1.47244
G03 X1.40994 Y10.99843 I0.00000 J-0.06250
G01 Y10.58848
G01 X1.42825 Y10.57018
G01 X1.40994 Y10.58848
G01 X1.07772
G03 X0.93750 Y10.44827 I0.00095 J-0.14117
G01 Y9.02890
G03 X1.07772 Y8.88868 I0.14117 J0.00095
G01 X1.40994
G01 X1.42825 Y8.90699
G01 X1.40994 Y8.88868
G01 Y8.47874
G03 X1.47244 Y8.41624 I0.06250 J0.00000
G01 X1.94488
G03 X2.00738 Y8.47874 I0.00000 J0.06250
G01 Y8.57014
G01 X2.00742 Y8.57129
G01 X2.00763 Y8.57164
G01 X2.00803 Y8.57168
G01 X2.00831 Y8.57139
G03 X2.07087 Y8.50876 I0.06260 J-0.00003
G01 X2.21945
G02 X2.23671 Y8.49150 I0.00088 J-0.01638
G01 Y8.15102
G02 X2.21945 Y8.13376 I-0.01638 J-0.00088
G01 X2.07087
G03 X2.00833 Y8.07123 I0.00003 J-0.06257
G01 X2.00812 Y8.07088
G01 X2.00772 Y8.07084
G01 X2.00744 Y8.07113
G03 X2.00725 Y8.16787 I-1.50649 J0.04538
G03 X1.94488 Y8.22628 I-0.06237 J-0.00409
G01 X1.47244
G03 X1.40994 Y8.16378 I0.00000 J-0.06250
G01 Y7.13976
G03 X1.47244 Y7.07726 I0.06250 J0.00000
G01 X2.86047
G01 X3.18547
G01 Z-0.24000 F80.00
G01 X6.12402 F160.00
G03 X6.18652 Y7.13976 I0.00000 J0.06250
G01 Y7.56270
G01 X6.16821 Y7.58100
G01 X6.18652 Y7.56270
G01 X6.84892
G01 X6.86722 Y7.58100
G01 X6.84892 Y7.56270
G01 Y7.13976
G03 X6.91142 Y7.07726 I0.06250 J0.00000
G01 X7.14866
G03 X7.44636 Y7.37496 I-0.00095 J0.29864
G01 Y8.36278
G01 Y8.68778
G01 Y9.67559
G03 X7.38386 Y9.73809 I-0.06250 J0.00000
G01 X5.36861
G03 X5.30621 Y9.67922 I0.00000 J-0.06250
G02 X2.28597 Y9.83876 I-1.51093 J0.06448
G02 X5.30702 Y9.79362 I1.50944 J-0.09521
G03 X5.36901 Y9.73907 I0.06199 J0.00795
G01 X7.38386
G03 X7.44636 Y9.80157 I0.00000 J0.06250
G01 Y11.17283
G01 Y11.49783
G01 Y12.10220
G03 X7.14866 Y12.39990 I-0.29864 J-0.00095
G01 X6.91142
G03 X6.84892 Y12.33740 I0.00000 J-0.06250
G01 Y11.92707
G01 X6.86722 Y11.90876
G01 X6.84892 Y11.92707
G01 X6.18652
G01 X6.16821 Y11.90876
G01 X6.18652 Y11.92707
G01 Y12.33740
G03 X6.12402 Y12.39990 I-0.06250 J0.00000
G01 X5.94390
G01 X3.12543
G01 X2.80043
G01 X1.47244
G03 X1.40994 Y12.33740 I0.00000 J-0.06250
G01 Y11.31339
G03 X1.47244 Y11.25089 I0.06250 J0.00000
G01 X1.94488
G03 X2.00738 Y11.31339 I0.00000 J0.06250
G01 Y11.40479
G01 X2.00742 Y11.40594
G01 X2.00763 Y11.40629
G01 X2.00803 Y11.40633
G01 X2.00831 Y11.40603
G03 X2.07087 Y11.34341 I0.06260 J-0.00003
G01 X2.21945
G02 X2.23671 Y11.32614 I0.00088 J-0.01638
G01 Y10.98567
G02 X2.21945 Y10.96841 I-0.01638 J-0.00088
G01 X2.07087
G03 X2.00833 Y10.90587 I0.00003 J-0.06257
G01 X2.00812 Y10.90553
G01 X2.00772 Y10.90548
G01 X2.00744 Y10.90578
G03 X2.00725 Y11.00251 I-1.50649 J0.04538
G03 X1.94488 Y11.06093 I-0.06237 J-0.00409
G01 X1.47244
G03 X1.40994 Y10.99843 I0.00000 J-0.06250
G01 Y10.58848
G01 X1.42825 Y10.57018
G01 X1.40994 Y10.58848
G01 X1.07772
G03 X0.93750 Y10.44827 I0.00095 J-0.14117
G01 Y9.02890
G03 X1.07772 Y8.88868 I0.14117 J0.00095
G01 X1.40994
G01 X1.42825 Y8.90699
G01 X1.40994 Y8.88868
G01 Y8.47874
G03 X1.47244 Y8.41624 I0.06250 J0.00000
G01 X1.94488
G03 X2.00738 Y8.47874 I0.00000 J0.06250
G01 Y8.57014
G01 X2.00742 Y8.57129
G01 X2.00763 Y8.57164
G01 X2.00803 Y8.57168
G01 X2.00831 Y8.57139
G03 X2.07087 Y8.50876 I0.06260 J-0.00003
G01 X2.21945
G02 X2.23671 Y8.49150 I0.00088 J-0.01638
G01 Y8.15102
G02 X2.21945 Y8.13376 I-0.01638 J-0.00088
G01 X2.07087
G03 X2.00833 Y8.07123 I0.00003 J-0.06257
G01 X2.00812 Y8.07088
G01 X2.00772 Y8.07084
G01 X2.00744 Y8.07113
G03 X2.00725 Y8.16787 I-1.50649 J0.04538
G03 X1.94488 Y8.22628 I-0.06237 J-0.00409
G01 X1.47244
G03 X1.40994 Y8.16378 I0.00000 J-0.06250
G01 Y7.13976
G03 X1.47244 Y7.07726 I0.06250 J0.00000
G01 X2.86047
G01 X3.18547
G01 Z-0.32000 F80.00
G01 X6.12402 F160.00
G03 X6.18652 Y7.13976 I0.00000 J0.06250
G01 Y7.56270
G01 X6.16821 Y7.58100
G01 X6.18652 Y7.56270
G01 X6.84892
G01 X6.86722 Y7.58100
G01 X6.84892 Y7.56270
G01 Y7.13976
G03 X6.91142 Y7.07726 I0.06250 J0.00000
G01 X7.14866
G03 X7.44636 Y7.37496 I-0.00095 J0.29864
G01 Y8.36278
G01 Y8.68778
G01 Y9.67559
G03 X7.38386 Y9.73809 I-0.06250 J0.00000
G01 X5.36861
G03 X5.30621 Y9.67922 I0.00000 J-0.06250
G02 X2.28597 Y9.83876 I-1.51093 J0.06448
G02 X5.30702 Y9.79362 I1.50944 J-0.09521
G03 X5.36901 Y9.73907 I0.06199 J0.00795
G01 X7.38386
G03 X7.44636 Y9.80157 I0.00000 J0.06250
G01 Y11.17283
G01 Y11.49783
G01 Y12.10220
G03 X7.14866 Y12.39990 I-0.29864 J-0.00095
G01 X6.91142
G03 X6.84892 Y12.33740 I0.00000 J-0.06250
G01 Y11.92707
G01 X6.86722 Y11.90876
G01 X6.84892 Y11.92707
G01 X6.18652
G01 X6.16821 Y11.90876
G01 X6.18652 Y11.92707
G01 Y12.33740
G03 X6.12402 Y12.39990 I-0.06250 J0.00000
G01 X5.94390
G01 X3.12543
G01 X2.80043
G01 X1.47244
G03 X1.40994 Y12.33740 I0.00000 J-0.06250
G01 Y11.31339
G03 X1.47244 Y11.25089 I0.06250 J0.00000
G01 X1.94488
G03 X2.00738 Y11.31339 I0.00000 J0.06250
G01 Y11.40479
G01 X2.00742 Y11.40594
G01 X2.00763 Y11.40629
G01 X2.00803 Y11.40633
G01 X2.00831 Y11.40603
G03 X2.07087 Y11.34341 I0.06260 J-0.00003
G01 X2.21945
G02 X2.23671 Y11.32614 I0.00088 J-0.01638
G01 Y10.98567
G02 X2.21945 Y10.96841 I-0.01638 J-0.00088
G01 X2.07087
G03 X2.00833 Y10.90587 I0.00003 J-0.06257
G01 X2.00812 Y10.90553
G01 X2.00772 Y10.90548
G01 X2.00744 Y10.90578
G03 X2.00725 Y11.00251 I-1.50649 J0.04538
G03 X1.94488 Y11.06093 I-0.06237 J-0.00409
G01 X1.47244
G03 X1.40994 Y10.99843 I0.00000 J-0.06250
G01 Y10.58848
G01 X1.42825 Y10.57018
G01 X1.40994 Y10.58848
G01 X1.07772
G03 X0.93750 Y10.44827 I0.00095 J-0.14117
G01 Y9.02890
G03 X1.07772 Y8.88868 I0.14117 J0.00095
G01 X1.40994
G01 X1.42825 Y8.90699
G01 X1.40994 Y8.88868
G01 Y8.47874
G03 X1.47244 Y8.41624 I0.06250 J0.00000
G01 X1.94488
G03 X2.00738 Y8.47874 I0.00000 J0.06250
G01 Y8.57014
G01 X2.00742 Y8.57129
G01 X2.00763 Y8.57164
G01 X2.00803 Y8.57168
G01 X2.00831 Y8.57139
G03 X2.07087 Y8.50876 I0.06260 J-0.00003
G01 X2.21945
G02 X2.23671 Y8.49150 I0.00088 J-0.01638
G01 Y8.15102
G02 X2.21945 Y8.13376 I-0.01638 J-0.00088
G01 X2.07087
G03 X2.00833 Y8.07123 I0.00003 J-0.06257
G01 X2.00812 Y8.07088
G01 X2.00772 Y8.07084
G01 X2.00744 Y8.07113
G03 X2.00725 Y8.16787 I-1.50649 J0.04538
G03 X1.94488 Y8.22628 I-0.06237 J-0.00409
G01 X1.47244
G03 X1.40994 Y8.16378 I0.00000 J-0.06250
G01 Y7.13976
G03 X1.47244 Y7.07726 I0.06250 J0.00000
G01 X2.86047
G01 X3.18547
G01 Z-0.40000 F80.00
G01 X6.12402 F160.00
G03 X6.18652 Y7.13976 I0.00000 J0.06250
G01 Y7.56270
G01 X6.16821 Y7.58100
G01 X6.18652 Y7.56270
G01 X6.84892
G01 X6.86722 Y7.58100
G01 X6.84892 Y7.56270
G01 Y7.13976
G03 X6.91142 Y7.07726 I0.06250 J0.00000
G01 X7.14866
G03 X7.44636 Y7.37496 I-0.00095 J0.29864
G01 Y8.36278
G01 Y8.68778
G01 Y9.67559
G03 X7.38386 Y9.73809 I-0.06250 J0.00000
G01 X5.36861
G03 X5.30621 Y9.67922 I0.00000 J-0.06250
G02 X2.28597 Y9.83876 I-1.51093 J0.06448
G02 X5.30702 Y9.79362 I1.50944 J-0.09521
G03 X5.36901 Y9.73907 I0.06199 J0.00795
G01 X7.38386
G03 X7.44636 Y9.80157 I0.00000 J0.06250
G01 Y11.17283
G01 Y11.49783
G01 Y12.10220
G03 X7.14866 Y12.39990 I-0.29864 J-0.00095
G01 X6.91142
G03 X6.84892 Y12.33740 I0.00000 J-0.06250
G01 Y11.92707
G01 X6.86722 Y11.90876
G01 X6.84892 Y11.92707
G01 X6.18652
G01 X6.16821 Y11.90876
G01 X6.18652 Y11.92707
G01 Y12.33740
G03 X6.12402 Y12.39990 I-0.06250 J0.00000
G01 X5.94390
G01 X3.12543
G01 X2.80043
G01 X1.47244
G03 X1.40994 Y12.33740 I0.00000 J-0.06250
G01 Y11.31339
G03 X1.47244 Y11.25089 I0.06250 J0.00000
G01 X1.94488
G03 X2.00738 Y11.31339 I0.00000 J0.06250
G01 Y11.40479
G01 X2.00742 Y11.40594
G01 X2.00763 Y11.40629
G01 X2.00803 Y11.40633
G01 X2.00831 Y11.40603
G03 X2.07087 Y11.34341 I0.06260 J-0.00003
G01 X2.21945
G02 X2.23671 Y11.32614 I0.00088 J-0.01638
G01 Y10.98567
G02 X2.21945 Y10.96841 I-0.01638 J-0.00088
G01 X2.07087
G03 X2.00833 Y10.90587 I0.00003 J-0.06257
G01 X2.00812 Y10.90553
G01 X2.00772 Y10.90548
G01 X2.00744 Y10.90578
G03 X2.00725 Y11.00251 I-1.50649 J0.04538
G03 X1.94488 Y11.06093 I-0.06237 J-0.00409
G01 X1.47244
G03 X1.40994 Y10.99843 I0.00000 J-0.06250
G01 Y10.58848
G01 X1.42825 Y10.57018
G01 X1.40994 Y10.58848
G01 X1.07772
G03 X0.93750 Y10.44827 I0.00095 J-0.14117
G01 Y9.02890
G03 X1.07772 Y8.88868 I0.14117 J0.00095
G01 X1.40994
G01 X1.42825 Y8.90699
G01 X1.40994 Y8.88868
G01 Y8.47874
G03 X1.47244 Y8.41624 I0.06250 J0.00000
G01 X1.94488
G03 X2.00738 Y8.47874 I0.00000 J0.06250
G01 Y8.57014
G01 X2.00742 Y8.57129
G01 X2.00763 Y8.57164
G01 X2.00803 Y8.57168
G01 X2.00831 Y8.57139
G03 X2.07087 Y8.50876 I0.06260 J-0.00003
G01 X2.21945
G02 X2.23671 Y8.49150 I0.00088 J-0.01638
G01 Y8.15102
G02 X2.21945 Y8.13376 I-0.01638 J-0.00088
G01 X2.07087
G03 X2.00833 Y8.07123 I0.00003 J-0.06257
G01 X2.00812 Y8.07088
G01 X2.00772 Y8.07084
G01 X2.00744 Y8.07113
G03 X2.00725 Y8.16787 I-1.50649 J0.04538
G03 X1.94488 Y8.22628 I-0.06237 J-0.00409
G01 X1.47244
G03 X1.40994 Y8.16378 I0.00000 J-0.06250
G01 Y7.13976
G03 X1.47244 Y7.07726 I0.06250 J0.00000
G01 X2.86047
G01 X3.18547
G01 Z-0.48000 F80.00
G01 X6.12402 F160.00
G03 X6.18652 Y7.13976 I0.00000 J0.06250
G01 Y7.56270
G01 X6.16821 Y7.58100
G01 X6.18652 Y7.56270
G01 X6.84892
G01 X6.86722 Y7.58100
G01 X6.84892 Y7.56270
G01 Y7.13976
G03 X6.91142 Y7.07726 I0.06250 J0.00000
G01 X7.14866
G03 X7.44636 Y7.37496 I-0.00095 J0.29864
G01 Y8.36278
G00 Z-0.42000
G01 Y8.68778
G01 Z-0.40000 F80.00
G01 Z-0.48000
G01 Y9.67559 F160.00
G03 X7.38386 Y9.73809 I-0.06250 J0.00000
G01 X5.36861
G03 X5.30621 Y9.67922 I0.00000 J-0.06250
G02 X2.28597 Y9.83876 I-1.51093 J0.06448
G02 X5.30702 Y9.79362 I1.50944 J-0.09521
G03 X5.36901 Y9.73907 I0.06199 J0.00795
G01 X7.38386
G03 X7.44636 Y9.80157 I0.00000 J0.06250
G01 Y11.17283
G00 Z-0.42000
G01 Y11.49783
G01 Z-0.40000 F80.00
G01 Z-0.48000
G01 Y12.10220 F160.00
G03 X7.14866 Y12.39990 I-0.29864 J-0.00095
G01 X6.91142
G03 X6.84892 Y12.33740 I0.00000 J-0.06250
G01 Y11.92707
G01 X6.86722 Y11.90876
G01 X6.84892 Y11.92707
G01 X6.18652
G01 X6.16821 Y11.90876
G01 X6.18652 Y11.92707
G01 Y12.33740
G03 X6.12402 Y12.39990 I-0.06250 J0.00000
G01 X5.94390
G01 X3.12543
G00 Z-0.42000
G01 X2.80043
G01 Z-0.40000 F80.00
G01 Z-0.48000
G01 X1.47244 F160.00
G03 X1.40994 Y12.33740 I0.00000 J-0.06250
G01 Y11.31339
G03 X1.47244 Y11.25089 I0.06250 J0.00000
G01 X1.94488
G03 X2.00738 Y11.31339 I0.00000 J0.06250
G01 Y11.40479
G01 X2.00742 Y11.40594
G01 X2.00763 Y11.40629
G01 X2.00803 Y11.40633
G01 X2.00831 Y11.40603
G03 X2.07087 Y11.34341 I0.06260 J-0.00003
G01 X2.21945
G02 X2.23671 Y11.32614 I0.00088 J-0.01638
G01 Y10.98567
G02 X2.21945 Y10.96841 I-0.01638 J-0.00088
G01 X2.07087
G03 X2.00833 Y10.90587 I0.00003 J-0.06257
G01 X2.00812 Y10.90553
G01 X2.00772 Y10.90548
G01 X2.00744 Y10.90578
G03 X2.00725 Y11.00251 I-1.50649 J0.04538
G03 X1.94488 Y11.06093 I-0.06237 J-0.00409
G01 X1.47244
G03 X1.40994 Y10.99843 I0.00000 J-0.06250
G01 Y10.58848
G01 X1.42825 Y10.57018
G01 X1.40994 Y10.58848
G01 X1.07772
G03 X0.93750 Y10.44827 I0.00095 J-0.14117
G01 Y9.02890
G03 X1.07772 Y8.88868 I0.14117 J0.00095
G01 X1.40994
G01 X1.42825 Y8.90699
G01 X1.40994 Y8.88868
G01 Y8.47874
G03 X1.47244 Y8.41624 I0.06250 J0.00000
G01 X1.94488
G03 X2.00738 Y8.47874 I0.00000 J0.06250
G01 Y8.57014
G01 X2.00742 Y8.57129
G01 X2.00763 Y8.57164
G01 X2.00803 Y8.57168
G01 X2.00831 Y8.57139
G03 X2.07087 Y8.50876 I0.06260 J-0.00003
G01 X2.21945
G02 X2.23671 Y8.49150 I0.00088 J-0.01638
G01 Y8.15102
G02 X2.21945 Y8.13376 I-0.01638 J-0.00088
G01 X2.07087
G03 X2.00833 Y8.07123 I0.00003 J-0.06257
G01 X2.00812 Y8.07088
G01 X2.00772 Y8.07084
G01 X2.00744 Y8.07113
G03 X2.00725 Y8.16787 I-1.50649 J0.04538
G03 X1.94488 Y8.22628 I-0.06237 J-0.00409
G01 X1.47244
G03 X1.40994 Y8.16378 I0.00000 J-0.06250
G01 Y7.13976
G03 X1.47244 Y7.07726 I0.06250 J0.00000
G01 X2.86047
G00 Z-0.42000
G01 X3.18547
G00 Z-0.46031
G01 Z-0.48000 F80.00
G01 Z-0.52000
G01 X6.12402 F160.00
G03 X6.18652 Y7.13976 I0.00000 J0.06250
G01 Y7.56270
G01 X6.16821 Y7.58100
G01 X6.18652 Y7.56270
G01 X6.84892
G01 X6.86722 Y7.58100
G01 X6.84892 Y7.56270
G01 Y7.13976
G03 X6.91142 Y7.07726 I0.06250 J0.00000
G01 X7.14866
G03 X7.44636 Y7.37496 I-0.00095 J0.29864
G01 Y8.36278
G00 Z-0.42000
G01 Y8.68778
G00 Z-0.46031
G01 Z-0.48000 F80.00
G01 Z-0.52000
G01 Y9.67559 F160.00
G03 X7.38386 Y9.73809 I-0.06250 J0.00000
G01 X5.36861
G03 X5.30621 Y9.67922 I0.00000 J-0.06250
G02 X2.28597 Y9.83876 I-1.51093 J0.06448
G02 X5.30702 Y9.79362 I1.50944 J-0.09521
G03 X5.36901 Y9.73907 I0.06199 J0.00795
G01 X7.38386
G03 X7.44636 Y9.80157 I0.00000 J0.06250
G01 Y11.17283
G00 Z-0.42000
G01 Y11.49783
G00 Z-0.46031
G01 Z-0.48000 F80.00
G01 Z-0.52000
G01 Y12.10220 F160.00
G03 X7.14866 Y12.39990 I-0.29864 J-0.00095
G01 X6.91142
G03 X6.84892 Y12.33740 I0.00000 J-0.06250
G01 Y11.92707
G01 X6.86722 Y11.90876
G01 X6.84892 Y11.92707
G01 X6.18652
G01 X6.16821 Y11.90876
G01 X6.18652 Y11.92707
G01 Y12.33740
G03 X6.12402 Y12.39990 I-0.06250 J0.00000
G01 X5.94390
G01 X3.12543
G00 Z-0.42000
G01 X2.80043
G00 Z-0.46031
G01 Z-0.48000 F80.00
G01 Z-0.52000
G01 X1.47244 F160.00
G03 X1.40994 Y12.33740 I0.00000 J-0.06250
G01 Y11.31339
G03 X1.47244 Y11.25089 I0.06250 J0.00000
G01 X1.94488
G03 X2.00738 Y11.31339 I0.00000 J0.06250
G01 Y11.40479
G01 X2.00742 Y11.40594
G01 X2.00763 Y11.40629
G01 X2.00803 Y11.40633
G01 X2.00831 Y11.40603
G03 X2.07087 Y11.34341 I0.06260 J-0.00003
G01 X2.21945
G02 X2.23671 Y11.32614 I0.00088 J-0.01638
G01 Y10.98567
G02 X2.21945 Y10.96841 I-0.01638 J-0.00088
G01 X2.07087
G03 X2.00833 Y10.90587 I0.00003 J-0.06257
G01 X2.00812 Y10.90553
G01 X2.00772 Y10.90548
G01 X2.00744 Y10.90578
G03 X2.00725 Y11.00251 I-1.50649 J0.04538
G03 X1.94488 Y11.06093 I-0.06237 J-0.00409
G01 X1.47244
G03 X1.40994 Y10.99843 I0.00000 J-0.06250
G01 Y10.58848
G01 X1.42825 Y10.57018
G01 X1.40994 Y10.58848
G01 X1.07772
G03 X0.93750 Y10.44827 I0.00095 J-0.14117
G01 Y9.02890
G03 X1.07772 Y8.88868 I0.14117 J0.00095
G01 X1.40994
G01 X1.42825 Y8.90699
G01 X1.40994 Y8.88868
G01 Y8.47874
G03 X1.47244 Y8.41624 I0.06250 J0.00000
G01 X1.94488
G03 X2.00738 Y8.47874 I0.00000 J0.06250
G01 Y8.57014
G01 X2.00742 Y8.57129
G01 X2.00763 Y8.57164
G01 X2.00803 Y8.57168
G01 X2.00831 Y8.57139
G03 X2.07087 Y8.50876 I0.06260 J-0.00003
G01 X2.21945
G02 X2.23671 Y8.49150 I0.00088 J-0.01638
G01 Y8.15102
G02 X2.21945 Y8.13376 I-0.01638 J-0.00088
G01 X2.07087
G03 X2.00833 Y8.07123 I0.00003 J-0.06257
G01 X2.00812 Y8.07088
G01 X2.00772 Y8.07084
G01 X2.00744 Y8.07113
G03 X2.00725 Y8.16787 I-1.50649 J0.04538
G03 X1.94488 Y8.22628 I-0.06237 J-0.00409
G01 X1.47244
G03 X1.40994 Y8.16378 I0.00000 J-0.06250
G01 Y7.13976
G03 X1.47244 Y7.07726 I0.06250 J0.00000
G01 X2.86047
G00 Z-0.42000
G01 X3.18547
G00 Z0.20000


(No. 29: Part 1)
G00 X0.93750 Y3.42963 Z0.20000
G00 Z0.01969
G01 Z0.00000 F80.00
G01 Z-0.08000
G01 Y2.96118 F160.00
G03 X1.07772 Y2.82096 I0.14117 J0.00095
G01 X1.40994
G01 X1.42825 Y2.83927
G01 X1.40994 Y2.82096
G01 Y2.31850
G03 X1.47244 Y2.25600 I0.06250 J0.00000
G01 X1.94488
G03 X2.00738 Y2.31850 I0.00000 J0.06250
G01 Y2.40991
G01 X2.00742 Y2.41106
G01 X2.00763 Y2.41140
G01 X2.00803 Y2.41145
G01 X2.00831 Y2.41115
G03 X2.07087 Y2.34852 I0.06260 J-0.00003
G01 X2.21945
G02 X2.23671 Y2.33126 I0.00088 J-0.01638
G01 Y1.99079
G02 X2.21945 Y1.97352 I-0.01638 J-0.00088
G01 X2.07087
G03 X2.00833 Y1.91099 I0.00003 J-0.06257
G01 X2.00812 Y1.91064
G01 X2.00772 Y1.91060
G01 X2.00744 Y1.91090
G03 X2.00725 Y2.00763 I-1.50649 J0.04538
G03 X1.94488 Y2.06604 I-0.06237 J-0.00409
G01 X1.47244
G03 X1.40994 Y2.00354 I0.00000 J-0.06250
G01 Y1.47244
G03 X1.47244 Y1.40994 I0.06250 J0.00000
G01 X3.78377
G01 X3.80207 Y1.42825
G01 X3.78377 Y1.40994
G01 Y1.07772
G03 X3.92399 Y0.93750 I0.14117 J0.00095
G01 X4.55595
G03 X4.69617 Y1.07772 I-0.00095 J0.14117
G01 Y1.41742
G01 X4.67786 Y1.43573
G01 X4.69617 Y1.41742
G01 X5.02737
G03 X5.08987 Y1.47991 I0.00000 J0.06250
G01 X5.08995 Y1.94605
G03 X5.02746 Y2.00856 I-0.06250 J0.00001
G01 X4.93614 Y2.00858
G01 X4.93499 Y2.00862
G01 X4.93464 Y2.00883
G01 X4.93460 Y2.00923
G01 X4.93489 Y2.00950
G03 X4.99754 Y2.07205 I0.00005 J0.06260
G01 X4.99756 Y2.22064
G02 X5.01483 Y2.23790 I0.01638 J0.00088
G01 X5.35530 Y2.23784
G02 X5.37256 Y2.22058 I0.00088 J-0.01638
G01 X5.37254 Y2.07199
G03 X5.43505 Y2.00944 I0.06257 J0.00002
G01 X5.43540 Y2.00923
G01 X5.43544 Y2.00883
G01 X5.43515 Y2.00856
G03 X5.33833 Y2.00838 I-0.04566 J-1.50774
G03 X5.27991 Y1.94602 I0.00408 J-0.06237
G01 X5.27983 Y1.47245
G03 X5.34233 Y1.40994 I0.06250 J-0.00001
G01 X5.97244
G03 X6.03494 Y1.47244 I0.00000 J0.06250
G01 Y2.12079
G01 Y2.44579
G01 Y4.65917
G01 Y4.98417
G01 Y5.71181
G03 X5.97244 Y5.77431 I-0.06250 J0.00000
G01 X5.34233
G03 X5.27983 Y5.71180 I0.00000 J-0.06250
G01 X5.27991 Y5.23823
G03 X5.34242 Y5.17574 I0.06250 J0.00001
G01 X5.43391 Y5.17575
G01 X5.43505 Y5.17571
G01 X5.43540 Y5.17551
G01 X5.43544 Y5.17510
G01 X5.43515 Y5.17483
G03 X5.37254 Y5.11226 I-0.00001 J-0.06260
G01 X5.37256 Y4.96368
G02 X5.35530 Y4.94641 I-0.01638 J-0.00089
G01 X5.01483 Y4.94636
G02 X4.99756 Y4.96362 I-0.00089 J0.01638
G01 X4.99754 Y5.11220
G03 X4.93499 Y5.17473 I-0.06257 J-0.00004
G01 X4.93464 Y5.17494
G01 X4.93460 Y5.17534
G01 X4.93489 Y5.17562
G03 X5.03154 Y5.17582 I0.04510 J1.50520
G03 X5.08995 Y5.23820 I-0.00410 J0.06237
G01 X5.08987 Y5.70434
G03 X5.02737 Y5.76683 I-0.06250 J-0.00001
G01 X4.69617
G01 X4.67786 Y5.74852
G01 X4.69617 Y5.76683
G01 Y6.10653
G03 X4.55595 Y6.24675 I-0.14117 J-0.00095
G01 X3.92399
G03 X3.78377 Y6.10653 I0.00095 J-0.14117
G01 Y5.77431
G01 X3.80207 Y5.75601
G01 X3.78377 Y5.77431
G01 X1.47244
G03 X1.40994 Y5.71181 I0.00000 J-0.06250
G01 Y5.18071
G03 X1.47244 Y5.11821 I0.06250 J0.00000
G01 X1.94488
G03 X2.00738 Y5.18071 I0.00000 J0.06250
G01 Y5.27211
G01 X2.00742 Y5.27326
G01 X2.00763 Y5.27361
G01 X2.00803 Y5.27365
G01 X2.00831 Y5.27336
G03 X2.07087 Y5.21073 I0.06260 J-0.00003
G01 X2.21945
G02 X2.23671 Y5.19347 I0.00088 J-0.01638
G01 Y4.85299
G02 X2.21945 Y4.83573 I-0.01638 J-0.00088
G01 X2.07087
G03 X2.00833 Y4.77320 I0.00003 J-0.06257
G01 X2.00812 Y4.77285
G01 X2.00772 Y4.77280
G01 X2.00744 Y4.77310
G03 X2.00725 Y4.86984 I-1.50649 J0.04538
G03 X1.94488 Y4.92825 I-0.06237 J-0.00409
G01 X1.47244
G03 X1.40994 Y4.86575 I0.00000 J-0.06250
G01 Y4.36329
G01 X1.42825 Y4.34498
G01 X1.40994 Y4.36329
G01 X1.07772
G03 X0.93750 Y4.22307 I0.00095 J-0.14117
G01 Y3.75463
G01 Y3.42963
G01 Z-0.16000 F80.00
G01 Y2.96118 F160.00
G03 X1.07772 Y2.82096 I0.14117 J0.00095
G01 X1.40994
G01 X1.42825 Y2.83927
G01 X1.40994 Y2.82096
G01 Y2.31850
G03 X1.47244 Y2.25600 I0.06250 J0.00000
G01 X1.94488
G03 X2.00738 Y2.31850 I0.00000 J0.06250
G01 Y2.40991
G01 X2.00742 Y2.41106
G01 X2.00763 Y2.41140
G01 X2.00803 Y2.41145
G01 X2.00831 Y2.41115
G03 X2.07087 Y2.34852 I0.06260 J-0.00003
G01 X2.21945
G02 X2.23671 Y2.33126 I0.00088 J-0.01638
G01 Y1.99079
G02 X2.21945 Y1.97352 I-0.01638 J-0.00088
G01 X2.07087
G03 X2.00833 Y1.91099 I0.00003 J-0.06257
G01 X2.00812 Y1.91064
G01 X2.00772 Y1.91060
G01 X2.00744 Y1.91090
G03 X2.00725 Y2.00763 I-1.50649 J0.04538
G03 X1.94488 Y2.06604 I-0.06237 J-0.00409
G01 X1.47244
G03 X1.40994 Y2.00354 I0.00000 J-0.06250
G01 Y1.47244
G03 X1.47244 Y1.40994 I0.06250 J0.00000
G01 X3.78377
G01 X3.80207 Y1.42825
G01 X3.78377 Y1.40994
G01 Y1.07772
G03 X3.92399 Y0.93750 I0.14117 J0.00095
G01 X4.55595
G03 X4.69617 Y1.07772 I-0.00095 J0.14117
G01 Y1.41742
G01 X4.67786 Y1.43573
G01 X4.69617 Y1.41742
G01 X5.02737
G03 X5.08987 Y1.47991 I0.00000 J0.06250
G01 X5.08995 Y1.94605
G03 X5.02746 Y2.00856 I-0.06250 J0.00001
G01 X4.93614 Y2.00858
G01 X4.93499 Y2.00862
G01 X4.93464 Y2.00883
G01 X4.93460 Y2.00923
G01 X4.93489 Y2.00950
G03 X4.99754 Y2.07205 I0.00005 J0.06260
G01 X4.99756 Y2.22064
G02 X5.01483 Y2.23790 I0.01638 J0.00088
G01 X5.35530 Y2.23784
G02 X5.37256 Y2.22058 I0.00088 J-0.01638
G01 X5.37254 Y2.07199
G03 X5.43505 Y2.00944 I0.06257 J0.00002
G01 X5.43540 Y2.00923
G01 X5.43544 Y2.00883
G01 X5.43515 Y2.00856
G03 X5.33833 Y2.00838 I-0.04566 J-1.50774
G03 X5.27991 Y1.94602 I0.00408 J-0.06237
G01 X5.27983 Y1.47245
G03 X5.34233 Y1.40994 I0.06250 J-0.00001
G01 X5.97244
G03 X6.03494 Y1.47244 I0.00000 J0.06250
G01 Y2.12079
G01 Y2.44579
G01 Y4.65917
G01 Y4.98417
G01 Y5.71181
G03 X5.97244 Y5.77431 I-0.06250 J0.00000
G01 X5.34233
G03 X5.27983 Y5.71180 I0.00000 J-0.06250
G01 X5.27991 Y5.23823
G03 X5.34242 Y5.17574 I0.06250 J0.00001
G01 X5.43391 Y5.17575
G01 X5.43505 Y5.17571
G01 X5.43540 Y5.17551
G01 X5.43544 Y5.17510
G01 X5.43515 Y5.17483
G03 X5.37254 Y5.11226 I-0.00001 J-0.06260
G01 X5.37256 Y4.96368
G02 X5.35530 Y4.94641 I-0.01638 J-0.00089
G01 X5.01483 Y4.94636
G02 X4.99756 Y4.96362 I-0.00089 J0.01638
G01 X4.99754 Y5.11220
G03 X4.93499 Y5.17473 I-0.06257 J-0.00004
G01 X4.93464 Y5.17494
G01 X4.93460 Y5.17534
G01 X4.93489 Y5.17562
G03 X5.03154 Y5.17582 I0.04510 J1.50520
G03 X5.08995 Y5.23820 I-0.00410 J0.06237
G01 X5.08987 Y5.70434
G03 X5.02737 Y5.76683 I-0.06250 J-0.00001
G01 X4.69617
G01 X4.67786 Y5.74852
G01 X4.69617 Y5.76683
G01 Y6.10653
G03 X4.55595 Y6.24675 I-0.14117 J-0.00095
G01 X3.92399
G03 X3.78377 Y6.10653 I0.00095 J-0.14117
G01 Y5.77431
G01 X3.80207 Y5.75601
G01 X3.78377 Y5.77431
G01 X1.47244
G03 X1.40994 Y5.71181 I0.00000 J-0.06250
G01 Y5.18071
G03 X1.47244 Y5.11821 I0.06250 J0.00000
G01 X1.94488
G03 X2.00738 Y5.18071 I0.00000 J0.06250
G01 Y5.27211
G01 X2.00742 Y5.27326
G01 X2.00763 Y5.27361
G01 X2.00803 Y5.27365
G01 X2.00831 Y5.27336
G03 X2.07087 Y5.21073 I0.06260 J-0.00003
G01 X2.21945
G02 X2.23671 Y5.19347 I0.00088 J-0.01638
G01 Y4.85299
G02 X2.21945 Y4.83573 I-0.01638 J-0.00088
G01 X2.07087
G03 X2.00833 Y4.77320 I0.00003 J-0.06257
G01 X2.00812 Y4.77285
G01 X2.00772 Y4.77280
G01 X2.00744 Y4.77310
G03 X2.00725 Y4.86984 I-1.50649 J0.04538
G03 X1.94488 Y4.92825 I-0.06237 J-0.00409
G01 X1.47244
G03 X1.40994 Y4.86575 I0.00000 J-0.06250
G01 Y4.36329
G01 X1.42825 Y4.34498
G01 X1.40994 Y4.36329
G01 X1.07772
G03 X0.93750 Y4.22307 I0.00095 J-0.14117
G01 Y3.75463
G01 Y3.42963
G01 Z-0.24000 F80.00
G01 Y2.96118 F160.00
G03 X1.07772 Y2.82096 I0.14117 J0.00095
G01 X1.40994
G01 X1.42825 Y2.83927
G01 X1.40994 Y2.82096
G01 Y2.31850
G03 X1.47244 Y2.25600 I0.06250 J0.00000
G01 X1.94488
G03 X2.00738 Y2.31850 I0.00000 J0.06250
G01 Y2.40991
G01 X2.00742 Y2.41106
G01 X2.00763 Y2.41140
G01 X2.00803 Y2.41145
G01 X2.00831 Y2.41115
G03 X2.07087 Y2.34852 I0.06260 J-0.00003
G01 X2.21945
G02 X2.23671 Y2.33126 I0.00088 J-0.01638
G01 Y1.99079
G02 X2.21945 Y1.97352 I-0.01638 J-0.00088
G01 X2.07087
G03 X2.00833 Y1.91099 I0.00003 J-0.06257
G01 X2.00812 Y1.91064
G01 X2.00772 Y1.91060
G01 X2.00744 Y1.91090
G03 X2.00725 Y2.00763 I-1.50649 J0.04538
G03 X1.94488 Y2.06604 I-0.06237 J-0.00409
G01 X1.47244
G03 X1.40994 Y2.00354 I0.00000 J-0.06250
G01 Y1.47244
G03 X1.47244 Y1.40994 I0.06250 J0.00000
G01 X3.78377
G01 X3.80207 Y1.42825
G01 X3.78377 Y1.40994
G01 Y1.07772
G03 X3.92399 Y0.93750 I0.14117 J0.00095
G01 X4.55595
G03 X4.69617 Y1.07772 I-0.00095 J0.14117
G01 Y1.41742
G01 X4.67786 Y1.43573
G01 X4.69617 Y1.41742
G01 X5.02737
G03 X5.08987 Y1.47991 I0.00000 J0.06250
G01 X5.08995 Y1.94605
G03 X5.02746 Y2.00856 I-0.06250 J0.00001
G01 X4.93614 Y2.00858
G01 X4.93499 Y2.00862
G01 X4.93464 Y2.00883
G01 X4.93460 Y2.00923
G01 X4.93489 Y2.00950
G03 X4.99754 Y2.07205 I0.00005 J0.06260
G01 X4.99756 Y2.22064
G02 X5.01483 Y2.23790 I0.01638 J0.00088
G01 X5.35530 Y2.23784
G02 X5.37256 Y2.22058 I0.00088 J-0.01638
G01 X5.37254 Y2.07199
G03 X5.43505 Y2.00944 I0.06257 J0.00002
G01 X5.43540 Y2.00923
G01 X5.43544 Y2.00883
G01 X5.43515 Y2.00856
G03 X5.33833 Y2.00838 I-0.04566 J-1.50774
G03 X5.27991 Y1.94602 I0.00408 J-0.06237
G01 X5.27983 Y1.47245
G03 X5.34233 Y1.40994 I0.06250 J-0.00001
G01 X5.97244
G03 X6.03494 Y1.47244 I0.00000 J0.06250
G01 Y2.12079
G01 Y2.44579
G01 Y4.65917
G01 Y4.98417
G01 Y5.71181
G03 X5.97244 Y5.77431 I-0.06250 J0.00000
G01 X5.34233
G03 X5.27983 Y5.71180 I0.00000 J-0.06250
G01 X5.27991 Y5.23823
G03 X5.34242 Y5.17574 I0.06250 J0.00001
G01 X5.43391 Y5.17575
G01 X5.43505 Y5.17571
G01 X5.43540 Y5.17551
G01 X5.43544 Y5.17510
G01 X5.43515 Y5.17483
G03 X5.37254 Y5.11226 I-0.00001 J-0.06260
G01 X5.37256 Y4.96368
G02 X5.35530 Y4.94641 I-0.01638 J-0.00089
G01 X5.01483 Y4.94636
G02 X4.99756 Y4.96362 I-0.00089 J0.01638
G01 X4.99754 Y5.11220
G03 X4.93499 Y5.17473 I-0.06257 J-0.00004
G01 X4.93464 Y5.17494
G01 X4.93460 Y5.17534
G01 X4.93489 Y5.17562
G03 X5.03154 Y5.17582 I0.04510 J1.50520
G03 X5.08995 Y5.23820 I-0.00410 J0.06237
G01 X5.08987 Y5.70434
G03 X5.02737 Y5.76683 I-0.06250 J-0.00001
G01 X4.69617
G01 X4.67786 Y5.74852
G01 X4.69617 Y5.76683
G01 Y6.10653
G03 X4.55595 Y6.24675 I-0.14117 J-0.00095
G01 X3.92399
G03 X3.78377 Y6.10653 I0.00095 J-0.14117
G01 Y5.77431
G01 X3.80207 Y5.75601
G01 X3.78377 Y5.77431
G01 X1.47244
G03 X1.40994 Y5.71181 I0.00000 J-0.06250
G01 Y5.18071
G03 X1.47244 Y5.11821 I0.06250 J0.00000
G01 X1.94488
G03 X2.00738 Y5.18071 I0.00000 J0.06250
G01 Y5.27211
G01 X2.00742 Y5.27326
G01 X2.00763 Y5.27361
G01 X2.00803 Y5.27365
G01 X2.00831 Y5.27336
G03 X2.07087 Y5.21073 I0.06260 J-0.00003
G01 X2.21945
G02 X2.23671 Y5.19347 I0.00088 J-0.01638
G01 Y4.85299
G02 X2.21945 Y4.83573 I-0.01638 J-0.00088
G01 X2.07087
G03 X2.00833 Y4.77320 I0.00003 J-0.06257
G01 X2.00812 Y4.77285
G01 X2.00772 Y4.77280
G01 X2.00744 Y4.77310
G03 X2.00725 Y4.86984 I-1.50649 J0.04538
G03 X1.94488 Y4.92825 I-0.06237 J-0.00409
G01 X1.47244
G03 X1.40994 Y4.86575 I0.00000 J-0.06250
G01 Y4.36329
G01 X1.42825 Y4.34498
G01 X1.40994 Y4.36329
G01 X1.07772
G03 X0.93750 Y4.22307 I0.00095 J-0.14117
G01 Y3.75463
G01 Y3.42963
G01 Z-0.32000 F80.00
G01 Y2.96118 F160.00
G03 X1.07772 Y2.82096 I0.14117 J0.00095
G01 X1.40994
G01 X1.42825 Y2.83927
G01 X1.40994 Y2.82096
G01 Y2.31850
G03 X1.47244 Y2.25600 I0.06250 J0.00000
G01 X1.94488
G03 X2.00738 Y2.31850 I0.00000 J0.06250
G01 Y2.40991
G01 X2.00742 Y2.41106
G01 X2.00763 Y2.41140
G01 X2.00803 Y2.41145
G01 X2.00831 Y2.41115
G03 X2.07087 Y2.34852 I0.06260 J-0.00003
G01 X2.21945
G02 X2.23671 Y2.33126 I0.00088 J-0.01638
G01 Y1.99079
G02 X2.21945 Y1.97352 I-0.01638 J-0.00088
G01 X2.07087
G03 X2.00833 Y1.91099 I0.00003 J-0.06257
G01 X2.00812 Y1.91064
G01 X2.00772 Y1.91060
G01 X2.00744 Y1.91090
G03 X2.00725 Y2.00763 I-1.50649 J0.04538
G03 X1.94488 Y2.06604 I-0.06237 J-0.00409
G01 X1.47244
G03 X1.40994 Y2.00354 I0.00000 J-0.06250
G01 Y1.47244
G03 X1.47244 Y1.40994 I0.06250 J0.00000
G01 X3.78377
G01 X3.80207 Y1.42825
G01 X3.78377 Y1.40994
G01 Y1.07772
G03 X3.92399 Y0.93750 I0.14117 J0.00095
G01 X4.55595
G03 X4.69617 Y1.07772 I-0.00095 J0.14117
G01 Y1.41742
G01 X4.67786 Y1.43573
G01 X4.69617 Y1.41742
G01 X5.02737
G03 X5.08987 Y1.47991 I0.00000 J0.06250
G01 X5.08995 Y1.94605
G03 X5.02746 Y2.00856 I-0.06250 J0.00001
G01 X4.93614 Y2.00858
G01 X4.93499 Y2.00862
G01 X4.93464 Y2.00883
G01 X4.93460 Y2.00923
G01 X4.93489 Y2.00950
G03 X4.99754 Y2.07205 I0.00005 J0.06260
G01 X4.99756 Y2.22064
G02 X5.01483 Y2.23790 I0.01638 J0.00088
G01 X5.35530 Y2.23784
G02 X5.37256 Y2.22058 I0.00088 J-0.01638
G01 X5.37254 Y2.07199
G03 X5.43505 Y2.00944 I0.06257 J0.00002
G01 X5.43540 Y2.00923
G01 X5.43544 Y2.00883
G01 X5.43515 Y2.00856
G03 X5.33833 Y2.00838 I-0.04566 J-1.50774
G03 X5.27991 Y1.94602 I0.00408 J-0.06237
G01 X5.27983 Y1.47245
G03 X5.34233 Y1.40994 I0.06250 J-0.00001
G01 X5.97244
G03 X6.03494 Y1.47244 I0.00000 J0.06250
G01 Y2.12079
G01 Y2.44579
G01 Y4.65917
G01 Y4.98417
G01 Y5.71181
G03 X5.97244 Y5.77431 I-0.06250 J0.00000
G01 X5.34233
G03 X5.27983 Y5.71180 I0.00000 J-0.06250
G01 X5.27991 Y5.23823
G03 X5.34242 Y5.17574 I0.06250 J0.00001
G01 X5.43391 Y5.17575
G01 X5.43505 Y5.17571
G01 X5.43540 Y5.17551
G01 X5.43544 Y5.17510
G01 X5.43515 Y5.17483
G03 X5.37254 Y5.11226 I-0.00001 J-0.06260
G01 X5.37256 Y4.96368
G02 X5.35530 Y4.94641 I-0.01638 J-0.00089
G01 X5.01483 Y4.94636
G02 X4.99756 Y4.96362 I-0.00089 J0.01638
G01 X4.99754 Y5.11220
G03 X4.93499 Y5.17473 I-0.06257 J-0.00004
G01 X4.93464 Y5.17494
G01 X4.93460 Y5.17534
G01 X4.93489 Y5.17562
G03 X5.03154 Y5.17582 I0.04510 J1.50520
G03 X5.08995 Y5.23820 I-0.00410 J0.06237
G01 X5.08987 Y5.70434
G03 X5.02737 Y5.76683 I-0.06250 J-0.00001
G01 X4.69617
G01 X4.67786 Y5.74852
G01 X4.69617 Y5.76683
G01 Y6.10653
G03 X4.55595 Y6.24675 I-0.14117 J-0.00095
G01 X3.92399
G03 X3.78377 Y6.10653 I0.00095 J-0.14117
G01 Y5.77431
G01 X3.80207 Y5.75601
G01 X3.78377 Y5.77431
G01 X1.47244
G03 X1.40994 Y5.71181 I0.00000 J-0.06250
G01 Y5.18071
G03 X1.47244 Y5.11821 I0.06250 J0.00000
G01 X1.94488
G03 X2.00738 Y5.18071 I0.00000 J0.06250
G01 Y5.27211
G01 X2.00742 Y5.27326
G01 X2.00763 Y5.27361
G01 X2.00803 Y5.27365
G01 X2.00831 Y5.27336
G03 X2.07087 Y5.21073 I0.06260 J-0.00003
G01 X2.21945
G02 X2.23671 Y5.19347 I0.00088 J-0.01638
G01 Y4.85299
G02 X2.21945 Y4.83573 I-0.01638 J-0.00088
G01 X2.07087
G03 X2.00833 Y4.77320 I0.00003 J-0.06257
G01 X2.00812 Y4.77285
G01 X2.00772 Y4.77280
G01 X2.00744 Y4.77310
G03 X2.00725 Y4.86984 I-1.50649 J0.04538
G03 X1.94488 Y4.92825 I-0.06237 J-0.00409
G01 X1.47244
G03 X1.40994 Y4.86575 I0.00000 J-0.06250
G01 Y4.36329
G01 X1.42825 Y4.34498
G01 X1.40994 Y4.36329
G01 X1.07772
G03 X0.93750 Y4.22307 I0.00095 J-0.14117
G01 Y3.75463
G01 Y3.42963
G01 Z-0.40000 F80.00
G01 Y2.96118 F160.00
G03 X1.07772 Y2.82096 I0.14117 J0.00095
G01 X1.40994
G01 X1.42825 Y2.83927
G01 X1.40994 Y2.82096
G01 Y2.31850
G03 X1.47244 Y2.25600 I0.06250 J0.00000
G01 X1.94488
G03 X2.00738 Y2.31850 I0.00000 J0.06250
G01 Y2.40991
G01 X2.00742 Y2.41106
G01 X2.00763 Y2.41140
G01 X2.00803 Y2.41145
G01 X2.00831 Y2.41115
G03 X2.07087 Y2.34852 I0.06260 J-0.00003
G01 X2.21945
G02 X2.23671 Y2.33126 I0.00088 J-0.01638
G01 Y1.99079
G02 X2.21945 Y1.97352 I-0.01638 J-0.00088
G01 X2.07087
G03 X2.00833 Y1.91099 I0.00003 J-0.06257
G01 X2.00812 Y1.91064
G01 X2.00772 Y1.91060
G01 X2.00744 Y1.91090
G03 X2.00725 Y2.00763 I-1.50649 J0.04538
G03 X1.94488 Y2.06604 I-0.06237 J-0.00409
G01 X1.47244
G03 X1.40994 Y2.00354 I0.00000 J-0.06250
G01 Y1.47244
G03 X1.47244 Y1.40994 I0.06250 J0.00000
G01 X3.78377
G01 X3.80207 Y1.42825
G01 X3.78377 Y1.40994
G01 Y1.07772
G03 X3.92399 Y0.93750 I0.14117 J0.00095
G01 X4.55595
G03 X4.69617 Y1.07772 I-0.00095 J0.14117
G01 Y1.41742
G01 X4.67786 Y1.43573
G01 X4.69617 Y1.41742
G01 X5.02737
G03 X5.08987 Y1.47991 I0.00000 J0.06250
G01 X5.08995 Y1.94605
G03 X5.02746 Y2.00856 I-0.06250 J0.00001
G01 X4.93614 Y2.00858
G01 X4.93499 Y2.00862
G01 X4.93464 Y2.00883
G01 X4.93460 Y2.00923
G01 X4.93489 Y2.00950
G03 X4.99754 Y2.07205 I0.00005 J0.06260
G01 X4.99756 Y2.22064
G02 X5.01483 Y2.23790 I0.01638 J0.00088
G01 X5.35530 Y2.23784
G02 X5.37256 Y2.22058 I0.00088 J-0.01638
G01 X5.37254 Y2.07199
G03 X5.43505 Y2.00944 I0.06257 J0.00002
G01 X5.43540 Y2.00923
G01 X5.43544 Y2.00883
G01 X5.43515 Y2.00856
G03 X5.33833 Y2.00838 I-0.04566 J-1.50774
G03 X5.27991 Y1.94602 I0.00408 J-0.06237
G01 X5.27983 Y1.47245
G03 X5.34233 Y1.40994 I0.06250 J-0.00001
G01 X5.97244
G03 X6.03494 Y1.47244 I0.00000 J0.06250
G01 Y2.12079
G01 Y2.44579
G01 Y4.65917
G01 Y4.98417
G01 Y5.71181
G03 X5.97244 Y5.77431 I-0.06250 J0.00000
G01 X5.34233
G03 X5.27983 Y5.71180 I0.00000 J-0.06250
G01 X5.27991 Y5.23823
G03 X5.34242 Y5.17574 I0.06250 J0.00001
G01 X5.43391 Y5.17575
G01 X5.43505 Y5.17571
G01 X5.43540 Y5.17551
G01 X5.43544 Y5.17510
G01 X5.43515 Y5.17483
G03 X5.37254 Y5.11226 I-0.00001 J-0.06260
G01 X5.37256 Y4.96368
G02 X5.35530 Y4.94641 I-0.01638 J-0.00089
G01 X5.01483 Y4.94636
G02 X4.99756 Y4.96362 I-0.00089 J0.01638
G01 X4.99754 Y5.11220
G03 X4.93499 Y5.17473 I-0.06257 J-0.00004
G01 X4.93464 Y5.17494
G01 X4.93460 Y5.17534
G01 X4.93489 Y5.17562
G03 X5.03154 Y5.17582 I0.04510 J1.50520
G03 X5.08995 Y5.23820 I-0.00410 J0.06237
G01 X5.08987 Y5.70434
G03 X5.02737 Y5.76683 I-0.06250 J-0.00001
G01 X4.69617
G01 X4.67786 Y5.74852
G01 X4.69617 Y5.76683
G01 Y6.10653
G03 X4.55595 Y6.24675 I-0.14117 J-0.00095
G01 X3.92399
G03 X3.78377 Y6.10653 I0.00095 J-0.14117
G01 Y5.77431
G01 X3.80207 Y5.75601
G01 X3.78377 Y5.77431
G01 X1.47244
G03 X1.40994 Y5.71181 I0.00000 J-0.06250
G01 Y5.18071
G03 X1.47244 Y5.11821 I0.06250 J0.00000
G01 X1.94488
G03 X2.00738 Y5.18071 I0.00000 J0.06250
G01 Y5.27211
G01 X2.00742 Y5.27326
G01 X2.00763 Y5.27361
G01 X2.00803 Y5.27365
G01 X2.00831 Y5.27336
G03 X2.07087 Y5.21073 I0.06260 J-0.00003
G01 X2.21945
G02 X2.23671 Y5.19347 I0.00088 J-0.01638
G01 Y4.85299
G02 X2.21945 Y4.83573 I-0.01638 J-0.00088
G01 X2.07087
G03 X2.00833 Y4.77320 I0.00003 J-0.06257
G01 X2.00812 Y4.77285
G01 X2.00772 Y4.77280
G01 X2.00744 Y4.77310
G03 X2.00725 Y4.86984 I-1.50649 J0.04538
G03 X1.94488 Y4.92825 I-0.06237 J-0.00409
G01 X1.47244
G03 X1.40994 Y4.86575 I0.00000 J-0.06250
G01 Y4.36329
G01 X1.42825 Y4.34498
G01 X1.40994 Y4.36329
G01 X1.07772
G03 X0.93750 Y4.22307 I0.00095 J-0.14117
G01 Y3.75463
G01 Y3.42963
G01 Z-0.48000 F80.00
G01 Y2.96118 F160.00
G03 X1.07772 Y2.82096 I0.14117 J0.00095
G01 X1.40994
G01 X1.42825 Y2.83927
G01 X1.40994 Y2.82096
G01 Y2.31850
G03 X1.47244 Y2.25600 I0.06250 J0.00000
G01 X1.94488
G03 X2.00738 Y2.31850 I0.00000 J0.06250
G01 Y2.40991
G01 X2.00742 Y2.41106
G01 X2.00763 Y2.41140
G01 X2.00803 Y2.41145
G01 X2.00831 Y2.41115
G03 X2.07087 Y2.34852 I0.06260 J-0.00003
G01 X2.21945
G02 X2.23671 Y2.33126 I0.00088 J-0.01638
G01 Y1.99079
G02 X2.21945 Y1.97352 I-0.01638 J-0.00088
G01 X2.07087
G03 X2.00833 Y1.91099 I0.00003 J-0.06257
G01 X2.00812 Y1.91064
G01 X2.00772 Y1.91060
G01 X2.00744 Y1.91090
G03 X2.00725 Y2.00763 I-1.50649 J0.04538
G03 X1.94488 Y2.06604 I-0.06237 J-0.00409
G01 X1.47244
G03 X1.40994 Y2.00354 I0.00000 J-0.06250
G01 Y1.47244
G03 X1.47244 Y1.40994 I0.06250 J0.00000
G01 X3.78377
G01 X3.80207 Y1.42825
G01 X3.78377 Y1.40994
G01 Y1.07772
G03 X3.92399 Y0.93750 I0.14117 J0.00095
G01 X4.55595
G03 X4.69617 Y1.07772 I-0.00095 J0.14117
G01 Y1.41742
G01 X4.67786 Y1.43573
G01 X4.69617 Y1.41742
G01 X5.02737
G03 X5.08987 Y1.47991 I0.00000 J0.06250
G01 X5.08995 Y1.94605
G03 X5.02746 Y2.00856 I-0.06250 J0.00001
G01 X4.93614 Y2.00858
G01 X4.93499 Y2.00862
G01 X4.93464 Y2.00883
G01 X4.93460 Y2.00923
G01 X4.93489 Y2.00950
G03 X4.99754 Y2.07205 I0.00005 J0.06260
G01 X4.99756 Y2.22064
G02 X5.01483 Y2.23790 I0.01638 J0.00088
G01 X5.35530 Y2.23784
G02 X5.37256 Y2.22058 I0.00088 J-0.01638
G01 X5.37254 Y2.07199
G03 X5.43505 Y2.00944 I0.06257 J0.00002
G01 X5.43540 Y2.00923
G01 X5.43544 Y2.00883
G01 X5.43515 Y2.00856
G03 X5.33833 Y2.00838 I-0.04566 J-1.50774
G03 X5.27991 Y1.94602 I0.00408 J-0.06237
G01 X5.27983 Y1.47245
G03 X5.34233 Y1.40994 I0.06250 J-0.00001
G01 X5.97244
G03 X6.03494 Y1.47244 I0.00000 J0.06250
G01 Y2.12079
G00 Z-0.42000
G01 Y2.44579
G01 Z-0.40000 F80.00
G01 Z-0.48000
G01 Y4.65917 F160.00
G00 Z-0.42000
G01 Y4.98417
G01 Z-0.40000 F80.00
G01 Z-0.48000
G01 Y5.71181 F160.00
G03 X5.97244 Y5.77431 I-0.06250 J0.00000
G01 X5.34233
G03 X5.27983 Y5.71180 I0.00000 J-0.06250
G01 X5.27991 Y5.23823
G03 X5.34242 Y5.17574 I0.06250 J0.00001
G01 X5.43391 Y5.17575
G01 X5.43505 Y5.17571
G01 X5.43540 Y5.17551
G01 X5.43544 Y5.17510
G01 X5.43515 Y5.17483
G03 X5.37254 Y5.11226 I-0.00001 J-0.06260
G01 X5.37256 Y4.96368
G02 X5.35530 Y4.94641 I-0.01638 J-0.00089
G01 X5.01483 Y4.94636
G02 X4.99756 Y4.96362 I-0.00089 J0.01638
G01 X4.99754 Y5.11220
G03 X4.93499 Y5.17473 I-0.06257 J-0.00004
G01 X4.93464 Y5.17494
G01 X4.93460 Y5.17534
G01 X4.93489 Y5.17562
G03 X5.03154 Y5.17582 I0.04510 J1.50520
G03 X5.08995 Y5.23820 I-0.00410 J0.06237
G01 X5.08987 Y5.70434
G03 X5.02737 Y5.76683 I-0.06250 J-0.00001
G01 X4.69617
G01 X4.67786 Y5.74852
G01 X4.69617 Y5.76683
G01 Y6.10653
G03 X4.55595 Y6.24675 I-0.14117 J-0.00095
G01 X3.92399
G03 X3.78377 Y6.10653 I0.00095 J-0.14117
G01 Y5.77431
G01 X3.80207 Y5.75601
G01 X3.78377 Y5.77431
G01 X1.47244
G03 X1.40994 Y5.71181 I0.00000 J-0.06250
G01 Y5.18071
G03 X1.47244 Y5.11821 I0.06250 J0.00000
G01 X1.94488
G03 X2.00738 Y5.18071 I0.00000 J0.06250
G01 Y5.27211
G01 X2.00742 Y5.27326
G01 X2.00763 Y5.27361
G01 X2.00803 Y5.27365
G01 X2.00831 Y5.27336
G03 X2.07087 Y5.21073 I0.06260 J-0.00003
G01 X2.21945
G02 X2.23671 Y5.19347 I0.00088 J-0.01638
G01 Y4.85299
G02 X2.21945 Y4.83573 I-0.01638 J-0.00088
G01 X2.07087
G03 X2.00833 Y4.77320 I0.00003 J-0.06257
G01 X2.00812 Y4.77285
G01 X2.00772 Y4.77280
G01 X2.00744 Y4.77310
G03 X2.00725 Y4.86984 I-1.50649 J0.04538
G03 X1.94488 Y4.92825 I-0.06237 J-0.00409
G01 X1.47244
G03 X1.40994 Y4.86575 I0.00000 J-0.06250
G01 Y4.36329
G01 X1.42825 Y4.34498
G01 X1.40994 Y4.36329
G01 X1.07772
G03 X0.93750 Y4.22307 I0.00095 J-0.14117
G01 Y3.75463
G00 Z-0.42000
G01 Y3.42963
G00 Z-0.46031
G01 Z-0.48000 F80.00
G01 Z-0.52000
G01 Y2.96118 F160.00
G03 X1.07772 Y2.82096 I0.14117 J0.00095
G01 X1.40994
G01 X1.42825 Y2.83927
G01 X1.40994 Y2.82096
G01 Y2.31850
G03 X1.47244 Y2.25600 I0.06250 J0.00000
G01 X1.94488
G03 X2.00738 Y2.31850 I0.00000 J0.06250
G01 Y2.40991
G01 X2.00742 Y2.41106
G01 X2.00763 Y2.41140
G01 X2.00803 Y2.41145
G01 X2.00831 Y2.41115
G03 X2.07087 Y2.34852 I0.06260 J-0.00003
G01 X2.21945
G02 X2.23671 Y2.33126 I0.00088 J-0.01638
G01 Y1.99079
G02 X2.21945 Y1.97352 I-0.01638 J-0.00088
G01 X2.07087
G03 X2.00833 Y1.91099 I0.00003 J-0.06257
G01 X2.00812 Y1.91064
G01 X2.00772 Y1.91060
G01 X2.00744 Y1.91090
G03 X2.00725 Y2.00763 I-1.50649 J0.04538
G03 X1.94488 Y2.06604 I-0.06237 J-0.00409
G01 X1.47244
G03 X1.40994 Y2.00354 I0.00000 J-0.06250
G01 Y1.47244
G03 X1.47244 Y1.40994 I0.06250 J0.00000
G01 X3.78377
G01 X3.80207 Y1.42825
G01 X3.78377 Y1.40994
G01 Y1.07772
G03 X3.92399 Y0.93750 I0.14117 J0.00095
G01 X4.55595
G03 X4.69617 Y1.07772 I-0.00095 J0.14117
G01 Y1.41742
G01 X4.67786 Y1.43573
G01 X4.69617 Y1.41742
G01 X5.02737
G03 X5.08987 Y1.47991 I0.00000 J0.06250
G01 X5.08995 Y1.94605
G03 X5.02746 Y2.00856 I-0.06250 J0.00001
G01 X4.93614 Y2.00858
G01 X4.93499 Y2.00862
G01 X4.93464 Y2.00883
G01 X4.93460 Y2.00923
G01 X4.93489 Y2.00950
G03 X4.99754 Y2.07205 I0.00005 J0.06260
G01 X4.99756 Y2.22064
G02 X5.01483 Y2.23790 I0.01638 J0.00088
G01 X5.35530 Y2.23784
G02 X5.37256 Y2.22058 I0.00088 J-0.01638
G01 X5.37254 Y2.07199
G03 X5.43505 Y2.00944 I0.06257 J0.00002
G01 X5.43540 Y2.00923
G01 X5.43544 Y2.00883
G01 X5.43515 Y2.00856
G03 X5.33833 Y2.00838 I-0.04566 J-1.50774
G03 X5.27991 Y1.94602 I0.00408 J-0.06237
G01 X5.27983 Y1.47245
G03 X5.34233 Y1.40994 I0.06250 J-0.00001
G01 X5.97244
G03 X6.03494 Y1.47244 I0.00000 J0.06250
G01 Y2.12079
G00 Z-0.42000
G01 Y2.44579
G00 Z-0.46031
G01 Z-0.48000 F80.00
G01 Z-0.52000
G01 Y4.65917 F160.00
G00 Z-0.42000
G01 Y4.98417
G00 Z-0.46031
G01 Z-0.48000 F80.00
G01 Z-0.52000
G01 Y5.71181 F160.00
G03 X5.97244 Y5.77431 I-0.06250 J0.00000
G01 X5.34233
G03 X5.27983 Y5.71180 I0.00000 J-0.06250
G01 X5.27991 Y5.23823
G03 X5.34242 Y5.17574 I0.06250 J0.00001
G01 X5.43391 Y5.17575
G01 X5.43505 Y5.17571
G01 X5.43540 Y5.17551
G01 X5.43544 Y5.17510
G01 X5.43515 Y5.17483
G03 X5.37254 Y5.11226 I-0.00001 J-0.06260
G01 X5.37256 Y4.96368
G02 X5.35530 Y4.94641 I-0.01638 J-0.00089
G01 X5.01483 Y4.94636
G02 X4.99756 Y4.96362 I-0.00089 J0.01638
G01 X4.99754 Y5.11220
G03 X4.93499 Y5.17473 I-0.06257 J-0.00004
G01 X4.93464 Y5.17494
G01 X4.93460 Y5.17534
G01 X4.93489 Y5.17562
G03 X5.03154 Y5.17582 I0.04510 J1.50520
G03 X5.08995 Y5.23820 I-0.00410 J0.06237
G01 X5.08987 Y5.70434
G03 X5.02737 Y5.76683 I-0.06250 J-0.00001
G01 X4.69617
G01 X4.67786 Y5.74852
G01 X4.69617 Y5.76683
G01 Y6.10653
G03 X4.55595 Y6.24675 I-0.14117 J-0.00095
G01 X3.92399
G03 X3.78377 Y6.10653 I0.00095 J-0.14117
G01 Y5.77431
G01 X3.80207 Y5.75601
G01 X3.78377 Y5.77431
G01 X1.47244
G03 X1.40994 Y5.71181 I0.00000 J-0.06250
G01 Y5.18071
G03 X1.47244 Y5.11821 I0.06250 J0.00000
G01 X1.94488
G03 X2.00738 Y5.18071 I0.00000 J0.06250
G01 Y5.27211
G01 X2.00742 Y5.27326
G01 X2.00763 Y5.27361
G01 X2.00803 Y5.27365
G01 X2.00831 Y5.27336
G03 X2.07087 Y5.21073 I0.06260 J-0.00003
G01 X2.21945
G02 X2.23671 Y5.19347 I0.00088 J-0.01638
G01 Y4.85299
G02 X2.21945 Y4.83573 I-0.01638 J-0.00088
G01 X2.07087
G03 X2.00833 Y4.77320 I0.00003 J-0.06257
G01 X2.00812 Y4.77285
G01 X2.00772 Y4.77280
G01 X2.00744 Y4.77310
G03 X2.00725 Y4.86984 I-1.50649 J0.04538
G03 X1.94488 Y4.92825 I-0.06237 J-0.00409
G01 X1.47244
G03 X1.40994 Y4.86575 I0.00000 J-0.06250
G01 Y4.36329
G01 X1.42825 Y4.34498
G01 X1.40994 Y4.36329
G01 X1.07772
G03 X0.93750 Y4.22307 I0.00095 J-0.14117
G01 Y3.75463
G00 Z-0.42000
G01 Y3.42963
G00 Z0.20000
G00 X0.00000 Y0.00000

M05
M30
