(Generated By: Line Grinder Version: 01.04)
(Home Page: http://www.OfItselfSo.com/LineGrinder/LineGrinder.php)
(Generated from file: C:\Users\Bob and Pam Wood.HPG72\Documents\DesignSpark\Library\Plot2\Bottom Copper.gbr)
(Date Generated: Friday, 23 December 2011 14:37)

(The Line Grinder software is released under the MIT License. There)
(is no warranty or guarantee that the GCode files it produces)
(are without error. You use it, and run its output code entirely)
(at your own risk. In particular: )

(THE LINE GRINDER SOFTWARE, AND THE OUTPUT CODE IT GENERATES, ARE )
(PROVIDED "AS IS", WITHOUT WARRANTY OF ANY KIND, EXPRESS OR )
(IMPLIED, INCLUDING BUT NOT LIMITED TO THE WARRANTIES OF )
(MERCHANTABILITY, FITNESS FOR A PARTICULAR PURPOSE AND )
(NONINFRINGEMENT. IN NO EVENT SHALL THE AUTHORS OR COPYRIGHT )
(HOLDERS BE LIABLE FOR ANY CLAIM, DAMAGES OR OTHER LIABILITY, )
(WHETHER IN AN ACTION OF CONTRACT, TORT OR OTHERWISE, ARISING )
(FROM, OUT OF OR IN CONNECTION WITH THE SOFTWARE OR ITS OUTPUT)
(OR FROM THE USE OR OTHER DEALINGS IN THE SOFTWARE. )

G20 (Use Inches)
G90 (Set Absolute Coordinates)
G17 (XY plane selection)
G00 Z0.25
G00 X0 Y0
M03 (Start spindle)
G04 P1 (Pause to let the spindle start)
G00 X0.179 Y0.551
G01 Z-0.002 F20
G01 X0.229 Y0.518 F15

G03 X0.2317 Y0.5164 I0.0145 J0.0215
G01 X0.232 Y0.517

G03 X0.323 Y0.518 I0.0455 J0.0005

G03 X0.2602 Y0.5596 I-0.0455 J-0.0005
G01 X0.26 Y0.56

G03 X0.2582 Y0.5613 I-0.0165 J-0.0205
G01 X0.258 Y0.561
G01 X0.219 Y0.587
G01 X0.219 Y1.492
G01 X0.339 Y1.632
G01 X0.397 Y1.632

G03 X0.4 Y1.6322 I-0.0005 J0.0255
G01 X0.4 Y1.632

G03 X0.4753 Y1.6325 I0.0375 J0.0255
G01 X0.476 Y1.632

G03 X0.478 Y1.6319 I0.0025 J0.0255
G01 X0.478 Y1.632
G01 X0.932 Y1.632

G03 X0.935 Y1.6322 I-0.0005 J0.0255
G01 X0.935 Y1.632

G03 X1.0178 Y1.657 I0.0375 J0.0255
G01 X1.019 Y1.657

G03 X0.934 Y1.6836 I-0.0465 J0.0005
G01 X0.935 Y1.683

G03 X0.932 Y1.6832 I-0.0035 J-0.0255
G01 X0.932 Y1.683
G01 X0.478 Y1.683

G03 X0.476 Y1.6829 I0.0005 J-0.0255
G01 X0.476 Y1.683

G03 X0.3993 Y1.6835 I-0.0385 J-0.0255
G01 X0.4 Y1.683

G03 X0.397 Y1.6832 I-0.0035 J-0.0255
G01 X0.397 Y1.683
G01 X0.328 Y1.683

G03 X0.3081 Y1.6741 I-0.0005 J-0.0255
G01 X0.307 Y1.675
G01 X0.173 Y1.52

G03 X0.1663 Y1.502 I0.0195 J-0.0175
G01 X0.167 Y1.502
G01 X0.167 Y0.573

G03 X0.1789 Y0.5509 I0.0255 J-0.0005
G01 X0.179 Y0.551
G01 Z0.1 F20
G00 X0.304 Y0.658
G01 Z-0.002
G01 X0.304 Y0.767 F15

G03 X0.3039 Y0.769 I-0.0265 J-0.0005
G01 X0.304 Y0.769

G03 X0.3242 Y0.807 I-0.0265 J0.0385
G01 X0.323 Y0.807

G03 X0.2517 Y0.77 I-0.0455 J0.0005
G01 X0.251 Y0.769

G03 X0.2509 Y0.767 I0.0265 J-0.0025
G01 X0.251 Y0.767
G01 X0.251 Y0.658

G03 X0.2511 Y0.656 I0.0265 J0.0005
G01 X0.251 Y0.656

G03 X0.3165 Y0.5917 I0.0265 J-0.0385
G01 X0.316 Y0.592

G03 X0.319 Y0.5919 I0.0025 J0.0255
G01 X0.319 Y0.592
G01 X0.441 Y0.592

G03 X0.445 Y0.5922 I0.0005 J0.0255
G01 X0.445 Y0.592

G03 X0.5278 Y0.616 I0.0375 J0.0255
G01 X0.529 Y0.616

G03 X0.5317 Y0.6175 I-0.0115 J0.0235
G01 X0.532 Y0.617
G01 X0.607 Y0.666

G03 X0.6184 Y0.687 I-0.0145 J0.0215
G01 X0.618 Y0.687
G01 X0.618 Y0.917

G03 X0.6178 Y0.92 I-0.0255 J-0.0005
G01 X0.618 Y0.92

G03 X0.6299 Y0.9318 I-0.0255 J0.0375
G01 X0.631 Y0.931

G03 X0.634 Y0.9309 I0.0025 J0.0265
G01 X0.634 Y0.931
G01 X0.816 Y0.931

G03 X0.82 Y0.9312 I0.0005 J0.0265
G01 X0.82 Y0.931

G03 X0.895 Y0.931 I0.0375 J0.0265

G03 X0.899 Y0.9308 I0.0035 J0.0265
G01 X0.899 Y0.931
G01 X0.932 Y0.931

G03 X0.935 Y0.9312 I-0.0005 J0.0265
G01 X0.935 Y0.931

G03 X1.0164 Y0.9439 I0.0375 J0.0265
G01 X1.016 Y0.944

G03 X1.0203 Y0.9451 I-0.0045 J0.0265
G01 X1.02 Y0.946
G01 X1.241 Y1.02

G03 X1.2436 Y1.0209 I-0.0075 J0.0245
G01 X1.244 Y1.02
G01 Z0.1 F20
G00 X0.304 Y1.048
G01 Z-0.002
G01 X0.304 Y1.142 F15

G03 X0.3038 Y1.145 I-0.0265 J-0.0005
G01 X0.304 Y1.145

G03 X0.3234 Y1.183 I-0.0265 J0.0375
G01 X0.323 Y1.183

G03 X0.2512 Y1.1453 I-0.0455 J-0.0005
G01 X0.251 Y1.145

G03 X0.2508 Y1.142 I0.0265 J-0.0035
G01 X0.251 Y1.142
G01 X0.251 Y1.048

G03 X0.2512 Y1.045 I0.0265 J0.0005
G01 X0.251 Y1.045

G03 X0.3234 Y1.007 I0.0265 J-0.0375
G01 X0.323 Y1.007

G03 X0.3038 Y1.0447 I-0.0455 J0.0005
G01 X0.304 Y1.045

G03 X0.3042 Y1.048 I-0.0265 J0.0035
G01 X0.304 Y1.048
G01 Z0.1 F20
G00 X0.383 Y0.958
G01 Z-0.002
G01 X0.383 Y1.242 F15

G03 X0.3829 Y1.244 I-0.0255 J-0.0005
G01 X0.383 Y1.244

G03 X0.4037 Y1.282 I-0.0255 J0.0385
G01 X0.404 Y1.282

G03 X0.3318 Y1.2437 I-0.0465 J0.0005
G01 X0.332 Y1.244

G03 X0.3319 Y1.242 I0.0255 J-0.0025
G01 X0.332 Y1.242
G01 X0.332 Y0.972
G01 X0.299 Y0.951

G03 X0.2955 Y0.9484 I0.0135 J-0.0215
G01 X0.295 Y0.949

G03 X0.3225 Y0.906 I-0.0175 J-0.0415
G01 X0.323 Y0.906

G03 X0.3264 Y0.9079 I-0.0105 J0.0235
G01 X0.327 Y0.907
G01 X0.372 Y0.936

G03 X0.3834 Y0.958 I-0.0145 J0.0215
G01 X0.383 Y0.958
G01 Z0.1 F20
G00 X0.464 Y0.948
G01 Z-0.002
G01 X0.571 Y1.015 F15

G03 X0.5717 Y1.0155 I-0.0135 J0.0215
G01 X0.572 Y1.015
G01 Z0.1 F20
G00 X0.464 Y1.01
G01 Z-0.002
G01 X0.543 Y1.058 F15

G02 X0.5473 Y1.0603 I0.0145 J-0.0215
G01 X0.547 Y1.061

G02 X0.6305 Y1.0827 I0.0455 J-0.0035
G01 X0.631 Y1.083

G02 X0.634 Y1.0831 I0.0025 J-0.0255
G01 X0.634 Y1.083
G01 X0.816 Y1.083

G02 X0.82 Y1.0828 I0.0005 J-0.0255
G01 X0.82 Y1.083

G02 X0.895 Y1.083 I0.0375 J-0.0255

G02 X0.899 Y1.0832 I0.0035 J-0.0255
G01 X0.899 Y1.083
G01 X0.932 Y1.083

G02 X0.935 Y1.0828 I-0.0005 J-0.0255
G01 X0.935 Y1.083

G02 X0.9998 Y1.0937 I0.0375 J-0.0255
G01 X1 Y1.094

G02 X1.0024 Y1.0951 I0.0115 J-0.0225
G01 X1.002 Y1.096
G01 X1.002 Y1.096
G01 X1.08 Y1.124
G01 X1.08 Y1.122

G02 X1.0832 Y1.1229 I0.0085 J-0.0235
G01 X1.083 Y1.124

G02 X1.1735 Y1.112 I0.0445 J-0.0115
G01 X1.173 Y1.112

G02 X1.1008 Y1.0757 I-0.0455 J0.0005
G01 X1.101 Y1.076

G02 X1.0978 Y1.0745 I-0.0125 J0.0225
G01 X1.098 Y1.074
G01 X1.098 Y1.073
G01 X1.02 Y1.046
G01 X1.02 Y1.048

G02 X1.0157 Y1.0469 I-0.0085 J0.0235
G01 X1.016 Y1.045

G02 X0.9351 Y1.032 I-0.0435 J0.0125
G01 X0.935 Y1.032

G02 X0.932 Y1.0318 I-0.0035 J0.0255
G01 X0.932 Y1.032
G01 X0.899 Y1.032

G02 X0.895 Y1.0322 I-0.0005 J0.0255
G01 X0.895 Y1.032

G02 X0.82 Y1.032 I-0.0375 J0.0255

G02 X0.816 Y1.0318 I-0.0035 J0.0255
G01 X0.816 Y1.032
G01 X0.634 Y1.032

G02 X0.631 Y1.0321 I-0.0005 J0.0255
G01 X0.631 Y1.032

G02 X0.5741 Y1.0152 I-0.0385 J0.0255
G01 X0.574 Y1.015
G01 Z0.1 F20
G00 X0.464 Y1.01
G01 Z-0.002
G01 X0.464 Y1.341 F15

G03 X0.4639 Y1.344 I-0.0265 J0.0005
G01 X0.464 Y1.344

G03 X0.4842 Y1.382 I-0.0265 J0.0385
G01 X0.483 Y1.382

G03 X0.4117 Y1.345 I-0.0455 J0.0005
G01 X0.411 Y1.344

G03 X0.4109 Y1.341 I0.0265 J-0.0025
G01 X0.411 Y1.341
G01 X0.411 Y0.963
G01 X0.411 Y0.763

G03 X0.4215 Y0.7414 I0.0265 J-0.0005
G01 X0.422 Y0.742
G01 X0.434 Y0.731

G03 X0.438 Y0.727 I0.0195 J0.0155

G03 X0.528 Y0.718 I0.0445 J-0.0095
G01 X0.529 Y0.718

G03 X0.474 Y0.7632 I-0.0465 J-0.0005
G01 X0.474 Y0.763

G03 X0.4694 Y0.7675 I-0.0205 J-0.0165
G01 X0.469 Y0.767
G01 X0.464 Y0.773
G01 X0.464 Y0.948
G01 Z0.1 F20
G00 X0.319 Y0.644
G01 Z-0.002
G01 X0.441 Y0.644 F15

G02 X0.445 Y0.6438 I0.0005 J-0.0265
G01 X0.445 Y0.644

G02 X0.5012 Y0.6594 I0.0375 J-0.0265
G01 X0.501 Y0.659

G02 X0.5044 Y0.6614 I0.0165 J-0.0195
G01 X0.504 Y0.662
G01 X0.566 Y0.701
G01 X0.566 Y0.917

G02 X0.5662 Y0.92 I0.0265 J-0.0005
G01 X0.566 Y0.92

G02 X0.6303 Y0.9835 I0.0265 J0.0375
G01 X0.631 Y0.984

G02 X0.634 Y0.9841 I0.0025 J-0.0265
G01 X0.634 Y0.984
G01 X0.816 Y0.984

G02 X0.82 Y0.9838 I0.0005 J-0.0265
G01 X0.82 Y0.984

G02 X0.895 Y0.984 I0.0375 J-0.0265

G02 X0.899 Y0.9842 I0.0035 J-0.0265
G01 X0.899 Y0.984
G01 X0.932 Y0.984

G02 X0.935 Y0.9838 I-0.0005 J-0.0265
G01 X0.935 Y0.984

G02 X1.0001 Y0.9942 I0.0375 J-0.0265
G01 X1 Y0.994
G01 Z0.1 F20
G00 X0.634 Y1.132
G01 Z-0.002
G01 X0.932 Y1.132 F15

G03 X0.935 Y1.1322 I-0.0005 J0.0255
G01 X0.935 Y1.132

G03 X1.0178 Y1.157 I0.0375 J0.0255
G01 X1.019 Y1.157

G03 X0.934 Y1.1836 I-0.0465 J0.0005
G01 X0.935 Y1.183

G03 X0.932 Y1.1832 I-0.0035 J-0.0255
G01 X0.932 Y1.183
G01 X0.634 Y1.183

G03 X0.631 Y1.1829 I-0.0005 J-0.0255
G01 X0.631 Y1.183

G03 X0.631 Y1.132 I-0.0385 J-0.0255

G03 X0.634 Y1.1319 I0.0025 J0.0255
G01 X0.634 Y1.132
G01 Z0.1 F20
G00 X0.634 Y1.231
G01 Z-0.002
G01 X0.932 Y1.231 F15

G03 X0.935 Y1.2312 I-0.0005 J0.0265
G01 X0.935 Y1.231

G03 X1.0184 Y1.257 I0.0375 J0.0265
G01 X1.019 Y1.257

G03 X0.934 Y1.2836 I-0.0465 J0.0005
G01 X0.935 Y1.283

G03 X0.932 Y1.2832 I-0.0035 J-0.0255
G01 X0.932 Y1.283
G01 X0.634 Y1.283

G03 X0.631 Y1.2829 I-0.0005 J-0.0255
G01 X0.631 Y1.283

G03 X0.6305 Y1.2313 I-0.0385 J-0.0255
G01 X0.631 Y1.231

G03 X0.634 Y1.2309 I0.0025 J0.0265
G01 X0.634 Y1.231
G01 Z0.1 F20
G00 X0.634 Y1.331
G01 Z-0.002
G01 X0.932 Y1.331 F15

G03 X0.935 Y1.3312 I-0.0005 J0.0265
G01 X0.935 Y1.331

G03 X1.0184 Y1.357 I0.0375 J0.0265
G01 X1.019 Y1.357

G03 X0.9345 Y1.3843 I-0.0465 J0.0005
G01 X0.935 Y1.384

G03 X0.932 Y1.3842 I-0.0035 J-0.0265
G01 X0.932 Y1.384
G01 X0.634 Y1.384

G03 X0.631 Y1.3839 I-0.0005 J-0.0265
G01 X0.631 Y1.384

G03 X0.631 Y1.331 I-0.0385 J-0.0265

G03 X0.634 Y1.3309 I0.0025 J0.0265
G01 X0.634 Y1.331
G01 Z0.1 F20
G00 X0.319 Y1.431
G01 Z-0.002
G01 X0.932 Y1.431 F15

G03 X0.935 Y1.4312 I-0.0005 J0.0265
G01 X0.935 Y1.431

G03 X1.0184 Y1.458 I0.0375 J0.0265
G01 X1.019 Y1.458

G03 X0.9345 Y1.4843 I-0.0465 J-0.0005
G01 X0.935 Y1.484

G03 X0.932 Y1.4842 I-0.0035 J-0.0265
G01 X0.932 Y1.484
G01 X0.319 Y1.484

G03 X0.316 Y1.4839 I-0.0005 J-0.0265
G01 X0.316 Y1.484

G03 X0.316 Y1.431 I-0.0385 J-0.0265

G03 X0.319 Y1.4309 I0.0025 J0.0265
G01 X0.319 Y1.431
G01 Z0.1 F20
G00 X0.399 Y1.532
G01 Z-0.002
G01 X0.932 Y1.532 F15

G03 X0.935 Y1.5322 I-0.0005 J0.0255
G01 X0.935 Y1.532

G03 X1.0178 Y1.558 I0.0375 J0.0255
G01 X1.019 Y1.558

G03 X0.934 Y1.5836 I-0.0465 J-0.0005
G01 X0.935 Y1.583

G03 X0.932 Y1.5832 I-0.0035 J-0.0255
G01 X0.932 Y1.583
G01 X0.399 Y1.583

G03 X0.395 Y1.5828 I-0.0005 J-0.0255
G01 X0.395 Y1.583

G03 X0.395 Y1.532 I-0.0375 J-0.0255

G03 X0.399 Y1.5318 I0.0035 J0.0255
G01 X0.399 Y1.532
G01 Z0.1 F20
G00 X0.793 Y0.826
G01 Z-0.002
G01 X0.932 Y0.826 F15

G03 X0.9373 Y0.8266 I-0.0005 J0.0265
G01 X0.937 Y0.828

G03 X1.0187 Y0.857 I0.0355 J0.0295
G01 X1.019 Y0.857

G03 X0.9314 Y0.8793 I-0.0465 J0.0005
G01 X0.932 Y0.879
G01 X0.793 Y0.879

G03 X0.791 Y0.8789 I0.0005 J-0.0265
G01 X0.791 Y0.879

G03 X0.791 Y0.826 I-0.0385 J-0.0265

G03 X0.793 Y0.8259 I0.0025 J0.0265
G01 X0.793 Y0.826
G01 Z0.1 F20
G00 X0.834 Y0.467
G01 Z-0.002
G01 X0.941 Y0.519 F15

G03 X0.9419 Y0.5193 I-0.0075 J0.0245
G01 X0.942 Y0.519
G01 Z0.1 F20
G00 X0.801 Y0.508
G01 Z-0.002
G01 X0.919 Y0.565 F15

G02 X0.9209 Y0.5662 I0.0145 J-0.0215
G01 X0.921 Y0.566
G01 Z0.1 F20
G00 X0.834 Y0.266
G01 Z-0.002
G01 X0.834 Y0.467 F15
G01 Z0.1 F20
G00 X0.782 Y0.252
G01 Z-0.002
G01 X0.782 Y0.482 F15

G02 X0.7979 Y0.5061 I0.0255 J0.0005
G01 X0.798 Y0.506
G01 Z0.1 F20
G00 X0.793 Y0.23
G01 Z-0.002
G01 X0.988 Y0.105 F15

G03 X1.002 Y0.1007 I0.0145 J0.0225
G01 X1.002 Y0.102
G01 X2.689 Y0.102

G03 X2.766 Y0.102 I0.0385 J0.0255
G01 X3.474 Y0.102

G03 X3.5507 Y0.1015 I0.0385 J0.0255
G01 X3.55 Y0.102
G01 X4.269 Y0.102

G03 X4.346 Y0.102 I0.0385 J0.0255
G01 X5.064 Y0.102

G03 X5.141 Y0.102 I0.0385 J0.0255
G01 X5.865 Y0.102

G03 X5.94 Y0.102 I0.0375 J0.0255
G01 X6.903 Y0.102

G03 X6.9261 Y0.1179 I-0.0005 J0.0255
G01 X6.926 Y0.118
G01 Z0.1 F20
G00 X0.834 Y0.266
G01 Z-0.002
G01 X1.011 Y0.153 F15
G01 X2.689 Y0.153

G02 X2.766 Y0.153 I0.0385 J-0.0255
G01 X3.474 Y0.153

G02 X3.5507 Y0.1535 I0.0385 J-0.0255
G01 X3.55 Y0.153
G01 X4.269 Y0.153

G02 X4.346 Y0.153 I0.0385 J-0.0255
G01 X5.064 Y0.153

G02 X5.141 Y0.153 I0.0385 J-0.0255
G01 X5.865 Y0.153

G02 X5.94 Y0.153 I0.0375 J-0.0255
G01 X6.886 Y0.153
G01 X7.102 Y0.593
G01 X7.102 Y0.938
G01 X7.058 Y0.964

G02 X7.0572 Y0.9644 I0.0105 J0.0235
G01 X7.057 Y0.964
G01 Z0.1 F20
G00 X6.927 Y0.12
G01 Z-0.002
G01 X7.149 Y0.574 F15

G03 X7.1497 Y0.5752 I-0.0215 J0.0135
G01 X7.15 Y0.575
G01 Z0.1 F20
G00 X7.154 Y0.588
G01 Z-0.002
G01 X7.154 Y0.953 F15

G03 X7.1399 Y0.9759 I-0.0265 J-0.0005
G01 X7.14 Y0.976
G01 Z0.1 F20
G00 X7.083 Y1.009
G01 Z-0.002
G01 X7.137 Y0.976 F15

G02 X7.1378 Y0.9756 I-0.0095 J-0.0235
G01 X7.138 Y0.976
G01 Z0.1 F20
G00 X0.801 Y0.647
G01 Z-0.002
G01 X0.946 Y0.716 F15

G03 X0.9499 Y0.7182 I-0.0105 J0.0235
G01 X0.95 Y0.718

G03 X1.018 Y0.758 I0.0225 J0.0395
G01 X1.019 Y0.758

G03 X0.9265 Y0.7641 I-0.0465 J-0.0005
G01 X0.927 Y0.764

G03 X0.9245 Y0.763 I0.0085 J-0.0245
G01 X0.924 Y0.764
G01 X0.779 Y0.694

G03 X0.7756 Y0.6921 I0.0105 J-0.0235
G01 X0.775 Y0.693

G03 X0.7982 Y0.645 I-0.0225 J-0.0405
G01 X0.798 Y0.645

G03 X0.8013 Y0.6464 I-0.0085 J0.0255
G01 X0.801 Y0.647
G01 Z0.1 F20
G00 X1.004 Y0.995
G01 Z-0.002
G01 X1.226 Y1.069 F15

G02 X1.2292 Y1.0698 I0.0075 J-0.0245
G01 X1.229 Y1.071

G02 X1.2999 Y1.0939 I0.0435 J-0.0135
G01 X1.3 Y1.094

G02 X1.3046 Y1.0957 I0.0115 J-0.0245
G01 X1.305 Y1.094
G01 X1.366 Y1.112

G02 X1.372 Y1.1128 I0.0065 J-0.0245
G01 X1.372 Y1.114
G01 X1.456 Y1.114

G02 X1.46 Y1.1138 I0.0005 J-0.0265
G01 X1.46 Y1.114

G02 X1.5434 Y1.088 I0.0375 J-0.0265
G01 X1.543 Y1.088

G02 X1.4603 Y1.0612 I-0.0455 J-0.0005
G01 X1.46 Y1.061

G02 X1.456 Y1.0608 I-0.0035 J0.0265
G01 X1.456 Y1.061
G01 X1.377 Y1.061
G01 X1.318 Y1.045

G02 X1.3157 Y1.0445 I-0.0065 J0.0245
G01 X1.316 Y1.043

G02 X1.246 Y1.0201 I-0.0435 J0.0145
G01 X1.246 Y1.02
G01 Z0.1 F20
G00 X1.159 Y0.866
G01 Z-0.002
G01 X1.226 Y0.844 F15

G02 X1.2235 Y0.8449 I0.0075 J0.0255
G01 X1.224 Y0.846
G01 Z0.1 F20
G00 X1.175 Y0.916
G01 Z-0.002
G01 X1.241 Y0.894 F15

G02 X1.2436 Y0.8931 I-0.0075 J-0.0245
G01 X1.244 Y0.894

G02 X1.3188 Y0.857 I0.0285 J-0.0365
G01 X1.318 Y0.857

G02 X1.2293 Y0.8431 I-0.0455 J0.0005
G01 X1.229 Y0.843

G02 X1.2259 Y0.8437 I0.0045 J0.0265
G01 X1.226 Y0.844
G01 Z0.1 F20
G00 X1.321 Y1.16
G01 Z-0.002
G01 X1.626 Y1.367 F15
G01 X2.668 Y1.367
G01 X3.011 Y1.292

G03 X3.0142 Y1.2914 I0.0065 J0.0245
G01 X3.014 Y1.29

G03 X3.1044 Y1.308 I0.0435 J0.0175
G01 X3.103 Y1.308

G03 X3.0269 Y1.3411 I-0.0455 J-0.0005
G01 X3.027 Y1.341
G01 Z0.1 F20
G00 X1.292 Y1.201
G01 Z-0.002
G01 X1.292 Y1.203 F15

G02 X1.2943 Y1.2043 I0.0145 J-0.0225
G01 X1.295 Y1.203
G01 X1.603 Y1.413

G02 X1.617 Y1.4176 I0.0145 J-0.0205
G01 X1.617 Y1.418
G01 X2.668 Y1.418

G02 X2.6738 Y1.4172 I-0.0005 J-0.0255
G01 X2.674 Y1.418
G01 X3.02 Y1.343

G02 X3.0229 Y1.3426 I-0.0025 J-0.0265
G01 X3.023 Y1.343
G01 Z0.1 F20
G00 X1.321 Y1.458
G01 Z-0.002
G01 X1.461 Y1.546 F15
G01 X4.614 Y1.546
G01 X5.396 Y1.295

G02 X5.393 Y1.2961 I0.0075 J0.0255
G01 X5.393 Y1.296
G01 Z0.1 F20
G00 X1.293 Y1.502
G01 Z-0.002
G01 X1.438 Y1.594 F15

G02 X1.453 Y1.5984 I0.0145 J-0.0215
G01 X1.453 Y1.599
G01 X4.617 Y1.599

G02 X4.6243 Y1.5981 I0.0005 J-0.0265
G01 X4.624 Y1.597
G01 Z0.1 F20
G00 X4.625 Y1.597
G01 Z-0.002
G01 X5.412 Y1.346 F15

G02 X5.4145 Y1.345 I-0.0085 J-0.0255
G01 X5.414 Y1.344
G01 Z0.1 F20
G00 X1.321 Y1.653
G01 Z-0.002
G01 X1.346 Y1.667 F15
G01 X5.984 Y1.667
G01 X6.983 Y1.298

G03 X6.9838 Y1.2976 I0.0115 J0.0235
G01 X6.984 Y1.298
G01 X6.985 Y1.298

G03 X6.9882 Y1.2969 I0.0095 J0.0235
G01 X6.988 Y1.296

G03 X7.0785 Y1.308 I0.0445 J0.0115
G01 X7.078 Y1.308

G03 X7.0067 Y1.345 I-0.0455 J-0.0005
G01 X7.006 Y1.346
G01 Z0.1 F20
G00 X1.295 Y1.699
G01 Z-0.002
G01 X1.325 Y1.716 F15

G02 X1.338 Y1.7191 I0.0125 J-0.0235
G01 X1.338 Y1.719
G01 X5.988 Y1.719

G02 X5.9974 Y1.7171 I-0.0005 J-0.0265
G01 X5.997 Y1.716
G01 X5.997 Y1.716

G02 X5.9986 Y1.7153 I-0.0095 J-0.0235
G01 X5.999 Y1.716
G01 X6.998 Y1.347

G02 X7.0001 Y1.3466 I-0.0035 J-0.0255
G01 X7 Y1.346
G01 X7.002 Y1.346

G02 X7.0029 Y1.3457 I-0.0075 J-0.0245
G01 X7.003 Y1.346
G01 Z0.1 F20
G00 X1.33 Y0.759
G01 Z-0.002
G01 X1.453 Y0.881 F15
G01 X1.622 Y0.881

G03 X1.624 Y0.8811 I-0.0005 J0.0265
G01 X1.624 Y0.881

G03 X1.7092 Y0.907 I0.0385 J0.0265
G01 X1.708 Y0.907

G03 X1.6246 Y0.9326 I-0.0455 J0.0005
G01 X1.624 Y0.933

G03 X1.622 Y0.9331 I-0.0025 J-0.0255
G01 X1.622 Y0.933
G01 X1.443 Y0.933

G03 X1.4225 Y0.9234 I-0.0005 J-0.0255
G01 X1.423 Y0.923
G01 X1.297 Y0.797
G01 Z0.1 F20
G00 X1.32 Y0.345
G01 Z-0.002
G01 X1.343 Y0.352 F15
G01 X1.507 Y0.352
G01 X1.588 Y0.271

G03 X1.608 Y0.262 I0.0195 J0.0165
G01 X2.912 Y0.262

G03 X2.915 Y0.2622 I-0.0005 J0.0255
G01 X2.915 Y0.262

G03 X2.9903 Y0.2625 I0.0375 J0.0255
G01 X2.991 Y0.262

G03 X2.994 Y0.2619 I0.0025 J0.0255
G01 X2.994 Y0.262
G01 X3.642 Y0.262

G03 X3.645 Y0.2622 I-0.0005 J0.0255
G01 X3.645 Y0.262

G03 X3.7203 Y0.2625 I0.0375 J0.0255
G01 X3.721 Y0.262

G03 X3.724 Y0.2619 I0.0025 J0.0255
G01 X3.724 Y0.262
G01 X4.446 Y0.262

G03 X4.45 Y0.2622 I0.0005 J0.0255
G01 X4.45 Y0.262

G03 X4.525 Y0.262 I0.0375 J0.0255

G03 X4.529 Y0.2618 I0.0035 J0.0255
G01 X4.529 Y0.262
G01 X5.281 Y0.262

G03 X5.285 Y0.2622 I0.0005 J0.0255
G01 X5.285 Y0.262

G03 X5.36 Y0.262 I0.0375 J0.0255

G03 X5.364 Y0.2618 I0.0035 J0.0255
G01 X5.364 Y0.262
G01 X6.087 Y0.262

G03 X6.089 Y0.2621 I-0.0005 J0.0255
G01 X6.089 Y0.262

G03 X6.166 Y0.262 I0.0385 J0.0255

G03 X6.168 Y0.2619 I0.0025 J0.0255
G01 X6.168 Y0.262
G01 X6.782 Y0.262

G03 X6.8063 Y0.2783 I0.0005 J0.0255
G01 X6.807 Y0.278
G01 Z0.1 F20
G00 X1.303 Y0.394
G01 Z-0.002
G01 X1.33 Y0.403 F15

G02 X1.338 Y0.4041 I0.0075 J-0.0255
G01 X1.338 Y0.403
G01 X1.517 Y0.403

G02 X1.537 Y0.394 I0.0005 J-0.0255
G01 X1.617 Y0.313
G01 X2.912 Y0.313

G02 X2.915 Y0.3128 I-0.0005 J-0.0255
G01 X2.915 Y0.313

G02 X2.9903 Y0.3125 I0.0375 J-0.0255
G01 X2.991 Y0.313

G02 X2.994 Y0.3131 I0.0025 J-0.0255
G01 X2.994 Y0.313
G01 X3.642 Y0.313

G02 X3.645 Y0.3128 I-0.0005 J-0.0255
G01 X3.645 Y0.313

G02 X3.7203 Y0.3125 I0.0375 J-0.0255
G01 X3.721 Y0.313

G02 X3.724 Y0.3131 I0.0025 J-0.0255
G01 X3.724 Y0.313
G01 X4.446 Y0.313

G02 X4.45 Y0.3128 I0.0005 J-0.0255
G01 X4.45 Y0.313

G02 X4.525 Y0.313 I0.0375 J-0.0255

G02 X4.529 Y0.3132 I0.0035 J-0.0255
G01 X4.529 Y0.313
G01 X5.281 Y0.313

G02 X5.285 Y0.3128 I0.0005 J-0.0255
G01 X5.285 Y0.313

G02 X5.36 Y0.313 I0.0375 J-0.0255

G02 X5.364 Y0.3132 I0.0035 J-0.0255
G01 X5.364 Y0.313
G01 X6.087 Y0.313

G02 X6.089 Y0.3129 I-0.0005 J-0.0255
G01 X6.089 Y0.313

G02 X6.166 Y0.313 I0.0385 J-0.0255

G02 X6.168 Y0.3131 I0.0025 J-0.0255
G01 X6.168 Y0.313
G01 X6.767 Y0.313
G01 X6.963 Y0.714

G02 X6.9636 Y0.7158 I0.0245 J-0.0065
G01 X6.963 Y0.716
G01 Z0.1 F20
G00 X1.313 Y0.431
G01 Z-0.002
G01 X1.527 Y0.431 F15
G01 X1.608 Y0.352

G03 X1.627 Y0.3426 I0.0195 J0.0155
G01 X1.627 Y0.341
G01 X2.801 Y0.341

G03 X2.804 Y0.3411 I0.0005 J0.0265
G01 X2.804 Y0.341

G03 X2.8807 Y0.3405 I0.0385 J0.0265
G01 X2.88 Y0.341

G03 X2.883 Y0.3408 I0.0035 J0.0265
G01 X2.883 Y0.341
G01 X3.557 Y0.341

G03 X3.56 Y0.3412 I-0.0005 J0.0265
G01 X3.56 Y0.341

G03 X3.6353 Y0.3415 I0.0375 J0.0265
G01 X3.636 Y0.341

G03 X3.639 Y0.3409 I0.0025 J0.0265
G01 X3.639 Y0.341
G01 X4.352 Y0.341

G03 X4.354 Y0.3411 I-0.0005 J0.0265
G01 X4.354 Y0.341

G03 X4.431 Y0.341 I0.0385 J0.0265

G03 X4.433 Y0.3409 I0.0025 J0.0265
G01 X4.433 Y0.341
G01 X5.171 Y0.341

G03 X5.175 Y0.3412 I0.0005 J0.0265
G01 X5.175 Y0.341

G03 X5.25 Y0.341 I0.0375 J0.0265

G03 X5.254 Y0.3408 I0.0035 J0.0265
G01 X5.254 Y0.341
G01 X5.971 Y0.341

G03 X5.975 Y0.3412 I0.0005 J0.0265
G01 X5.975 Y0.341

G03 X6.05 Y0.341 I0.0375 J0.0265

G03 X6.054 Y0.3408 I0.0035 J0.0265
G01 X6.054 Y0.341
G01 X6.717 Y0.341

G03 X6.7409 Y0.3551 I0.0005 J0.0265
G01 X6.741 Y0.355
G01 Z0.1 F20
G00 X1.313 Y0.483
G01 Z-0.002
G01 X1.537 Y0.483 F15

G02 X1.5578 Y0.4729 I0.0005 J-0.0255
G01 X1.558 Y0.473
G01 X1.637 Y0.394
G01 X2.801 Y0.394

G02 X2.804 Y0.3939 I0.0005 J-0.0265
G01 X2.804 Y0.394

G02 X2.8807 Y0.3945 I0.0385 J-0.0265
G01 X2.88 Y0.394

G02 X2.883 Y0.3942 I0.0035 J-0.0265
G01 X2.883 Y0.394
G01 X3.557 Y0.394

G02 X3.56 Y0.3938 I-0.0005 J-0.0265
G01 X3.56 Y0.394

G02 X3.6353 Y0.3935 I0.0375 J-0.0265
G01 X3.636 Y0.394

G02 X3.639 Y0.3941 I0.0025 J-0.0265
G01 X3.639 Y0.394
G01 X4.352 Y0.394

G02 X4.354 Y0.3939 I-0.0005 J-0.0265
G01 X4.354 Y0.394

G02 X4.431 Y0.394 I0.0385 J-0.0265

G02 X4.433 Y0.3941 I0.0025 J-0.0265
G01 X4.433 Y0.394
G01 X5.171 Y0.394

G02 X5.175 Y0.3938 I0.0005 J-0.0265
G01 X5.175 Y0.394

G02 X5.25 Y0.394 I0.0375 J-0.0265

G02 X5.254 Y0.3942 I0.0035 J-0.0265
G01 X5.254 Y0.394
G01 X5.971 Y0.394

G02 X5.975 Y0.3938 I0.0005 J-0.0265
G01 X5.975 Y0.394

G02 X6.05 Y0.394 I0.0375 J-0.0265

G02 X6.054 Y0.3942 I0.0035 J-0.0265
G01 X6.054 Y0.394
G01 X6.701 Y0.394
G01 X6.964 Y0.923

G02 X6.964 Y0.923 I0.0235 J-0.0105
G01 Z0.1 F20
G00 X1.028 Y0.171
G01 Z-0.002
G01 X1.397 Y0.171 F15

G03 X1.4074 Y0.1729 I0.0005 J0.0265
G01 X1.407 Y0.174

G03 X1.4828 Y0.208 I0.0305 J0.0335
G01 X1.484 Y0.208

G03 X1.3938 Y0.2234 I-0.0465 J-0.0005
G01 X1.395 Y0.223
G01 X1.034 Y0.223
G01 X0.909 Y0.303
G01 X0.909 Y0.396
G01 X0.947 Y0.417

G03 X0.9492 Y0.4183 I-0.0115 J0.0225
G01 X0.95 Y0.417

G03 X1.0188 Y0.458 I0.0225 J0.0405
G01 X1.019 Y0.458

G03 X0.9265 Y0.4641 I-0.0465 J-0.0005
G01 X0.927 Y0.464

G03 X0.9233 Y0.4624 I0.0085 J-0.0245
G01 X0.923 Y0.463
G01 Z0.1 F20
G00 X0.868 Y0.266
G01 Z-0.002
G01 X1.014 Y0.176 F15

G03 X1.028 Y0.1721 I0.0135 J0.0215
G01 X1.028 Y0.171
G01 Z0.1 F20
G00 X0.857 Y0.287
G01 Z-0.002
G01 X0.857 Y0.412 F15

G02 X0.8709 Y0.4352 I0.0255 J0.0005
G01 X0.871 Y0.435
G01 X0.922 Y0.462

G02 X0.9232 Y0.4627 I0.0135 J-0.0225
G01 X0.923 Y0.463
G01 Z0.1 F20
G00 X1.538 Y0.787
G01 Z-0.002
G01 X1.622 Y0.787 F15

G03 X1.703 Y0.787 I0.0405 J0.0205
G01 X1.752 Y0.787

G03 X1.772 Y0.796 I0.0005 J0.0255
G01 X1.958 Y0.981
G01 X2.221 Y0.981

G03 X2.224 Y0.9811 I0.0005 J0.0265
G01 X2.224 Y0.981

G03 X2.3092 Y1.007 I0.0385 J0.0265
G01 X2.309 Y1.007

G03 X2.2237 Y1.0332 I-0.0465 J0.0005
G01 X2.224 Y1.033

G03 X2.221 Y1.0331 I-0.0025 J-0.0255
G01 X2.221 Y1.033
G01 X1.948 Y1.033

G03 X1.9275 Y1.0234 I-0.0005 J-0.0255
G01 X1.928 Y1.023
G01 X1.742 Y0.838
G01 X1.696 Y0.838

G03 X1.629 Y0.838 I-0.0335 J-0.0305
G01 X1.538 Y0.838

G03 X1.535 Y0.8378 I0.0005 J-0.0255
G01 X1.535 Y0.838

G03 X1.535 Y0.787 I-0.0375 J-0.0255

G03 X1.538 Y0.7868 I0.0035 J0.0255
G01 X1.538 Y0.787
G01 Z0.1 F20
G00 X1.701 Y0.681
G01 Z-0.002
G01 X1.741 Y0.681 F15

G03 X1.744 Y0.6811 I0.0005 J0.0265
G01 X1.744 Y0.681

G03 X1.8292 Y0.708 I0.0385 J0.0265
G01 X1.828 Y0.708

G03 X1.7446 Y0.7326 I-0.0455 J-0.0005
G01 X1.744 Y0.733

G03 X1.741 Y0.7331 I-0.0025 J-0.0255
G01 X1.741 Y0.733
G01 X1.701 Y0.733

G03 X1.6294 Y0.7397 I-0.0385 J-0.0255
G01 X1.629 Y0.74
G01 X1.566 Y0.749

G03 X1.563 Y0.7492 I-0.0035 J-0.0265
G01 X1.563 Y0.749
G01 X1.387 Y0.749

G03 X1.3664 Y0.7385 I0.0005 J-0.0265
G01 X1.367 Y0.738
G01 X1.313 Y0.684

G03 X1.31 Y0.6838 I0.0005 J-0.0265
G01 X1.31 Y0.684

G03 X1.31 Y0.631 I-0.0375 J-0.0265

G03 X1.313 Y0.6308 I0.0035 J0.0265
G01 X1.313 Y0.631
G01 X1.323 Y0.631

G03 X1.3436 Y0.6415 I-0.0005 J0.0265
G01 X1.343 Y0.642
G01 X1.397 Y0.696
G01 X1.558 Y0.696
G01 X1.622 Y0.687

G03 X1.6999 Y0.6818 I0.0405 J0.0205
G01 X1.701 Y0.681
G01 Z0.1 F20
G00 X1.821 Y0.421
G01 Z-0.002
G01 X2.606 Y0.421 F15

G03 X2.609 Y0.4211 I0.0005 J0.0265
G01 X2.609 Y0.421

G03 X2.6857 Y0.4205 I0.0385 J0.0265
G01 X2.685 Y0.421

G03 X2.688 Y0.4208 I0.0035 J0.0265
G01 X2.688 Y0.421
G01 X3.406 Y0.421

G03 X3.409 Y0.4211 I0.0005 J0.0265
G01 X3.409 Y0.421

G03 X3.4857 Y0.4205 I0.0385 J0.0265
G01 X3.485 Y0.421

G03 X3.488 Y0.4208 I0.0035 J0.0265
G01 X3.488 Y0.421
G01 X4.201 Y0.421

G03 X4.204 Y0.4211 I0.0005 J0.0265
G01 X4.204 Y0.421

G03 X4.2807 Y0.4205 I0.0385 J0.0265
G01 X4.28 Y0.421

G03 X4.284 Y0.4208 I0.0035 J0.0265
G01 X4.284 Y0.421
G01 X4.977 Y0.421

G03 X4.979 Y0.4211 I-0.0005 J0.0265
G01 X4.979 Y0.421

G03 X5.056 Y0.421 I0.0385 J0.0265

G03 X5.058 Y0.4209 I0.0025 J0.0265
G01 X5.058 Y0.421
G01 X5.787 Y0.421

G03 X5.789 Y0.4211 I-0.0005 J0.0265
G01 X5.789 Y0.421

G03 X5.866 Y0.421 I0.0385 J0.0265

G03 X5.868 Y0.4209 I0.0025 J0.0265
G01 X5.868 Y0.421
G01 X6.596 Y0.421

G03 X6.6 Y0.4212 I0.0005 J0.0265
G01 X6.6 Y0.421

G03 X6.6834 Y0.448 I0.0375 J0.0265
G01 X6.683 Y0.448

G03 X6.5999 Y0.4731 I-0.0455 J-0.0005
G01 X6.6 Y0.473

G03 X6.596 Y0.4732 I-0.0035 J-0.0255
G01 X6.596 Y0.473
G01 X5.868 Y0.473

G03 X5.866 Y0.4729 I0.0005 J-0.0255
G01 X5.866 Y0.473

G03 X5.789 Y0.473 I-0.0385 J-0.0255

G03 X5.787 Y0.4731 I-0.0025 J-0.0255
G01 X5.787 Y0.473
G01 X5.058 Y0.473

G03 X5.056 Y0.4729 I0.0005 J-0.0255
G01 X5.056 Y0.473

G03 X4.979 Y0.473 I-0.0385 J-0.0255

G03 X4.977 Y0.4731 I-0.0025 J-0.0255
G01 X4.977 Y0.473
G01 X4.284 Y0.473

G03 X4.28 Y0.4728 I-0.0005 J-0.0255
G01 X4.28 Y0.473

G03 X4.2047 Y0.4725 I-0.0375 J-0.0255
G01 X4.204 Y0.473

G03 X4.201 Y0.4731 I-0.0025 J-0.0255
G01 X4.201 Y0.473
G01 X3.488 Y0.473

G03 X3.485 Y0.4728 I0.0005 J-0.0255
G01 X3.485 Y0.473

G03 X3.4097 Y0.4725 I-0.0375 J-0.0255
G01 X3.409 Y0.473

G03 X3.406 Y0.4731 I-0.0025 J-0.0255
G01 X3.406 Y0.473
G01 X2.688 Y0.473

G03 X2.685 Y0.4728 I0.0005 J-0.0255
G01 X2.685 Y0.473

G03 X2.6097 Y0.4725 I-0.0375 J-0.0255
G01 X2.609 Y0.473

G03 X2.606 Y0.4731 I-0.0025 J-0.0255
G01 X2.606 Y0.473
G01 X1.821 Y0.473

G03 X1.8205 Y0.4213 I-0.0385 J-0.0255
G01 X1.821 Y0.421
G01 Z0.1 F20
G00 X1.886 Y0.594
G01 Z-0.002
G01 X2.04 Y0.863 F15

G03 X2.0416 Y0.8662 I-0.0225 J0.0135
G01 X2.042 Y0.866

G03 X2.0842 Y0.912 I-0.0045 J0.0465
G01 X2.083 Y0.912

G03 X1.9969 Y0.892 I-0.0455 J0.0005
G01 X1.997 Y0.892

G03 X1.9948 Y0.8886 I0.0205 J-0.0155
G01 X1.994 Y0.889
G01 X1.846 Y0.634
G01 X1.701 Y0.634

G03 X1.6256 Y0.6361 I-0.0385 J-0.0265
G01 X1.627 Y0.635
G01 X1.538 Y0.657

G03 X1.532 Y0.6576 I-0.0055 J-0.0245
G01 X1.532 Y0.658
G01 X1.481 Y0.658

G03 X1.4681 Y0.6079 I-0.0435 J-0.0155
G01 X1.468 Y0.608

G03 X1.478 Y0.6062 I0.0095 J0.0245
G01 X1.478 Y0.606
G01 X1.53 Y0.606
G01 X1.624 Y0.583

G03 X1.7005 Y0.5823 I0.0385 J0.0245
G01 X1.701 Y0.582
G01 X1.863 Y0.582

G03 X1.8846 Y0.5948 I-0.0005 J0.0255
G01 X1.886 Y0.594
G01 Z0.1 F20
G00 X2.128 Y1.181
G01 Z-0.002
G01 X2.221 Y1.181 F15

G03 X2.224 Y1.1811 I0.0005 J0.0265
G01 X2.224 Y1.181

G03 X2.3007 Y1.1805 I0.0385 J0.0265
G01 X2.3 Y1.181

G03 X2.303 Y1.1808 I0.0035 J0.0265
G01 X2.303 Y1.181
G01 X2.416 Y1.181

G03 X2.419 Y1.1811 I0.0005 J0.0265
G01 X2.419 Y1.181

G03 X2.4957 Y1.1805 I0.0385 J0.0265
G01 X2.495 Y1.181

G03 X2.498 Y1.1808 I0.0035 J0.0265
G01 X2.498 Y1.181
G01 X3.017 Y1.181

G03 X3.02 Y1.1812 I-0.0005 J0.0265
G01 X3.02 Y1.181

G03 X3.0953 Y1.1815 I0.0375 J0.0265
G01 X3.096 Y1.181

G03 X3.099 Y1.1809 I0.0025 J0.0265
G01 X3.099 Y1.181
G01 X3.211 Y1.181

G03 X3.214 Y1.1811 I0.0005 J0.0265
G01 X3.214 Y1.181

G03 X3.2907 Y1.1805 I0.0385 J0.0265
G01 X3.29 Y1.181

G03 X3.293 Y1.1808 I0.0035 J0.0265
G01 X3.293 Y1.181
G01 X3.814 Y1.181

G03 X3.891 Y1.181 I0.0385 J0.0265
G01 X4.007 Y1.181

G03 X4.01 Y1.1812 I-0.0005 J0.0265
G01 X4.01 Y1.181

G03 X4.085 Y1.181 I0.0375 J0.0265

G03 X4.089 Y1.1808 I0.0035 J0.0265
G01 X4.089 Y1.181
G01 X4.607 Y1.181

G03 X4.609 Y1.1811 I-0.0005 J0.0265
G01 X4.609 Y1.181

G03 X4.686 Y1.181 I0.0385 J0.0265

G03 X4.688 Y1.1809 I0.0025 J0.0265
G01 X4.688 Y1.181
G01 X4.801 Y1.181

G03 X4.805 Y1.1812 I0.0005 J0.0265
G01 X4.805 Y1.181

G03 X4.88 Y1.181 I0.0375 J0.0265

G03 X4.884 Y1.1808 I0.0035 J0.0265
G01 X4.884 Y1.181
G01 X5.401 Y1.181

G03 X5.405 Y1.1812 I0.0005 J0.0265
G01 X5.405 Y1.181

G03 X5.48 Y1.181 I0.0375 J0.0265

G03 X5.484 Y1.1808 I0.0035 J0.0265
G01 X5.484 Y1.181
G01 X5.596 Y1.181

G03 X5.6 Y1.1812 I0.0005 J0.0265
G01 X5.6 Y1.181

G03 X5.675 Y1.181 I0.0375 J0.0265

G03 X5.679 Y1.1808 I0.0035 J0.0265
G01 X5.679 Y1.181
G01 X6.196 Y1.181

G03 X6.2 Y1.1812 I0.0005 J0.0265
G01 X6.2 Y1.181

G03 X6.275 Y1.181 I0.0375 J0.0265

G03 X6.279 Y1.1808 I0.0035 J0.0265
G01 X6.279 Y1.181
G01 X6.392 Y1.181

G03 X6.394 Y1.1811 I-0.0005 J0.0265
G01 X6.394 Y1.181

G03 X6.4792 Y1.208 I0.0385 J0.0265
G01 X6.478 Y1.208

G03 X6.395 Y1.2333 I-0.0455 J-0.0005
G01 X6.394 Y1.234

G03 X6.392 Y1.2341 I-0.0025 J-0.0265
G01 X6.392 Y1.234
G01 X6.279 Y1.234

G03 X6.275 Y1.2338 I-0.0005 J-0.0265
G01 X6.275 Y1.234

G03 X6.2 Y1.234 I-0.0375 J-0.0265

G03 X6.196 Y1.2342 I-0.0035 J-0.0265
G01 X6.196 Y1.234
G01 X5.679 Y1.234

G03 X5.675 Y1.2338 I-0.0005 J-0.0265
G01 X5.675 Y1.234

G03 X5.6 Y1.234 I-0.0375 J-0.0265

G03 X5.596 Y1.2342 I-0.0035 J-0.0265
G01 X5.596 Y1.234
G01 X5.484 Y1.234

G03 X5.48 Y1.2338 I-0.0005 J-0.0265
G01 X5.48 Y1.234

G03 X5.405 Y1.234 I-0.0375 J-0.0265

G03 X5.401 Y1.2342 I-0.0035 J-0.0265
G01 X5.401 Y1.234
G01 X4.884 Y1.234

G03 X4.88 Y1.2338 I-0.0005 J-0.0265
G01 X4.88 Y1.234

G03 X4.805 Y1.234 I-0.0375 J-0.0265

G03 X4.801 Y1.2342 I-0.0035 J-0.0265
G01 X4.801 Y1.234
G01 X4.688 Y1.234

G03 X4.686 Y1.2339 I0.0005 J-0.0265
G01 X4.686 Y1.234

G03 X4.609 Y1.234 I-0.0385 J-0.0265

G03 X4.607 Y1.2341 I-0.0025 J-0.0265
G01 X4.607 Y1.234
G01 X4.089 Y1.234

G03 X4.085 Y1.2338 I-0.0005 J-0.0265
G01 X4.085 Y1.234

G03 X4.01 Y1.234 I-0.0375 J-0.0265

G03 X4.007 Y1.2342 I-0.0035 J-0.0265
G01 X4.007 Y1.234
G01 X3.891 Y1.234

G03 X3.814 Y1.234 I-0.0385 J-0.0265
G01 X3.293 Y1.234

G03 X3.29 Y1.2338 I0.0005 J-0.0265
G01 X3.29 Y1.234

G03 X3.2147 Y1.2335 I-0.0375 J-0.0265
G01 X3.214 Y1.234

G03 X3.211 Y1.2341 I-0.0025 J-0.0265
G01 X3.211 Y1.234
G01 X3.099 Y1.234

G03 X3.096 Y1.2339 I-0.0005 J-0.0265
G01 X3.096 Y1.234

G03 X3.0193 Y1.2345 I-0.0385 J-0.0265
G01 X3.02 Y1.234

G03 X3.017 Y1.2342 I-0.0035 J-0.0265
G01 X3.017 Y1.234
G01 X2.498 Y1.234

G03 X2.495 Y1.2338 I0.0005 J-0.0265
G01 X2.495 Y1.234

G03 X2.4197 Y1.2335 I-0.0375 J-0.0265
G01 X2.419 Y1.234

G03 X2.416 Y1.2341 I-0.0025 J-0.0265
G01 X2.416 Y1.234
G01 X2.303 Y1.234

G03 X2.3 Y1.2338 I0.0005 J-0.0265
G01 X2.3 Y1.234

G03 X2.2247 Y1.2335 I-0.0375 J-0.0265
G01 X2.224 Y1.234

G03 X2.221 Y1.2341 I-0.0025 J-0.0265
G01 X2.221 Y1.234
G01 X2.118 Y1.234

G03 X2.0969 Y1.2241 I-0.0005 J-0.0265
G01 X2.097 Y1.224
G01 X2.05 Y1.176

G03 X2.047 Y1.173 I0.0165 J-0.0195

G03 X2.084 Y1.127 I-0.0095 J-0.0455
G01 X2.083 Y1.127

G03 X2.082 Y1.1368 I-0.0455 J0.0005
G01 X2.083 Y1.137

G03 X2.086 Y1.14 I-0.0165 J0.0195
G01 X2.128 Y1.181
G01 Z0.1 F20
G00 X1.568 Y0.181
G01 Z-0.002
G01 X2.531 Y0.181 F15

G03 X2.534 Y0.1811 I0.0005 J0.0265
G01 X2.534 Y0.181

G03 X2.6107 Y0.1805 I0.0385 J0.0265
G01 X2.61 Y0.181

G03 X2.613 Y0.1808 I0.0035 J0.0265
G01 X2.613 Y0.181
G01 X3.332 Y0.181

G03 X3.335 Y0.1812 I-0.0005 J0.0265
G01 X3.335 Y0.181

G03 X3.4103 Y0.1815 I0.0375 J0.0265
G01 X3.411 Y0.181

G03 X3.414 Y0.1809 I0.0025 J0.0265
G01 X3.414 Y0.181
G01 X4.122 Y0.181

G03 X4.124 Y0.1811 I-0.0005 J0.0265
G01 X4.124 Y0.181

G03 X4.201 Y0.181 I0.0385 J0.0265

G03 X4.203 Y0.1809 I0.0025 J0.0265
G01 X4.203 Y0.181
G01 X4.901 Y0.181

G03 X4.905 Y0.1812 I0.0005 J0.0265
G01 X4.905 Y0.181

G03 X4.98 Y0.181 I0.0375 J0.0265

G03 X4.984 Y0.1808 I0.0035 J0.0265
G01 X4.984 Y0.181
G01 X5.712 Y0.181

G03 X5.714 Y0.1811 I-0.0005 J0.0265
G01 X5.714 Y0.181

G03 X5.791 Y0.181 I0.0385 J0.0265

G03 X5.793 Y0.1809 I0.0025 J0.0265
G01 X5.793 Y0.181
G01 X6.491 Y0.181

G03 X6.495 Y0.1812 I0.0005 J0.0265
G01 X6.495 Y0.181

G03 X6.5784 Y0.208 I0.0375 J0.0265
G01 X6.578 Y0.208

G03 X6.4953 Y0.2338 I-0.0455 J-0.0005
G01 X6.495 Y0.234

G03 X6.491 Y0.2342 I-0.0035 J-0.0265
G01 X6.491 Y0.234
G01 X5.793 Y0.234

G03 X5.791 Y0.2339 I0.0005 J-0.0265
G01 X5.791 Y0.234

G03 X5.714 Y0.234 I-0.0385 J-0.0265

G03 X5.712 Y0.2341 I-0.0025 J-0.0265
G01 X5.712 Y0.234
G01 X4.984 Y0.234

G03 X4.98 Y0.2338 I-0.0005 J-0.0265
G01 X4.98 Y0.234

G03 X4.905 Y0.234 I-0.0375 J-0.0265

G03 X4.901 Y0.2342 I-0.0035 J-0.0265
G01 X4.901 Y0.234
G01 X4.203 Y0.234

G03 X4.201 Y0.2339 I0.0005 J-0.0265
G01 X4.201 Y0.234

G03 X4.124 Y0.234 I-0.0385 J-0.0265

G03 X4.122 Y0.2341 I-0.0025 J-0.0265
G01 X4.122 Y0.234
G01 X3.414 Y0.234

G03 X3.411 Y0.2339 I-0.0005 J-0.0265
G01 X3.411 Y0.234

G03 X3.3343 Y0.2345 I-0.0385 J-0.0265
G01 X3.335 Y0.234

G03 X3.332 Y0.2342 I-0.0035 J-0.0265
G01 X3.332 Y0.234
G01 X2.613 Y0.234

G03 X2.61 Y0.2338 I0.0005 J-0.0265
G01 X2.61 Y0.234

G03 X2.5347 Y0.2335 I-0.0375 J-0.0265
G01 X2.534 Y0.234

G03 X2.531 Y0.2341 I-0.0025 J-0.0265
G01 X2.531 Y0.234
G01 X1.578 Y0.234
G01 X1.497 Y0.313

G03 X1.478 Y0.3224 I-0.0195 J-0.0155
G01 X1.478 Y0.324
G01 X1.338 Y0.324

G03 X1.3168 Y0.314 I-0.0005 J-0.0265
G01 X1.318 Y0.313
G01 X1.298 Y0.294
G01 X1.211 Y0.294
G01 X1.025 Y0.364

G03 X1.0227 Y0.3654 I-0.0145 J-0.0215
G01 X1.023 Y0.366
G01 Z0.1 F20
G00 X1.468 Y0.271
G01 Z-0.002
G01 X1.548 Y0.192 F15

G03 X1.568 Y0.1826 I0.0195 J0.0155
G01 X1.568 Y0.181
G01 Z0.1 F20
G00 X1.348 Y0.271
G01 Z-0.002
G01 X1.468 Y0.271 F15
G01 Z0.1 F20
G00 X1.328 Y0.252
G01 Z-0.002
G01 X1.348 Y0.271 F15
G01 Z0.1 F20
G00 X1.208 Y0.241
G01 Z-0.002
G01 X1.308 Y0.241 F15

G03 X1.3286 Y0.2515 I-0.0005 J0.0265
G01 X1.328 Y0.252
G01 Z0.1 F20
G00 X1.004 Y0.317
G01 Z-0.002
G01 X1.193 Y0.245 F15

G03 X1.1953 Y0.2437 I0.0145 J0.0225
G01 X1.196 Y0.245
G01 Z0.1 F20
G00 X1.198 Y0.243
G01 Z-0.002
G01 X1.198 Y0.243 F15

G03 X1.208 Y0.2412 I0.0095 J0.0245
G01 X1.208 Y0.241
G01 Z0.1 F20
G00 X1.02 Y0.366
G01 Z-0.002
G01 X1.02 Y0.366 F15

G02 X1.0208 Y0.3656 I-0.0095 J-0.0235
G01 X1.021 Y0.366
G01 Z0.1 F20
G00 X2.599 Y0.648
G01 Z-0.002
G01 X2.599 Y0.958 F15

G03 X2.5833 Y0.9817 I-0.0265 J-0.0005
G01 X2.583 Y0.981
G01 X2.507 Y1.015

G02 X2.5078 Y1.0146 I-0.0115 J-0.0235
G01 X2.508 Y1.015
G01 Z0.1 F20
G00 X2.547 Y0.648
G01 Z-0.002
G01 X2.547 Y0.941 F15
G01 X2.484 Y0.968

G02 X2.4828 Y0.9686 I0.0115 J0.0235
G01 X2.483 Y0.969

G02 X2.5027 Y1.0169 I-0.0255 J0.0385
G01 X2.503 Y1.017

G02 X2.5055 Y1.0161 I-0.0075 J-0.0255
G01 X2.505 Y1.015
G01 Z0.1 F20
G00 X2.498 Y1.282
G01 Z-0.002
G01 X2.606 Y1.282 F15

G03 X2.609 Y1.2821 I0.0005 J0.0255
G01 X2.609 Y1.282

G03 X2.6937 Y1.308 I0.0385 J0.0255
G01 X2.694 Y1.308

G03 X2.6087 Y1.3332 I-0.0465 J-0.0005
G01 X2.609 Y1.333

G03 X2.606 Y1.3331 I-0.0025 J-0.0255
G01 X2.606 Y1.333
G01 X2.498 Y1.333

G03 X2.495 Y1.3328 I0.0005 J-0.0255
G01 X2.495 Y1.333

G03 X2.495 Y1.282 I-0.0375 J-0.0255

G03 X2.498 Y1.2818 I0.0035 J0.0255
G01 X2.498 Y1.282
G01 Z0.1 F20
G00 X2.99 Y0.639
G01 Z-0.002
G01 X3.001 Y0.681 F15
G01 X3.017 Y0.681

G03 X3.02 Y0.6812 I-0.0005 J0.0265
G01 X3.02 Y0.681

G03 X3.1034 Y0.708 I0.0375 J0.0265
G01 X3.103 Y0.708

G03 X3.0199 Y0.7331 I-0.0455 J-0.0005
G01 X3.02 Y0.733

G03 X3.017 Y0.7332 I-0.0035 J-0.0255
G01 X3.017 Y0.733
G01 X2.983 Y0.733

G03 X2.9578 Y0.714 I-0.0005 J-0.0255
G01 X2.958 Y0.714
G01 X2.939 Y0.653

G03 X2.9387 Y0.6518 I0.0255 J-0.0065
G01 X2.938 Y0.652

G03 X2.9993 Y0.607 I0.0145 J-0.0445
G01 X2.998 Y0.607

G03 X2.9885 Y0.6354 I-0.0455 J0.0005
G01 X2.988 Y0.635

G03 X2.9896 Y0.6391 I-0.0235 J0.0115
G01 X2.99 Y0.639
G01 Z0.1 F20
G00 X3 Y0.881
G01 Z-0.002
G01 X3.017 Y0.881 F15

G03 X3.02 Y0.8812 I-0.0005 J0.0265
G01 X3.02 Y0.881

G03 X3.1034 Y0.907 I0.0375 J0.0265
G01 X3.103 Y0.907

G03 X3.0199 Y0.9331 I-0.0455 J0.0005
G01 X3.02 Y0.933

G03 X3.017 Y0.9332 I-0.0035 J-0.0255
G01 X3.017 Y0.933
G01 X2.983 Y0.933

G03 X2.9591 Y0.9175 I-0.0005 J-0.0255
G01 X2.958 Y0.918
G01 X2.836 Y0.656

G03 X2.8348 Y0.6531 I0.0235 J-0.0115
G01 X2.835 Y0.653

G03 X2.8886 Y0.607 I0.0075 J-0.0455
G01 X2.889 Y0.607

G03 X2.8829 Y0.6305 I-0.0465 J0.0005
G01 X2.882 Y0.63
G01 Z0.1 F20
G00 X2.883 Y0.634
G01 Z-0.002
G01 X3 Y0.881 F15
G01 Z0.1 F20
G00 X2.948 Y0.981
G01 Z-0.002
G01 X3.017 Y0.981 F15

G03 X3.02 Y0.9812 I-0.0005 J0.0265
G01 X3.02 Y0.981

G03 X3.1034 Y1.007 I0.0375 J0.0265
G01 X3.103 Y1.007

G03 X3.0199 Y1.0331 I-0.0455 J0.0005
G01 X3.02 Y1.033

G03 X3.017 Y1.0332 I-0.0035 J-0.0255
G01 X3.017 Y1.033
G01 X2.932 Y1.033

G03 X2.91 Y1.0195 I0.0005 J-0.0255
G01 X2.909 Y1.02
G01 X2.724 Y0.657

G03 X2.7236 Y0.6562 I0.0225 J-0.0135
G01 X2.724 Y0.656
G01 Z0.1 F20
G00 X2.77 Y0.631
G01 Z-0.002
G01 X2.948 Y0.981 F15
G01 Z0.1 F20
G00 X3.089 Y1.074
G01 Z-0.002
G01 X3.126 Y1.038 F15
G01 X3.126 Y0.554
G01 X1.588 Y0.554
G01 X1.548 Y0.579

G03 X1.532 Y0.584 I-0.0155 J-0.0215
G01 X1.532 Y0.583
G01 X1.313 Y0.583

G03 X1.31 Y0.5828 I0.0005 J-0.0255
G01 X1.31 Y0.583

G03 X1.31 Y0.532 I-0.0375 J-0.0255

G03 X1.313 Y0.5318 I0.0035 J0.0255
G01 X1.313 Y0.532
G01 X1.525 Y0.532
G01 X1.568 Y0.506

G03 X1.583 Y0.5016 I0.0145 J0.0215
G01 X1.583 Y0.501
G01 X3.152 Y0.501
G01 X3.952 Y0.501
G01 X4.758 Y0.501
G01 X5.543 Y0.501
G01 X6.333 Y0.501
G01 X6.702 Y0.501

G03 X6.7275 Y0.5188 I0.0005 J0.0265
G01 X6.727 Y0.519
G01 Z0.1 F20
G00 X3.119 Y1.117
G01 Z-0.002
G01 X3.168 Y1.068 F15

G02 X3.1782 Y1.048 I-0.0155 J-0.0205
G01 X3.178 Y1.048
G01 X3.178 Y0.554
G01 X3.926 Y0.554
G01 X3.926 Y1.028
G01 X3.872 Y1.063

G02 X3.8692 Y1.0651 I0.0145 J0.0225
G01 X3.87 Y1.066

G02 X3.8975 Y1.109 I-0.0175 J0.0415
G01 X3.899 Y1.109

G02 X3.9014 Y1.1076 I-0.0125 J-0.0235
G01 X3.901 Y1.107
G01 X3.967 Y1.065

G02 X3.9793 Y1.043 I-0.0145 J-0.0225
G01 X3.978 Y1.043
G01 X3.978 Y0.554
G01 X4.732 Y0.554
G01 X4.732 Y1.02
G01 X4.669 Y1.061

G02 X4.6673 Y1.062 I0.0125 J0.0235
G01 X4.668 Y1.063
G01 X4.667 Y1.063

G02 X4.6642 Y1.0652 I0.0145 J0.0215
G01 X4.664 Y1.065

G02 X4.6931 Y1.107 I-0.0165 J0.0425
G01 X4.694 Y1.107

G02 X4.6959 Y1.1058 I-0.0125 J-0.0225
G01 X4.696 Y1.106
G01 X4.769 Y1.055

G02 X4.7712 Y1.0537 I-0.0115 J-0.0225
G01 X4.772 Y1.055
G01 X4.773 Y1.053

G02 X4.7832 Y1.032 I-0.0155 J-0.0205
G01 X4.784 Y1.032
G01 X4.784 Y0.554
G01 X5.517 Y0.554
G01 X5.517 Y1.038
G01 X5.466 Y1.065

G02 X5.4641 Y1.0662 I0.0125 J0.0225
G01 X5.464 Y1.066

G02 X5.489 Y1.112 I-0.0215 J0.0415

G02 X5.4898 Y1.1116 I-0.0105 J-0.0245
G01 X5.49 Y1.112
G01 Z0.1 F20
G00 X3.399 Y0.648
G01 Z-0.002
G01 X3.399 Y0.958 F15

G03 X3.3824 Y0.9821 I-0.0265 J-0.0005
G01 X3.382 Y0.981
G01 X3.3 Y1.015

G03 X3.2968 Y1.0161 I-0.0095 J-0.0235
G01 X3.297 Y1.017

G03 X3.2769 Y0.9691 I-0.0445 J-0.0095
G01 X3.277 Y0.969

G03 X3.2798 Y0.9675 I0.0135 J0.0225
G01 X3.28 Y0.968
G01 X3.346 Y0.941
G01 X3.346 Y0.648

G03 X3.3462 Y0.645 I0.0265 J0.0005
G01 X3.346 Y0.645

G03 X3.4184 Y0.607 I0.0265 J-0.0375
G01 X3.418 Y0.607

G03 X3.3988 Y0.6447 I-0.0455 J0.0005
G01 X3.399 Y0.645

G03 X3.3992 Y0.648 I-0.0265 J0.0035
G01 X3.399 Y0.648
G01 Z0.1 F20
G00 X3.293 Y1.282
G01 Z-0.002
G01 X3.406 Y1.282 F15

G03 X3.409 Y1.2821 I0.0005 J0.0255
G01 X3.409 Y1.282

G03 X3.4937 Y1.308 I0.0385 J0.0255
G01 X3.494 Y1.308

G03 X3.4087 Y1.3332 I-0.0465 J-0.0005
G01 X3.409 Y1.333

G03 X3.406 Y1.3331 I-0.0025 J-0.0255
G01 X3.406 Y1.333
G01 X3.293 Y1.333

G03 X3.29 Y1.3328 I0.0005 J-0.0255
G01 X3.29 Y1.333

G03 X3.29 Y1.282 I-0.0375 J-0.0255

G03 X3.293 Y1.2818 I0.0035 J0.0255
G01 X3.293 Y1.282
G01 Z0.1 F20
G00 X0.988 Y0.021
G01 Z-0.002
G01 X3.717 Y0.021 F15

G03 X3.72 Y0.0212 I-0.0005 J0.0265
G01 X3.72 Y0.021

G03 X3.7953 Y0.0215 I0.0375 J0.0265
G01 X3.796 Y0.021

G03 X3.799 Y0.0209 I0.0025 J0.0265
G01 X3.799 Y0.021
G01 X4.517 Y0.021

G03 X4.519 Y0.0211 I-0.0005 J0.0265
G01 X4.519 Y0.021

G03 X4.596 Y0.021 I0.0385 J0.0265

G03 X4.598 Y0.0209 I0.0025 J0.0265
G01 X4.598 Y0.021
G01 X6.647 Y0.021

G03 X6.649 Y0.0211 I-0.0005 J0.0265
G01 X6.649 Y0.021

G03 X6.7342 Y0.047 I0.0385 J0.0265
G01 X6.734 Y0.047

G03 X6.6487 Y0.0732 I-0.0465 J0.0005
G01 X6.649 Y0.073

G03 X6.647 Y0.0731 I-0.0025 J-0.0255
G01 X6.647 Y0.073
G01 X4.598 Y0.073

G03 X4.596 Y0.0729 I0.0005 J-0.0255
G01 X4.596 Y0.073

G03 X4.519 Y0.073 I-0.0385 J-0.0255

G03 X4.517 Y0.0731 I-0.0025 J-0.0255
G01 X4.517 Y0.073
G01 X3.799 Y0.073

G03 X3.796 Y0.0729 I-0.0005 J-0.0255
G01 X3.796 Y0.073

G03 X3.7193 Y0.0735 I-0.0385 J-0.0255
G01 X3.72 Y0.073

G03 X3.717 Y0.0732 I-0.0035 J-0.0255
G01 X3.717 Y0.073
G01 X0.996 Y0.073
G01 X0.759 Y0.227
G01 X0.759 Y0.522
G01 X0.947 Y0.616

G03 X0.9497 Y0.6175 I-0.0115 J0.0235
G01 X0.95 Y0.617

G03 X1.0188 Y0.657 I0.0225 J0.0405
G01 X1.019 Y0.657

G03 X0.9265 Y0.6641 I-0.0465 J0.0005
G01 X0.927 Y0.664

G03 X0.9229 Y0.6622 I0.0085 J-0.0245
G01 X0.923 Y0.662
G01 Z0.1 F20
G00 X0.719 Y0.19
G01 Z-0.002
G01 X0.974 Y0.025 F15

G03 X0.988 Y0.0213 I0.0135 J0.0225
G01 X0.988 Y0.021
G01 Z0.1 F20
G00 X0.706 Y0.213
G01 Z-0.002
G01 X0.706 Y0.537 F15

G02 X0.7196 Y0.5607 I0.0265 J0.0005
G01 X0.72 Y0.56
G01 X0.922 Y0.662

G02 X0.9228 Y0.6624 I0.0135 J-0.0225
G01 X0.923 Y0.662
G01 Z0.1 F20
G00 X3.724 Y0.681
G01 Z-0.002
G01 X3.812 Y0.681 F15

G03 X3.814 Y0.6811 I-0.0005 J0.0265
G01 X3.814 Y0.681

G03 X3.8992 Y0.708 I0.0385 J0.0265
G01 X3.899 Y0.708

G03 X3.8137 Y0.7332 I-0.0465 J-0.0005
G01 X3.814 Y0.733

G03 X3.812 Y0.7331 I-0.0025 J-0.0255
G01 X3.812 Y0.733
G01 X3.724 Y0.733

G03 X3.721 Y0.7329 I-0.0005 J-0.0255
G01 X3.721 Y0.733

G03 X3.7205 Y0.6813 I-0.0385 J-0.0255
G01 X3.721 Y0.681

G03 X3.724 Y0.6809 I0.0025 J0.0265
G01 X3.724 Y0.681
G01 Z0.1 F20
G00 X3.799 Y0.582
G01 Z-0.002
G01 X3.812 Y0.582 F15

G03 X3.814 Y0.5821 I-0.0005 J0.0255
G01 X3.814 Y0.582

G03 X3.8987 Y0.607 I0.0385 J0.0255
G01 X3.899 Y0.607

G03 X3.8142 Y0.6339 I-0.0465 J0.0005
G01 X3.814 Y0.634

G03 X3.812 Y0.6341 I-0.0025 J-0.0265
G01 X3.812 Y0.634
G01 X3.799 Y0.634

G03 X3.796 Y0.6339 I-0.0005 J-0.0265
G01 X3.796 Y0.634

G03 X3.7965 Y0.5817 I-0.0385 J-0.0265
G01 X3.796 Y0.582

G03 X3.799 Y0.5819 I0.0025 J0.0255
G01 X3.799 Y0.582
G01 Z0.1 F20
G00 X3.347 Y1.426
G01 Z-0.002
G01 X3.807 Y1.293 F15

G03 X3.8099 Y1.2924 I0.0065 J0.0255
G01 X3.81 Y1.293

G03 X3.8974 Y1.308 I0.0425 J0.0145
G01 X3.899 Y1.308

G03 X3.8228 Y1.3433 I-0.0465 J-0.0005
G01 X3.823 Y1.343

G03 X3.82 Y1.344 I-0.0095 J-0.0245
G01 X3.359 Y1.477

G03 X3.353 Y1.4778 I-0.0065 J-0.0245
G01 X3.353 Y1.479
G01 X1.568 Y1.479

G03 X1.5527 Y1.4745 I-0.0005 J-0.0265
G01 X1.553 Y1.474
G01 X1.292 Y1.303

G03 X1.2892 Y1.3009 I0.0145 J-0.0225
G01 X1.29 Y1.3

G03 X1.3185 Y1.257 I-0.0175 J-0.0425
G01 X1.318 Y1.257

G03 X1.3211 Y1.2588 I-0.0115 J0.0235
G01 X1.321 Y1.259
G01 X1.576 Y1.426
G01 X3.347 Y1.426
G01 Z0.1 F20
G00 X3.623 Y0.767
G01 Z-0.002
G01 X3.823 Y0.865 F15

G03 X3.8242 Y0.8654 I-0.0075 J0.0245
G01 X3.824 Y0.866
G01 Z0.1 F20
G00 X3.59 Y0.807
G01 Z-0.002
G01 X3.801 Y0.912 F15

G02 X3.8025 Y0.9129 I0.0145 J-0.0225
G01 X3.803 Y0.912
G01 Z0.1 F20
G00 X3.623 Y0.648
G01 Z-0.002
G01 X3.623 Y0.767 F15
G01 Z0.1 F20
G00 X3.572 Y0.648
G01 Z-0.002
G01 X3.572 Y0.782 F15

G02 X3.5871 Y0.8058 I0.0255 J0.0005
G01 X3.587 Y0.806
G01 Z0.1 F20
G00 X3.539 Y0.816
G01 Z-0.002
G01 X3.829 Y0.966 F15

G03 X3.8297 Y0.9664 I-0.0125 J0.0225
G01 X3.83 Y0.966
G01 Z0.1 F20
G00 X3.501 Y0.856
G01 Z-0.002
G01 X3.803 Y1.01 F15

G02 X3.8039 Y1.0105 I0.0135 J-0.0215
G01 X3.803 Y1.012
G01 Z0.1 F20
G00 X3.539 Y0.713
G01 Z-0.002
G01 X3.539 Y0.816 F15
G01 Z0.1 F20
G00 X3.487 Y0.713
G01 Z-0.002
G01 X3.487 Y0.833 F15

G02 X3.5013 Y0.8554 I0.0255 J-0.0005
G01 X3.501 Y0.856
G01 Z0.1 F20
G00 X4.089 Y1.282
G01 Z-0.002
G01 X4.201 Y1.282 F15

G03 X4.204 Y1.2821 I0.0005 J0.0255
G01 X4.204 Y1.282

G03 X4.2887 Y1.308 I0.0385 J0.0255
G01 X4.288 Y1.308

G03 X4.2046 Y1.3326 I-0.0455 J-0.0005
G01 X4.204 Y1.333

G03 X4.201 Y1.3331 I-0.0025 J-0.0255
G01 X4.201 Y1.333
G01 X4.089 Y1.333

G03 X4.085 Y1.3328 I-0.0005 J-0.0255
G01 X4.085 Y1.333

G03 X4.085 Y1.282 I-0.0375 J-0.0255

G03 X4.089 Y1.2818 I0.0035 J0.0255
G01 X4.089 Y1.282
G01 Z0.1 F20
G00 X4.188 Y0.648
G01 Z-0.002
G01 X4.188 Y0.968 F15

G03 X4.17 Y0.9919 I-0.0255 J-0.0005
G01 X4.17 Y0.992
G01 X4.095 Y1.019

G02 X4.0966 Y1.0184 I-0.0085 J-0.0255
G01 X4.096 Y1.017
G01 Z0.1 F20
G00 X4.136 Y0.648
G01 Z-0.002
G01 X4.136 Y0.948 F15
G01 X4.078 Y0.969

G02 X4.0747 Y0.9704 I0.0085 J0.0245
G01 X4.075 Y0.971

G02 X4.0914 Y1.0201 I-0.0275 J0.0365
G01 X4.091 Y1.02

G02 X4.0941 Y1.0193 I-0.0045 J-0.0265
G01 X4.094 Y1.019
G01 Z0.1 F20
G00 X4.529 Y0.681
G01 Z-0.002
G01 X4.607 Y0.681 F15

G03 X4.609 Y0.6811 I-0.0005 J0.0265
G01 X4.609 Y0.681

G03 X4.6942 Y0.708 I0.0385 J0.0265
G01 X4.694 Y0.708

G03 X4.6087 Y0.7332 I-0.0465 J-0.0005
G01 X4.609 Y0.733

G03 X4.607 Y0.7331 I-0.0025 J-0.0255
G01 X4.607 Y0.733
G01 X4.529 Y0.733

G03 X4.525 Y0.7328 I-0.0005 J-0.0255
G01 X4.525 Y0.733

G03 X4.5245 Y0.6813 I-0.0375 J-0.0255
G01 X4.525 Y0.681

G03 X4.529 Y0.6808 I0.0035 J0.0265
G01 X4.529 Y0.681
G01 Z0.1 F20
G00 X4.598 Y0.582
G01 Z-0.002
G01 X4.607 Y0.582 F15

G03 X4.609 Y0.5821 I-0.0005 J0.0255
G01 X4.609 Y0.582

G03 X4.6937 Y0.607 I0.0385 J0.0255
G01 X4.694 Y0.607

G03 X4.6092 Y0.6339 I-0.0465 J0.0005
G01 X4.609 Y0.634

G03 X4.607 Y0.6341 I-0.0025 J-0.0265
G01 X4.607 Y0.634
G01 X4.598 Y0.634

G03 X4.596 Y0.6339 I0.0005 J-0.0265
G01 X4.596 Y0.634

G03 X4.5965 Y0.5817 I-0.0385 J-0.0265
G01 X4.596 Y0.582

G03 X4.598 Y0.5819 I0.0025 J0.0255
G01 X4.598 Y0.582
G01 Z0.1 F20
G00 X3.898 Y1.487
G01 Z-0.002
G01 X4.602 Y1.293 F15

G03 X4.6039 Y1.2926 I0.0065 J0.0255
G01 X4.604 Y1.293

G03 X4.6934 Y1.308 I0.0435 J0.0145
G01 X4.694 Y1.308

G03 X4.6172 Y1.3428 I-0.0465 J-0.0005
G01 X4.617 Y1.343

G03 X4.6158 Y1.3434 I-0.0085 J-0.0245
G01 X4.616 Y1.344
G01 X3.909 Y1.538

G03 X3.902 Y1.5388 I-0.0065 J-0.0255
G01 X3.902 Y1.538
G01 X1.512 Y1.538

G03 X1.4994 Y1.5344 I0.0005 J-0.0255
G01 X1.499 Y1.535
G01 X1.292 Y1.403

G03 X1.2875 Y1.3995 I0.0135 J-0.0215
G01 X1.287 Y1.4

G03 X1.3174 Y1.357 I-0.0145 J-0.0425
G01 X1.318 Y1.357

G03 X1.318 Y1.359 I-0.0455 J0.0005

G03 X1.3194 Y1.3599 I-0.0125 J0.0225
G01 X1.32 Y1.359
G01 X1.52 Y1.487
G01 X3.898 Y1.487
G01 Z0.1 F20
G00 X4.333 Y0.826
G01 Z-0.002
G01 X4.617 Y0.964 F15

G03 X4.6204 Y0.9651 I-0.0065 J0.0255
G01 X4.62 Y0.966
G01 Z0.1 F20
G00 X4.3 Y0.867
G01 Z-0.002
G01 X4.596 Y1.012 F15

G02 X4.5967 Y1.0125 I0.0145 J-0.0225
G01 X4.597 Y1.012
G01 Z0.1 F20
G00 X4.333 Y0.718
G01 Z-0.002
G01 X4.333 Y0.826 F15
G01 Z0.1 F20
G00 X4.281 Y0.718
G01 Z-0.002
G01 X4.281 Y0.843 F15

G02 X4.2976 Y0.8671 I0.0265 J-0.0005
G01 X4.298 Y0.866
G01 Z0.1 F20
G00 X4.418 Y0.767
G01 Z-0.002
G01 X4.617 Y0.865 F15

G03 X4.62 Y0.866 I-0.0065 J0.0245
G01 Z0.1 F20
G00 X4.386 Y0.807
G01 Z-0.002
G01 X4.596 Y0.912 F15

G02 X4.5967 Y0.9125 I0.0145 J-0.0225
G01 X4.597 Y0.912
G01 Z0.1 F20
G00 X4.418 Y0.648
G01 Z-0.002
G01 X4.418 Y0.767 F15
G01 Z0.1 F20
G00 X4.366 Y0.648
G01 Z-0.002
G01 X4.366 Y0.782 F15

G02 X4.3826 Y0.8071 I0.0265 J0.0005
G01 X4.383 Y0.806
G01 Z0.1 F20
G00 X4.884 Y1.282
G01 Z-0.002
G01 X4.977 Y1.282 F15

G03 X4.979 Y1.2821 I-0.0005 J0.0255
G01 X4.979 Y1.282

G03 X5.0637 Y1.308 I0.0385 J0.0255
G01 X5.063 Y1.308

G03 X4.9796 Y1.3326 I-0.0455 J-0.0005
G01 X4.979 Y1.333

G03 X4.977 Y1.3331 I-0.0025 J-0.0255
G01 X4.977 Y1.333
G01 X4.884 Y1.333

G03 X4.88 Y1.3328 I-0.0005 J-0.0255
G01 X4.88 Y1.333

G03 X4.88 Y1.282 I-0.0375 J-0.0255

G03 X4.884 Y1.2818 I0.0035 J0.0255
G01 X4.884 Y1.282
G01 Z0.1 F20
G00 X4.969 Y0.648
G01 Z-0.002
G01 X4.969 Y0.963 F15

G03 X4.9529 Y0.9869 I-0.0265 J-0.0005
G01 X4.953 Y0.987
G01 X4.891 Y1.015

G02 X4.8922 Y1.0144 I-0.0115 J-0.0245
G01 X4.892 Y1.014
G01 Z0.1 F20
G00 X4.917 Y0.648
G01 Z-0.002
G01 X4.917 Y0.946 F15
G01 X4.868 Y0.966

G02 X4.8656 Y0.9673 I0.0115 J0.0245
G01 X4.866 Y0.968
G01 Z0.1 F20
G00 X5.364 Y0.633
G01 Z-0.002
G01 X5.388 Y0.681 F15
G01 X5.401 Y0.681

G03 X5.405 Y0.6812 I0.0005 J0.0265
G01 X5.405 Y0.681

G03 X5.4884 Y0.708 I0.0375 J0.0265
G01 X5.489 Y0.708

G03 X5.404 Y0.7336 I-0.0465 J-0.0005
G01 X5.405 Y0.733

G03 X5.401 Y0.7332 I-0.0035 J-0.0255
G01 X5.401 Y0.733
G01 X5.372 Y0.733

G03 X5.3498 Y0.7191 I0.0005 J-0.0255
G01 X5.35 Y0.719
G01 X5.319 Y0.658

G03 X5.3183 Y0.6568 I0.0215 J-0.0135
G01 X5.318 Y0.657
G01 Z0.1 F20
G00 X5.373 Y0.881
G01 Z-0.002
G01 X5.401 Y0.881 F15

G03 X5.405 Y0.8812 I0.0005 J0.0265
G01 X5.405 Y0.881

G03 X5.4884 Y0.907 I0.0375 J0.0265
G01 X5.489 Y0.907

G03 X5.404 Y0.9336 I-0.0465 J0.0005
G01 X5.405 Y0.933

G03 X5.401 Y0.9332 I-0.0035 J-0.0255
G01 X5.401 Y0.933
G01 X5.358 Y0.933

G03 X5.3337 Y0.9167 I-0.0005 J-0.0255
G01 X5.333 Y0.917
G01 Z0.1 F20
G00 X5.255 Y0.638
G01 Z-0.002
G01 X5.373 Y0.881 F15
G01 Z0.1 F20
G00 X5.208 Y0.658
G01 Z-0.002
G01 X5.333 Y0.914 F15

G02 X5.3336 Y0.9158 I0.0245 J-0.0065
G01 X5.333 Y0.916
G01 Z0.1 F20
G00 X5.313 Y0.981
G01 Z-0.002
G01 X5.401 Y0.981 F15

G03 X5.405 Y0.9812 I0.0005 J0.0265
G01 X5.405 Y0.981

G03 X5.4884 Y1.007 I0.0375 J0.0265
G01 X5.489 Y1.007

G03 X5.404 Y1.0336 I-0.0465 J0.0005
G01 X5.405 Y1.033

G03 X5.401 Y1.0332 I-0.0035 J-0.0255
G01 X5.401 Y1.033
G01 X5.298 Y1.033

G03 X5.2739 Y1.0171 I-0.0005 J-0.0255
G01 X5.274 Y1.017
G01 Z0.1 F20
G00 X5.146 Y0.638
G01 Z-0.002
G01 X5.313 Y0.981 F15
G01 Z0.1 F20
G00 X5.098 Y0.658
G01 Z-0.002
G01 X5.273 Y1.015 F15

G02 X5.273 Y1.015 I0.0245 J-0.0075
G01 Z0.1 F20
G00 X5.492 Y1.109
G01 Z-0.002
G01 X5.555 Y1.076 F15

G02 X5.5691 Y1.053 I-0.0125 J-0.0235
G01 X5.569 Y1.053
G01 X5.569 Y0.554
G01 X6.307 Y0.554
G01 X6.307 Y1.033
G01 X6.259 Y1.063

G02 X6.255 Y1.066 I0.0135 J0.0225

G02 X6.2825 Y1.109 I-0.0175 J0.0415
G01 X6.284 Y1.109

G02 X6.2871 Y1.1072 I-0.0115 J-0.0235
G01 X6.287 Y1.107
G01 X6.346 Y1.069

G02 X6.3579 Y1.048 I-0.0135 J-0.0215
G01 X6.359 Y1.048
G01 X6.359 Y0.554
G01 X6.687 Y0.554
G01 X6.958 Y1.114

G02 X6.9586 Y1.1158 I0.0245 J-0.0065
G01 X6.958 Y1.116
G01 Z0.1 F20
G00 X5.679 Y1.282
G01 Z-0.002
G01 X5.787 Y1.282 F15

G03 X5.789 Y1.2821 I-0.0005 J0.0255
G01 X5.789 Y1.282

G03 X5.8737 Y1.308 I0.0385 J0.0255
G01 X5.873 Y1.308

G03 X5.7896 Y1.3326 I-0.0455 J-0.0005
G01 X5.789 Y1.333

G03 X5.787 Y1.3331 I-0.0025 J-0.0255
G01 X5.787 Y1.333
G01 X5.679 Y1.333

G03 X5.675 Y1.3328 I-0.0005 J-0.0255
G01 X5.675 Y1.333

G03 X5.675 Y1.282 I-0.0375 J-0.0255

G03 X5.679 Y1.2818 I0.0035 J0.0255
G01 X5.679 Y1.282
G01 Z0.1 F20
G00 X5.779 Y0.648
G01 Z-0.002
G01 X5.779 Y0.943 F15

G03 X5.7657 Y0.9655 I-0.0265 J-0.0005
G01 X5.766 Y0.966
G01 X5.687 Y1.01

G03 X5.683 Y1.012 I-0.0135 J-0.0225

G03 X5.6585 Y0.9669 I-0.0455 J-0.0045
G01 X5.659 Y0.966

G03 X5.6613 Y0.9646 I0.0145 J0.0215
G01 X5.661 Y0.964
G01 X5.727 Y0.926
G01 X5.727 Y0.648

G03 X5.7272 Y0.645 I0.0255 J0.0005
G01 X5.727 Y0.645

G03 X5.7978 Y0.607 I0.0255 J-0.0375
G01 X5.799 Y0.607

G03 X5.7793 Y0.6455 I-0.0465 J0.0005
G01 X5.779 Y0.645

G03 X5.7792 Y0.648 I-0.0265 J0.0035
G01 X5.779 Y0.648
G01 Z0.1 F20
G00 X6.741 Y0.357
G01 Z-0.002
G01 X6.998 Y0.876 F15

G03 X7.0792 Y0.907 I0.0345 J0.0315
G01 X7.078 Y0.907

G03 X6.998 Y0.9372 I-0.0455 J0.0005
G01 X6.997 Y0.938

G03 X6.992 Y0.9386 I-0.0055 J-0.0255
G01 X6.992 Y0.938

G03 X6.991 Y0.9382 I-0.0045 J-0.0255
G01 X6.991 Y0.938
G01 X6.988 Y0.938

G03 X6.965 Y0.9245 I-0.0005 J-0.0255
G01 X6.964 Y0.925
G01 Z0.1 F20
G00 X6.168 Y0.633
G01 Z-0.002
G01 X6.194 Y0.681 F15
G01 X6.196 Y0.681

G03 X6.2 Y0.6812 I0.0005 J0.0265
G01 X6.2 Y0.681

G03 X6.2834 Y0.708 I0.0375 J0.0265
G01 X6.284 Y0.708

G03 X6.199 Y0.7336 I-0.0465 J-0.0005
G01 X6.2 Y0.733

G03 X6.196 Y0.7332 I-0.0035 J-0.0255
G01 X6.196 Y0.733
G01 X6.177 Y0.733

G03 X6.1548 Y0.7191 I0.0005 J-0.0255
G01 X6.155 Y0.719
G01 X6.123 Y0.658

G03 X6.1223 Y0.6568 I0.0225 J-0.0135
G01 X6.122 Y0.657
G01 Z0.1 F20
G00 X6.807 Y0.28
G01 Z-0.002
G01 X6.999 Y0.675 F15
G01 Z0.1 F20
G00 X6.988 Y0.733
G01 Z-0.002
G01 X6.991 Y0.733 F15

G02 X6.992 Y0.7328 I-0.0035 J-0.0255
G01 X6.992 Y0.733

G02 X6.995 Y0.7328 I-0.0005 J-0.0255
G01 X6.995 Y0.733

G02 X7.0778 Y0.708 I0.0375 J-0.0255
G01 X7.078 Y0.708

G02 X7.0003 Y0.6753 I-0.0455 J-0.0005
G01 X7 Y0.675
G01 Z0.1 F20
G00 X6.182 Y0.933
G01 Z-0.002
G01 X6.196 Y0.933 F15

G02 X6.2 Y0.9328 I0.0005 J-0.0255
G01 X6.2 Y0.933

G02 X6.2828 Y0.907 I0.0375 J-0.0255
G01 X6.284 Y0.907

G02 X6.1995 Y0.8807 I-0.0465 J0.0005
G01 X6.2 Y0.881

G02 X6.199 Y0.8809 I-0.0035 J0.0265
G01 X6.199 Y0.881
G01 X6.056 Y0.63

G02 X6.055 Y0.6283 I-0.0235 J0.0135
G01 X6.054 Y0.629

G02 X6.0592 Y0.607 I-0.0415 J-0.0215
G01 X6.058 Y0.607

G02 X6.009 Y0.6529 I-0.0455 J0.0005
G01 X6.009 Y0.653

G02 X6.0108 Y0.6565 I0.0235 J-0.0095
G01 X6.01 Y0.657
G01 X6.16 Y0.921

G02 X6.182 Y0.9337 I0.0225 J-0.0135
G01 X6.182 Y0.933
G01 Z0.1 F20
G00 X6.129 Y0.981
G01 Z-0.002
G01 X6.196 Y0.981 F15

G03 X6.2 Y0.9812 I0.0005 J0.0265
G01 X6.2 Y0.981

G03 X6.2834 Y1.007 I0.0375 J0.0265
G01 X6.284 Y1.007

G03 X6.199 Y1.0336 I-0.0465 J0.0005
G01 X6.2 Y1.033

G03 X6.196 Y1.0332 I-0.0035 J-0.0255
G01 X6.196 Y1.033
G01 X6.113 Y1.033

G03 X6.09 Y1.0195 I-0.0005 J-0.0255
G01 X6.089 Y1.02
G01 X5.899 Y0.657

G03 X5.8986 Y0.6562 I0.0225 J-0.0135
G01 X5.899 Y0.656
G01 Z0.1 F20
G00 X5.945 Y0.631
G01 Z-0.002
G01 X6.129 Y0.981 F15
G01 Z0.1 F20
G00 X5.378 Y1.606
G01 Z-0.002
G01 X6.186 Y1.3 F15

G03 X6.1876 Y1.2991 I0.0135 J0.0225
G01 X6.188 Y1.3
G01 Z0.1 F20
G00 X6.189 Y1.298
G01 Z-0.002
G01 X6.19 Y1.298 F15

G03 X6.1928 Y1.2971 I0.0095 J0.0245
G01 X6.193 Y1.298

G03 X6.283 Y1.308 I0.0445 J0.0095
G01 X6.284 Y1.308

G03 X6.2118 Y1.3463 I-0.0465 J-0.0005
G01 X6.212 Y1.346

G03 X6.2086 Y1.3475 I-0.0125 J-0.0235
G01 X6.208 Y1.346
G01 Z0.1 F20
G00 X5.392 Y1.657
G01 Z-0.002
G01 X5.392 Y1.657 F15

G02 X5.3929 Y1.6567 I-0.0095 J-0.0245
G01 X5.393 Y1.657
G01 Z0.1 F20
G00 X5.397 Y1.655
G01 Z-0.002
G01 X6.207 Y1.347 F15

G02 X6.2079 Y1.3467 I-0.0075 J-0.0245
G01 X6.208 Y1.347
G01 Z0.1 F20
G00 X1.4 Y1.606
G01 Z-0.002
G01 X5.378 Y1.606 F15
G01 Z0.1 F20
G00 X1.392 Y1.658
G01 Z-0.002
G01 X5.383 Y1.658 F15

G02 X5.3917 Y1.6563 I-0.0005 J-0.0255
G01 X5.392 Y1.657
G01 Z0.1 F20
G00 X1.321 Y1.558
G01 Z-0.002
G01 X1.4 Y1.606 F15
G01 Z0.1 F20
G00 X1.293 Y1.601
G01 Z-0.002
G01 X1.379 Y1.655 F15

G02 X1.392 Y1.6587 I0.0135 J-0.0225
G01 X1.392 Y1.658
G01 Z0.1 F20
G00 X6.558 Y0.648
G01 Z-0.002
G01 X6.558 Y0.963 F15

G03 X6.5425 Y0.9859 I-0.0255 J-0.0005
G01 X6.543 Y0.987
G01 X6.48 Y1.015

G02 X6.4828 Y1.0136 I-0.0105 J-0.0245
G01 X6.483 Y1.014
G01 Z0.1 F20
G00 X6.506 Y0.648
G01 Z-0.002
G01 X6.506 Y0.946 F15
G01 X6.458 Y0.966

G02 X6.4564 Y0.9668 I0.0115 J0.0245
G01 X6.457 Y0.968
G01 Z0.1 F20
G00 X6.728 Y0.181
G01 Z-0.002
G01 X6.838 Y0.181 F15

G03 X6.8624 Y0.1985 I-0.0005 J0.0265
G01 X6.861 Y0.199
G01 Z0.1 F20
G00 X6.728 Y0.234
G01 Z-0.002
G01 X6.821 Y0.234 F15
G01 X6.99 Y0.578

G02 X6.9903 Y0.5789 I0.0245 J-0.0075
G01 X6.99 Y0.579
G01 Z0.1 F20
G00 X6.863 Y0.201
G01 Z-0.002
G01 X7.037 Y0.556 F15

G03 X7.0383 Y0.5583 I-0.0225 J0.0145
G01 X7.037 Y0.559
G01 Z0.1 F20
G00 X6.983 Y1.134
G01 Z-0.002
G01 X6.991 Y1.134 F15

G02 X6.995 Y1.1338 I0.0005 J-0.0265
G01 X6.995 Y1.134

G02 X7.0784 Y1.107 I0.0375 J-0.0265
G01 X7.078 Y1.107

G02 X6.9975 Y1.0784 I-0.0455 J0.0005
G01 X6.997 Y1.078
G01 X6.728 Y0.52

G02 X6.7277 Y0.5191 I-0.0255 J0.0075
G01 X6.728 Y0.519

G01 Z0.1 F20
G00 X0.304 Y0.656
G01 Z-0.002
G03 X0.3041 Y0.658 I-0.0265 J0.0025 F15
G01 X0.304 Y0.658

G01 Z0.1 F20
G00 X0.319 Y0.644
G01 Z-0.002
G03 X0.316 Y0.6439 I-0.0005 J-0.0265 F15
G01 X0.316 Y0.644

G03 X0.304 Y0.656 I-0.0385 J-0.0265

G01 Z0.1 F20
G00 X0.928 Y0.569
G01 Z-0.002
G03 X0.9216 Y0.5667 I0.0055 J-0.0255 F15
G01 X0.922 Y0.566

G01 Z0.1 F20
G00 X0.944 Y0.519
G01 Z-0.002
G03 X0.946 Y0.52 I-0.0105 J0.0245 F15

G03 X1.0184 Y0.557 I0.0265 J0.0375
G01 X1.019 Y0.557

G03 X0.9275 Y0.5691 I-0.0465 J0.0005
G01 X0.928 Y0.569

G01 Z0.1 F20
G00 X0.801 Y0.508
G01 Z-0.002
G03 X0.7976 Y0.5069 I0.0065 J-0.0255 F15
G01 X0.798 Y0.506

G01 Z0.1 F20
G00 X0.782 Y0.252
G01 Z-0.002
G03 X0.7937 Y0.2311 I0.0255 J0.0005 F15
G01 X0.793 Y0.23

G01 Z0.1 F20
G00 X6.927 Y0.119
G01 Z-0.002
G03 X6.9273 Y0.1199 I-0.0245 J0.0085 F15
G01 X6.927 Y0.12

G01 Z0.1 F20
G00 X7.151 Y0.576
G01 Z-0.002
G03 X7.1537 Y0.588 I-0.0235 J0.0115 F15
G01 X7.154 Y0.588

G01 Z0.1 F20
G00 X7.083 Y1.009
G01 Z-0.002
G03 X7.0779 Y1.0117 I-0.0145 J-0.0215 F15
G01 X7.078 Y1.012

G03 X7.0535 Y0.9669 I-0.0455 J-0.0045
G01 X7.054 Y0.966

G03 X7.0571 Y0.9642 I0.0145 J0.0215
G01 X7.057 Y0.964

G01 Z0.1 F20
G00 X0.923 Y0.763
G01 Z-0.002
G03 X0.923 Y0.763 I0.0125 J-0.0235 F15

G01 Z0.1 F20
G00 X0.802 Y0.648
G01 Z-0.002
G03 X0.802 Y0.648 I-0.0125 J0.0225 F15

G01 Z0.1 F20
G00 X1.021 Y1.048
G01 Z-0.002
G03 X1.0226 Y1.0487 I-0.0095 J0.0235 F15
G01 X1.023 Y1.048

G01 Z0.1 F20
G00 X1.078 Y1.122
G01 Z-0.002
G03 X1.078 Y1.122 I0.0105 J-0.0235 F15

G01 Z0.1 F20
G00 X1.004 Y0.995
G01 Z-0.002
G03 X1.001 Y0.9939 I0.0075 J-0.0245 F15
G01 X1.001 Y0.994

G01 Z0.1 F20
G00 X1.02 Y0.946
G01 Z-0.002
G03 X1.0209 Y0.9463 I-0.0085 J0.0245 F15
G01 X1.021 Y0.946

G01 Z0.1 F20
G00 X1.224 Y1.068
G01 Z-0.002
G03 X1.224 Y1.068 I0.0095 J-0.0235 F15

G01 Z0.1 F20
G00 X1.177 Y0.914
G01 Z-0.002
G03 X1.1746 Y0.9149 I-0.0105 J-0.0235 F15
G01 X1.175 Y0.916

G01 Z0.1 F20
G00 X1.173 Y0.916
G01 Z-0.002
G03 X1.1718 Y0.9163 I-0.0065 J-0.0255 F15
G01 X1.172 Y0.917

G03 X1.1557 Y0.8651 I-0.0445 J-0.0145
G01 X1.155 Y0.866

G03 X1.1586 Y0.8646 I0.0115 J0.0245
G01 X1.159 Y0.866

G01 Z0.1 F20
G00 X1.292 Y1.201
G01 Z-0.002
G03 X1.2908 Y1.2001 I0.0145 J-0.0205 F15
G01 X1.29 Y1.201

G03 X1.3194 Y1.157 I-0.0175 J-0.0435
G01 X1.318 Y1.157

G03 X1.3216 Y1.1591 I-0.0115 J0.0235
G01 X1.321 Y1.16

G01 Z0.1 F20
G00 X3.026 Y1.341
G01 Z-0.002
G03 X3.0241 Y1.3416 I-0.0085 J-0.0245 F15
G01 X3.024 Y1.341

G01 Z0.1 F20
G00 X1.293 Y1.502
G01 Z-0.002
G03 X1.2896 Y1.4994 I0.0145 J-0.0225 F15
G01 X1.29 Y1.499

G03 X1.3175 Y1.456 I-0.0175 J-0.0415
G01 X1.318 Y1.456

G03 X1.3212 Y1.4577 I-0.0105 J0.0235
G01 X1.321 Y1.458

G01 Z0.1 F20
G00 X4.628 Y1.596
G01 Z-0.002
G03 X4.625 Y1.5971 I-0.0105 J-0.0235 F15
G01 X4.625 Y1.597

G01 Z0.1 F20
G00 X5.397 Y1.295
G01 Z-0.002
G03 X5.3989 Y1.2946 I0.0065 J0.0255 F15
G01 X5.399 Y1.295

G03 X5.4878 Y1.308 I0.0435 J0.0125
G01 X5.489 Y1.308

G03 X5.4152 Y1.3451 I-0.0465 J-0.0005
G01 X5.416 Y1.344

G01 Z0.1 F20
G00 X1.295 Y1.699
G01 Z-0.002
G03 X1.2945 Y1.6987 I0.0135 J-0.0225 F15
G01 X1.295 Y1.698

G01 Z0.1 F20
G00 X1.318 Y1.652
G01 Z-0.002
G03 X1.3208 Y1.6533 I-0.0095 J0.0245 F15
G01 X1.321 Y1.653

G01 Z0.1 F20
G00 X7.005 Y1.346
G01 Z-0.002
G03 X7.0041 Y1.3464 I-0.0105 J-0.0245 F15
G01 X7.004 Y1.346

G01 Z0.1 F20
G00 X1.318 Y0.75
G01 Z-0.002
G03 X1.3302 Y0.7589 I-0.0085 J0.0245 F15
G01 X1.33 Y0.759

G01 Z0.1 F20
G00 X1.303 Y0.394
G01 Z-0.002
G03 X1.3005 Y0.393 I0.0085 J-0.0245 F15
G01 X1.3 Y0.394

G03 X1.3159 Y0.343 I-0.0275 J-0.0365
G01 X1.316 Y0.343

G03 X1.3203 Y0.3441 I-0.0045 J0.0265
G01 X1.32 Y0.345

G01 Z0.1 F20
G00 X1.321 Y0.345
G01 Z-0.002
G03 X1.321 Y0.345 I-0.0095 J0.0245 F15

G01 Z0.1 F20
G00 X1.328 Y0.401
G01 Z-0.002
G03 X1.328 Y0.401 I0.0095 J-0.0235 F15

G01 Z0.1 F20
G00 X1.313 Y0.483
G01 Z-0.002
G03 X1.31 Y0.4828 I0.0005 J-0.0255 F15
G01 X1.31 Y0.483

G03 X1.3095 Y0.4313 I-0.0375 J-0.0255
G01 X1.31 Y0.431

G03 X1.313 Y0.4308 I0.0035 J0.0265
G01 X1.313 Y0.431

G01 Z0.1 F20
G00 X0.857 Y0.287
G01 Z-0.002
G03 X0.8682 Y0.2664 I0.0255 J0.0005 F15
G01 X0.868 Y0.266

G01 Z0.1 F20
G00 X1.994 Y0.889
G01 Z-0.002
G03 X1.9936 Y0.8882 I0.0235 J-0.0125 F15
G01 X1.994 Y0.888

G01 Z0.1 F20
G00 X1.886 Y0.596
G01 Z-0.002
G03 X1.8865 Y0.5972 I-0.0235 J0.0115 F15
G01 X1.887 Y0.597

G01 Z0.1 F20
G00 X1.196 Y0.243
G01 Z-0.002
G03 X1.1977 Y0.2423 I0.0115 J0.0245 F15
G01 X1.198 Y0.243

G01 Z0.1 F20
G00 X1.02 Y0.366
G01 Z-0.002
G03 X1.0177 Y0.3668 I-0.0095 J-0.0235 F15
G01 X1.018 Y0.368

G03 X0.9983 Y0.3186 I-0.0455 J-0.0105
G01 X0.998 Y0.319

G03 X1.0005 Y0.3178 I0.0125 J0.0235
G01 X1.001 Y0.319

G01 Z0.1 F20
G00 X1.002 Y0.317
G01 Z-0.002
G03 X1.0039 Y0.3165 I0.0085 J0.0255 F15
G01 X1.004 Y0.317

G01 Z0.1 F20
G00 X2.547 Y0.648
G01 Z-0.002
G03 X2.5472 Y0.645 I0.0255 J0.0005 F15
G01 X2.547 Y0.645

G03 X2.6178 Y0.607 I0.0255 J-0.0375
G01 X2.619 Y0.607

G03 X2.5993 Y0.6455 I-0.0465 J0.0005
G01 X2.599 Y0.645

G03 X2.5992 Y0.648 I-0.0265 J0.0035
G01 X2.599 Y0.648

G01 Z0.1 F20
G00 X2.882 Y0.631
G01 Z-0.002
G03 X2.8835 Y0.6338 I-0.0225 J0.0135 F15
G01 X2.883 Y0.634

G01 Z0.1 F20
G00 X2.722 Y0.654
G01 Z-0.002
G03 X2.7216 Y0.6531 I0.0245 J-0.0105 F15
G01 X2.722 Y0.653

G03 X2.7733 Y0.607 I0.0055 J-0.0455
G01 X2.774 Y0.607

G03 X2.7686 Y0.6293 I-0.0465 J0.0005
G01 X2.768 Y0.629

G01 Z0.1 F20
G00 X2.768 Y0.63
G01 Z-0.002
G03 X2.7689 Y0.6316 I-0.0215 J0.0135 F15
G01 X2.77 Y0.631

G01 Z0.1 F20
G00 X3.119 Y1.117
G01 Z-0.002
G03 X3.099 Y1.1272 I-0.0205 J-0.0155 F15
G01 X3.099 Y1.127

G03 X3.0889 Y1.0741 I-0.0415 J-0.0195
G01 X3.089 Y1.074

G01 Z0.1 F20
G00 X0.706 Y0.213
G01 Z-0.002
G03 X0.7189 Y0.1898 I0.0265 J-0.0005 F15
G01 X0.719 Y0.19

G01 Z0.1 F20
G00 X3.807 Y0.914
G01 Z-0.002
G03 X3.8029 Y0.9122 I0.0085 J-0.0245 F15
G01 X3.803 Y0.912

G01 Z0.1 F20
G00 X3.826 Y0.866
G01 Z-0.002
G03 X3.8294 Y0.8679 I-0.0105 J0.0235 F15
G01 X3.83 Y0.867

G03 X3.8988 Y0.907 I0.0225 J0.0405
G01 X3.899 Y0.907

G03 X3.8065 Y0.9141 I-0.0465 J0.0005
G01 X3.807 Y0.914

G01 Z0.1 F20
G00 X3.59 Y0.807
G01 Z-0.002
G03 X3.5888 Y0.8066 I0.0075 J-0.0245 F15
G01 X3.589 Y0.806

G01 Z0.1 F20
G00 X3.572 Y0.648
G01 Z-0.002
G03 X3.5722 Y0.645 I0.0255 J0.0005 F15
G01 X3.572 Y0.645

G03 X3.6428 Y0.607 I0.0255 J-0.0375
G01 X3.643 Y0.607

G03 X3.6231 Y0.6451 I-0.0455 J0.0005
G01 X3.623 Y0.645

G03 X3.6232 Y0.648 I-0.0255 J0.0035
G01 X3.623 Y0.648

G01 Z0.1 F20
G00 X3.807 Y1.012
G01 Z-0.002
G03 X3.8046 Y1.0109 I0.0095 J-0.0235 F15
G01 X3.804 Y1.012

G01 Z0.1 F20
G00 X3.487 Y0.713
G01 Z-0.002
G03 X3.4872 Y0.71 I0.0255 J0.0005 F15
G01 X3.487 Y0.71

G03 X3.5578 Y0.672 I0.0255 J-0.0375
G01 X3.559 Y0.672

G03 X3.5393 Y0.7105 I-0.0465 J0.0005
G01 X3.539 Y0.71

G03 X3.5392 Y0.713 I-0.0265 J0.0035
G01 X3.539 Y0.713

G01 Z0.1 F20
G00 X4.136 Y0.648
G01 Z-0.002
G03 X4.1362 Y0.645 I0.0265 J0.0005 F15
G01 X4.136 Y0.645

G03 X4.2084 Y0.607 I0.0265 J-0.0375
G01 X4.208 Y0.607

G03 X4.1881 Y0.6451 I-0.0455 J0.0005
G01 X4.188 Y0.645

G03 X4.1882 Y0.648 I-0.0255 J0.0035
G01 X4.188 Y0.648

G01 Z0.1 F20
G00 X4.603 Y1.015
G01 Z-0.002
G03 X4.5976 Y1.0127 I0.0075 J-0.0255 F15
G01 X4.598 Y1.012

G01 Z0.1 F20
G00 X4.621 Y0.966
G01 Z-0.002
G03 X4.6242 Y0.9677 I-0.0105 J0.0235 F15
G01 X4.624 Y0.968

G03 X4.6935 Y1.007 I0.0235 J0.0395
G01 X4.694 Y1.007

G03 X4.6016 Y1.0152 I-0.0465 J0.0005
G01 X4.603 Y1.015

G01 Z0.1 F20
G00 X4.3 Y0.867
G01 Z-0.002
G03 X4.2988 Y0.8666 I0.0075 J-0.0245 F15
G01 X4.299 Y0.866

G01 Z0.1 F20
G00 X4.281 Y0.718
G01 Z-0.002
G03 X4.2811 Y0.716 I0.0265 J0.0005 F15
G01 X4.281 Y0.716

G03 X4.3542 Y0.677 I0.0265 J-0.0385
G01 X4.353 Y0.677

G03 X4.3326 Y0.7154 I-0.0455 J0.0005
G01 X4.333 Y0.716

G03 X4.3331 Y0.718 I-0.0255 J0.0025
G01 X4.333 Y0.718

G01 Z0.1 F20
G00 X4.603 Y0.914
G01 Z-0.002
G03 X4.5981 Y0.9119 I0.0075 J-0.0245 F15
G01 X4.598 Y0.912

G01 Z0.1 F20
G00 X4.621 Y0.866
G01 Z-0.002
G03 X4.6237 Y0.8674 I-0.0105 J0.0235 F15
G01 X4.624 Y0.867

G03 X4.6943 Y0.907 I0.0235 J0.0405
G01 X4.694 Y0.907

G03 X4.6015 Y0.9142 I-0.0465 J0.0005
G01 X4.603 Y0.914

G01 Z0.1 F20
G00 X4.386 Y0.807
G01 Z-0.002
G03 X4.3839 Y0.8063 I0.0065 J-0.0245 F15
G01 X4.384 Y0.806

G01 Z0.1 F20
G00 X4.366 Y0.648
G01 Z-0.002
G03 X4.3662 Y0.645 I0.0265 J0.0005 F15
G01 X4.366 Y0.645

G03 X4.4384 Y0.607 I0.0265 J-0.0375
G01 X4.438 Y0.607

G03 X4.4181 Y0.6451 I-0.0455 J0.0005
G01 X4.418 Y0.645

G03 X4.4182 Y0.648 I-0.0255 J0.0035
G01 X4.418 Y0.648

G01 Z0.1 F20
G00 X4.917 Y0.648
G01 Z-0.002
G03 X4.9172 Y0.645 I0.0255 J0.0005 F15
G01 X4.917 Y0.645

G03 X4.9878 Y0.607 I0.0255 J-0.0375
G01 X4.989 Y0.607

G03 X4.9693 Y0.6455 I-0.0465 J0.0005
G01 X4.969 Y0.645

G03 X4.9692 Y0.648 I-0.0265 J0.0035
G01 X4.969 Y0.648

G01 Z0.1 F20
G00 X4.89 Y1.015
G01 Z-0.002
G03 X4.8873 Y1.016 I-0.0105 J-0.0245 F15
G01 X4.887 Y1.015

G03 X4.8656 Y0.9687 I-0.0445 J-0.0075
G01 X4.866 Y0.968

G01 Z0.1 F20
G00 X5.317 Y0.656
G01 Z-0.002
G03 X5.3157 Y0.6528 I0.0235 J-0.0115 F15
G01 X5.315 Y0.653

G03 X5.3686 Y0.607 I0.0075 J-0.0455
G01 X5.368 Y0.607

G03 X5.3623 Y0.6296 I-0.0455 J0.0005
G01 X5.363 Y0.63

G03 X5.3645 Y0.6327 I-0.0225 J0.0145
G01 X5.364 Y0.633

G01 Z0.1 F20
G00 X5.208 Y0.658
G01 Z-0.002
G03 X5.2076 Y0.6572 I0.0225 J-0.0135 F15
G01 X5.208 Y0.657

G01 Z0.1 F20
G00 X5.207 Y0.656
G01 Z-0.002
G03 X5.2058 Y0.6531 I0.0235 J-0.0115 F15
G01 X5.206 Y0.653

G03 X5.2585 Y0.607 I0.0065 J-0.0455
G01 X5.259 Y0.607

G03 X5.2532 Y0.6301 I-0.0465 J0.0005
G01 X5.253 Y0.63

G03 X5.2553 Y0.6345 I-0.0225 J0.0145
G01 X5.254 Y0.635

G01 Z0.1 F20
G00 X5.255 Y0.636
G01 Z-0.002
G03 X5.2556 Y0.6378 I-0.0245 J0.0085 F15
G01 X5.255 Y0.638

G01 Z0.1 F20
G00 X5.098 Y0.658
G01 Z-0.002
G03 X5.0973 Y0.6568 I0.0225 J-0.0135 F15
G01 X5.097 Y0.657

G01 Z0.1 F20
G00 X5.096 Y0.656
G01 Z-0.002
G03 X5.0949 Y0.6534 I0.0245 J-0.0115 F15
G01 X5.096 Y0.653

G03 X5.1485 Y0.607 I0.0065 J-0.0455
G01 X5.149 Y0.607

G03 X5.1429 Y0.6305 I-0.0465 J0.0005
G01 X5.142 Y0.63

G03 X5.1445 Y0.6348 I-0.0215 J0.0145
G01 X5.144 Y0.635

G01 Z0.1 F20
G00 X5.146 Y0.636
G01 Z-0.002
G03 X5.1465 Y0.6379 I-0.0255 J0.0085 F15
G01 X5.146 Y0.638

G01 Z0.1 F20
G00 X5.492 Y1.109
G01 Z-0.002
G03 X5.4904 Y1.1099 I-0.0135 J-0.0215 F15
G01 X5.491 Y1.111

G01 Z0.1 F20
G00 X6.741 Y0.356
G01 Z-0.002
G03 X6.7414 Y0.3568 I-0.0235 J0.0115 F15
G01 X6.741 Y0.357

G01 Z0.1 F20
G00 X6.122 Y0.656
G01 Z-0.002
G03 X6.1208 Y0.6531 I0.0235 J-0.0115 F15
G01 X6.121 Y0.653

G03 X6.1735 Y0.607 I0.0065 J-0.0455
G01 X6.174 Y0.607

G03 X6.1682 Y0.6301 I-0.0465 J0.0005
G01 X6.168 Y0.63

G03 X6.1693 Y0.6323 I-0.0225 J0.0145
G01 X6.168 Y0.633

G01 Z0.1 F20
G00 X6.807 Y0.28
G01 Z-0.002
G03 X6.807 Y0.28 I-0.0245 J0.0075 F15

G01 Z0.1 F20
G00 X6.988 Y0.733
G01 Z-0.002
G03 X6.9639 Y0.7171 I-0.0005 J-0.0255 F15
G01 X6.964 Y0.717

G01 Z0.1 F20
G00 X6.16 Y0.92
G01 Z-0.002
G03 X6.159 Y0.918 I0.0225 J-0.0125 F15

G01 Z0.1 F20
G00 X6.056 Y0.631
G01 Z-0.002
G03 X6.057 Y0.633 I-0.0235 J0.0125 F15

G01 Z0.1 F20
G00 X5.898 Y0.654
G01 Z-0.002
G03 X5.8976 Y0.6531 I0.0235 J-0.0105 F15
G01 X5.898 Y0.653

G03 X5.9482 Y0.607 I0.0045 J-0.0455
G01 X5.949 Y0.607

G03 X5.9438 Y0.6289 I-0.0465 J0.0005
G01 X5.944 Y0.629

G01 Z0.1 F20
G00 X5.944 Y0.63
G01 Z-0.002
G03 X5.9447 Y0.6312 I-0.0225 J0.0135 F15
G01 X5.945 Y0.631

G01 Z0.1 F20
G00 X6.188 Y1.298
G01 Z-0.002
G03 X6.1888 Y1.2976 I0.0115 J0.0245 F15
G01 X6.189 Y1.298

G01 Z0.1 F20
G00 X5.397 Y1.655
G01 Z-0.002
G03 X5.3947 Y1.6563 I-0.0145 J-0.0225 F15
G01 X5.394 Y1.655

G01 Z0.1 F20
G00 X1.293 Y1.601
G01 Z-0.002
G03 X1.2902 Y1.5988 I0.0145 J-0.0215 F15
G01 X1.29 Y1.599

G03 X1.3175 Y1.555 I-0.0175 J-0.0415
G01 X1.318 Y1.555

G03 X1.3217 Y1.5569 I-0.0105 J0.0245
G01 X1.321 Y1.558

G01 Z0.1 F20
G00 X6.506 Y0.648
G01 Z-0.002
G03 X6.5062 Y0.645 I0.0265 J0.0005 F15
G01 X6.506 Y0.645

G03 X6.5784 Y0.607 I0.0265 J-0.0375
G01 X6.578 Y0.607

G03 X6.5581 Y0.6451 I-0.0455 J0.0005
G01 X6.558 Y0.645

G03 X6.5582 Y0.648 I-0.0255 J0.0035
G01 X6.558 Y0.648

G01 Z0.1 F20
G00 X6.479 Y1.015
G01 Z-0.002
G03 X6.4781 Y1.0153 I-0.0095 J-0.0245 F15
G01 X6.478 Y1.015

G03 X6.4561 Y0.9679 I-0.0455 J-0.0075
G01 X6.456 Y0.968

G01 Z0.1 F20
G00 X6.728 Y0.234
G01 Z-0.002
G03 X6.726 Y0.2339 I0.0005 J-0.0265 F15
G01 X6.726 Y0.234

G03 X6.726 Y0.181 I-0.0385 J-0.0265

G03 X6.728 Y0.1809 I0.0025 J0.0265
G01 X6.728 Y0.181

G01 Z0.1 F20
G00 X6.863 Y0.199
G01 Z-0.002
G03 X6.8635 Y0.2009 I-0.0255 J0.0085 F15
G01 X6.863 Y0.201

G01 Z0.1 F20
G00 X6.992 Y0.584
G01 Z-0.002
G03 X6.9898 Y0.5794 I0.0225 J-0.0135 F15
G01 X6.991 Y0.579

G01 Z0.1 F20
G00 X7.038 Y0.56
G01 Z-0.002
G03 X7.0388 Y0.5621 I-0.0235 J0.0105 F15
G01 X7.039 Y0.562

G03 X7.0785 Y0.607 I-0.0065 J0.0455
G01 X7.078 Y0.607

G03 X6.9931 Y0.5847 I-0.0455 J0.0005
G01 X6.992 Y0.584

G01 Z0.1 F20
G00 X6.983 Y1.134
G01 Z-0.002
G03 X6.9578 Y1.1171 I-0.0005 J-0.0265 F15
G01 X6.958 Y1.117

G01 Z0.1 F20
G00 X0.798 Y0.752
G01 Z-0.002
G03 X0.798 Y0.752 I-0.0455 J0.0005 F15

G01 Z0.1 F20
G00 X1.295 Y0.797
G01 Z-0.002
G03 X1.3174 Y0.7501 I-0.0225 J-0.0395 F15
G01 X1.318 Y0.75

G01 Z0.1 F20
G00 X1.318 Y0.958
G01 Z-0.002
G03 X1.318 Y0.958 I-0.0455 J-0.0005 F15

G01 Z0.1 F20
G00 X1.293 Y1.698
G01 Z-0.002
G03 X1.3176 Y1.6521 I-0.0205 J-0.0405 F15
G01 X1.318 Y1.652

G01 Z0.1 F20
G00 X1.708 Y1.007
G01 Z-0.002
G03 X1.708 Y1.007 I-0.0455 J0.0005 F15

G01 Z0.1 F20
G00 X1.708 Y1.107
G01 Z-0.002
G03 X1.708 Y1.107 I-0.0455 J0.0005 F15

G01 Z0.1 F20
G00 X1.708 Y1.208
G01 Z-0.002
G03 X1.708 Y1.208 I-0.0455 J-0.0005 F15

G01 Z0.1 F20
G00 X1.708 Y1.308
G01 Z-0.002
G03 X1.708 Y1.308 I-0.0455 J-0.0005 F15

G01 Z0.1 F20
G00 X2.309 Y0.607
G01 Z-0.002
G03 X2.309 Y0.607 I-0.0465 J0.0005 F15

G01 Z0.1 F20
G00 X2.309 Y0.708
G01 Z-0.002
G03 X2.309 Y0.708 I-0.0465 J-0.0005 F15

G01 Z0.1 F20
G00 X2.309 Y0.807
G01 Z-0.002
G03 X2.309 Y0.807 I-0.0465 J0.0005 F15

G01 Z0.1 F20
G00 X2.309 Y0.907
G01 Z-0.002
G03 X2.309 Y0.907 I-0.0465 J0.0005 F15

G01 Z0.1 F20
G00 X2.309 Y1.107
G01 Z-0.002
G03 X2.309 Y1.107 I-0.0465 J0.0005 F15

G01 Z0.1 F20
G00 X2.309 Y1.308
G01 Z-0.002
G03 X2.309 Y1.308 I-0.0465 J-0.0005 F15

G01 Z0.1 F20
G00 X2.504 Y0.607
G01 Z-0.002
G03 X2.504 Y0.607 I-0.0465 J0.0005 F15

G01 Z0.1 F20
G00 X2.504 Y0.708
G01 Z-0.002
G03 X2.504 Y0.708 I-0.0465 J-0.0005 F15

G01 Z0.1 F20
G00 X2.504 Y0.807
G01 Z-0.002
G03 X2.504 Y0.807 I-0.0465 J0.0005 F15

G01 Z0.1 F20
G00 X2.504 Y0.907
G01 Z-0.002
G03 X2.504 Y0.907 I-0.0465 J0.0005 F15

G01 Z0.1 F20
G00 X2.504 Y1.107
G01 Z-0.002
G03 X2.504 Y1.107 I-0.0465 J0.0005 F15

G01 Z0.1 F20
G00 X3.103 Y0.607
G01 Z-0.002
G03 X3.103 Y0.607 I-0.0455 J0.0005 F15

G01 Z0.1 F20
G00 X3.103 Y0.807
G01 Z-0.002
G03 X3.103 Y0.807 I-0.0455 J0.0005 F15

G01 Z0.1 F20
G00 X3.299 Y0.607
G01 Z-0.002
G03 X3.299 Y0.607 I-0.0465 J0.0005 F15

G01 Z0.1 F20
G00 X3.299 Y0.708
G01 Z-0.002
G03 X3.299 Y0.708 I-0.0465 J-0.0005 F15

G01 Z0.1 F20
G00 X3.299 Y0.807
G01 Z-0.002
G03 X3.299 Y0.807 I-0.0465 J0.0005 F15

G01 Z0.1 F20
G00 X3.299 Y0.907
G01 Z-0.002
G03 X3.299 Y0.907 I-0.0465 J0.0005 F15

G01 Z0.1 F20
G00 X3.299 Y1.107
G01 Z-0.002
G03 X3.299 Y1.107 I-0.0465 J0.0005 F15

G01 Z0.1 F20
G00 X3.899 Y0.807
G01 Z-0.002
G03 X3.899 Y0.807 I-0.0465 J0.0005 F15

G01 Z0.1 F20
G00 X3.899 Y1.007
G01 Z-0.002
G03 X3.8062 Y1.0121 I-0.0465 J0.0005 F15
G01 X3.807 Y1.012

G01 Z0.1 F20
G00 X3.832 Y0.966
G01 Z-0.002
G03 X3.8988 Y1.007 I0.0205 J0.0415 F15
G01 X3.899 Y1.007

G01 Z0.1 F20
G00 X4.094 Y0.607
G01 Z-0.002
G03 X4.094 Y0.607 I-0.0465 J0.0005 F15

G01 Z0.1 F20
G00 X4.094 Y0.708
G01 Z-0.002
G03 X4.094 Y0.708 I-0.0465 J-0.0005 F15

G01 Z0.1 F20
G00 X4.094 Y0.807
G01 Z-0.002
G03 X4.094 Y0.807 I-0.0465 J0.0005 F15

G01 Z0.1 F20
G00 X4.094 Y0.907
G01 Z-0.002
G03 X4.094 Y0.907 I-0.0465 J0.0005 F15

G01 Z0.1 F20
G00 X4.094 Y1.107
G01 Z-0.002
G03 X4.094 Y1.107 I-0.0465 J0.0005 F15

G01 Z0.1 F20
G00 X4.694 Y0.807
G01 Z-0.002
G03 X4.694 Y0.807 I-0.0465 J0.0005 F15

G01 Z0.1 F20
G00 X4.888 Y0.607
G01 Z-0.002
G03 X4.888 Y0.607 I-0.0455 J0.0005 F15

G01 Z0.1 F20
G00 X4.888 Y0.708
G01 Z-0.002
G03 X4.888 Y0.708 I-0.0455 J-0.0005 F15

G01 Z0.1 F20
G00 X4.888 Y0.807
G01 Z-0.002
G03 X4.888 Y0.807 I-0.0455 J0.0005 F15

G01 Z0.1 F20
G00 X4.888 Y0.907
G01 Z-0.002
G03 X4.888 Y0.907 I-0.0455 J0.0005 F15

G01 Z0.1 F20
G00 X4.888 Y1.107
G01 Z-0.002
G03 X4.888 Y1.107 I-0.0455 J0.0005 F15

G01 Z0.1 F20
G00 X5.489 Y0.607
G01 Z-0.002
G03 X5.489 Y0.607 I-0.0465 J0.0005 F15

G01 Z0.1 F20
G00 X5.489 Y0.807
G01 Z-0.002
G03 X5.489 Y0.807 I-0.0465 J0.0005 F15

G01 Z0.1 F20
G00 X5.683 Y0.607
G01 Z-0.002
G03 X5.683 Y0.607 I-0.0455 J0.0005 F15

G01 Z0.1 F20
G00 X5.683 Y0.708
G01 Z-0.002
G03 X5.683 Y0.708 I-0.0455 J-0.0005 F15

G01 Z0.1 F20
G00 X5.683 Y0.807
G01 Z-0.002
G03 X5.683 Y0.807 I-0.0455 J0.0005 F15

G01 Z0.1 F20
G00 X5.683 Y0.907
G01 Z-0.002
G03 X5.683 Y0.907 I-0.0455 J0.0005 F15

G01 Z0.1 F20
G00 X5.683 Y1.107
G01 Z-0.002
G03 X5.683 Y1.107 I-0.0455 J0.0005 F15

G01 Z0.1 F20
G00 X6.284 Y0.607
G01 Z-0.002
G03 X6.284 Y0.607 I-0.0465 J0.0005 F15

G01 Z0.1 F20
G00 X6.284 Y0.807
G01 Z-0.002
G03 X6.284 Y0.807 I-0.0465 J0.0005 F15

G01 Z0.1 F20
G00 X6.478 Y0.607
G01 Z-0.002
G03 X6.478 Y0.607 I-0.0455 J0.0005 F15

G01 Z0.1 F20
G00 X6.478 Y0.708
G01 Z-0.002
G03 X6.478 Y0.708 I-0.0455 J-0.0005 F15

G01 Z0.1 F20
G00 X6.478 Y0.807
G01 Z-0.002
G03 X6.478 Y0.807 I-0.0455 J0.0005 F15

G01 Z0.1 F20
G00 X6.478 Y0.907
G01 Z-0.002
G03 X6.478 Y0.907 I-0.0455 J0.0005 F15

G01 Z0.1 F20
G00 X6.478 Y1.107
G01 Z-0.002
G03 X6.478 Y1.107 I-0.0455 J0.0005 F15

G01 Z0.1 F20
G00 X6.478 Y1.308
G01 Z-0.002
G03 X6.478 Y1.308 I-0.0455 J-0.0005 F15

G01 Z0.1 F20
G00 X6.683 Y0.607
G01 Z-0.002
G03 X6.683 Y0.607 I-0.0455 J0.0005 F15

G01 Z0.1 F20
G00 X7.078 Y0.807
G01 Z-0.002
G03 X7.078 Y0.807 I-0.0455 J0.0005 F15

G01 Z0.1 F20
G00 X7.078 Y1.208
G01 Z-0.002
G03 X7.078 Y1.208 I-0.0455 J-0.0005 F15
(... pad touchdown start ...)
G00 Z0.25
G00 X0.278 Y0.517
G01 Z-0.005 F20
G04 P0.25
G00 Z0.25
G00 X0.278 Y0.617
G01 Z-0.005
G04 P0.25
G00 Z0.25
G00 X0.278 Y0.808
G01 Z-0.005
G04 P0.25
G00 Z0.25
G00 X0.278 Y0.908
G01 Z-0.005
G04 P0.25
G00 Z0.25
G00 X0.278 Y1.008
G01 Z-0.005
G04 P0.25
G00 Z0.25
G00 X0.278 Y1.183
G01 Z-0.005
G04 P0.25
G00 Z0.25
G00 X0.278 Y1.458
G01 Z-0.005
G04 P0.25
G00 Z0.25
G00 X0.358 Y1.283
G01 Z-0.005
G04 P0.25
G00 Z0.25
G00 X0.358 Y1.558
G01 Z-0.005
G04 P0.25
G00 Z0.25
G00 X0.438 Y1.383
G01 Z-0.005
G04 P0.25
G00 Z0.25
G00 X0.438 Y1.658
G01 Z-0.005
G04 P0.25
G00 Z0.25
G00 X0.483 Y0.617
G01 Z-0.005
G04 P0.25
G00 Z0.25
G00 X0.483 Y0.718
G01 Z-0.005
G04 P0.25
G00 Z0.25
G00 X0.592 Y0.958
G01 Z-0.005
G04 P0.25
G00 Z0.25
G00 X0.592 Y1.058
G01 Z-0.005
G04 P0.25
G00 Z0.25
G00 X0.592 Y1.158
G01 Z-0.005
G04 P0.25
G00 Z0.25
G00 X0.592 Y1.258
G01 Z-0.005
G04 P0.25
G00 Z0.25
G00 X0.592 Y1.357
G01 Z-0.005
G04 P0.25
G00 Z0.25
G00 X0.753 Y0.652
G01 Z-0.005
G04 P0.25
G00 Z0.25
G00 X0.753 Y0.752
G01 Z-0.005
G04 P0.25
G00 Z0.25
G00 X0.753 Y0.852
G01 Z-0.005
G04 P0.25
G00 Z0.25
G00 X0.858 Y0.958
G01 Z-0.005
G04 P0.25
G00 Z0.25
G00 X0.858 Y1.058
G01 Z-0.005
G04 P0.25
G00 Z0.25
G00 X0.972 Y0.357
G01 Z-0.005
G04 P0.25
G00 Z0.25
G00 X0.972 Y0.458
G01 Z-0.005
G04 P0.25
G00 Z0.25
G00 X0.972 Y0.558
G01 Z-0.005
G04 P0.25
G00 Z0.25
G00 X0.972 Y0.658
G01 Z-0.005
G04 P0.25
G00 Z0.25
G00 X0.972 Y0.757
G01 Z-0.005
G04 P0.25
G00 Z0.25
G00 X0.972 Y0.857
G01 Z-0.005
G04 P0.25
G00 Z0.25
G00 X0.972 Y0.958
G01 Z-0.005
G04 P0.25
G00 Z0.25
G00 X0.972 Y1.058
G01 Z-0.005
G04 P0.25
G00 Z0.25
G00 X0.972 Y1.158
G01 Z-0.005
G04 P0.25
G00 Z0.25
G00 X0.972 Y1.258
G01 Z-0.005
G04 P0.25
G00 Z0.25
G00 X0.972 Y1.357
G01 Z-0.005
G04 P0.25
G00 Z0.25
G00 X0.972 Y1.458
G01 Z-0.005
G04 P0.25
G00 Z0.25
G00 X0.972 Y1.558
G01 Z-0.005
G04 P0.25
G00 Z0.25
G00 X0.972 Y1.658
G01 Z-0.005
G04 P0.25
G00 Z0.25
G00 X1.128 Y0.902
G01 Z-0.005
G04 P0.25
G00 Z0.25
G00 X1.128 Y1.112
G01 Z-0.005
G04 P0.25
G00 Z0.25
G00 X1.273 Y0.357
G01 Z-0.005
G04 P0.25
G00 Z0.25
G00 X1.273 Y0.458
G01 Z-0.005
G04 P0.25
G00 Z0.25
G00 X1.273 Y0.558
G01 Z-0.005
G04 P0.25
G00 Z0.25
G00 X1.273 Y0.658
G01 Z-0.005
G04 P0.25
G00 Z0.25
G00 X1.273 Y0.757
G01 Z-0.005
G04 P0.25
G00 Z0.25
G00 X1.273 Y0.857
G01 Z-0.005
G04 P0.25
G00 Z0.25
G00 X1.273 Y0.958
G01 Z-0.005
G04 P0.25
G00 Z0.25
G00 X1.273 Y1.058
G01 Z-0.005
G04 P0.25
G00 Z0.25
G00 X1.273 Y1.158
G01 Z-0.005
G04 P0.25
G00 Z0.25
G00 X1.273 Y1.258
G01 Z-0.005
G04 P0.25
G00 Z0.25
G00 X1.273 Y1.357
G01 Z-0.005
G04 P0.25
G00 Z0.25
G00 X1.273 Y1.458
G01 Z-0.005
G04 P0.25
G00 Z0.25
G00 X1.273 Y1.558
G01 Z-0.005
G04 P0.25
G00 Z0.25
G00 X1.273 Y1.658
G01 Z-0.005
G04 P0.25
G00 Z0.25
G00 X1.438 Y0.208
G01 Z-0.005
G04 P0.25
G00 Z0.25
G00 X1.438 Y0.642
G01 Z-0.005
G04 P0.25
G00 Z0.25
G00 X1.497 Y0.813
G01 Z-0.005
G04 P0.25
G00 Z0.25
G00 X1.497 Y1.088
G01 Z-0.005
G04 P0.25
G00 Z0.25
G00 X1.662 Y0.607
G01 Z-0.005
G04 P0.25
G00 Z0.25
G00 X1.662 Y0.708
G01 Z-0.005
G04 P0.25
G00 Z0.25
G00 X1.662 Y0.808
G01 Z-0.005
G04 P0.25
G00 Z0.25
G00 X1.662 Y0.908
G01 Z-0.005
G04 P0.25
G00 Z0.25
G00 X1.662 Y1.008
G01 Z-0.005
G04 P0.25
G00 Z0.25
G00 X1.662 Y1.107
G01 Z-0.005
G04 P0.25
G00 Z0.25
G00 X1.662 Y1.208
G01 Z-0.005
G04 P0.25
G00 Z0.25
G00 X1.662 Y1.308
G01 Z-0.005
G04 P0.25
G00 Z0.25
G00 X1.782 Y0.448
G01 Z-0.005
G04 P0.25
G00 Z0.25
G00 X1.782 Y0.708
G01 Z-0.005
G04 P0.25
G00 Z0.25
G00 X2.037 Y0.913
G01 Z-0.005
G04 P0.25
G00 Z0.25
G00 X2.037 Y1.128
G01 Z-0.005
G04 P0.25
G00 Z0.25
G00 X2.262 Y0.607
G01 Z-0.005
G04 P0.25
G00 Z0.25
G00 X2.262 Y0.708
G01 Z-0.005
G04 P0.25
G00 Z0.25
G00 X2.262 Y0.808
G01 Z-0.005
G04 P0.25
G00 Z0.25
G00 X2.262 Y0.908
G01 Z-0.005
G04 P0.25
G00 Z0.25
G00 X2.262 Y1.008
G01 Z-0.005
G04 P0.25
G00 Z0.25
G00 X2.262 Y1.107
G01 Z-0.005
G04 P0.25
G00 Z0.25
G00 X2.262 Y1.208
G01 Z-0.005
G04 P0.25
G00 Z0.25
G00 X2.262 Y1.308
G01 Z-0.005
G04 P0.25
G00 Z0.25
G00 X2.458 Y0.607
G01 Z-0.005
G04 P0.25
G00 Z0.25
G00 X2.458 Y0.708
G01 Z-0.005
G04 P0.25
G00 Z0.25
G00 X2.458 Y0.808
G01 Z-0.005
G04 P0.25
G00 Z0.25
G00 X2.458 Y0.908
G01 Z-0.005
G04 P0.25
G00 Z0.25
G00 X2.458 Y1.008
G01 Z-0.005
G04 P0.25
G00 Z0.25
G00 X2.458 Y1.107
G01 Z-0.005
G04 P0.25
G00 Z0.25
G00 X2.458 Y1.208
G01 Z-0.005
G04 P0.25
G00 Z0.25
G00 X2.458 Y1.308
G01 Z-0.005
G04 P0.25
G00 Z0.25
G00 X2.572 Y0.208
G01 Z-0.005
G04 P0.25
G00 Z0.25
G00 X2.572 Y0.607
G01 Z-0.005
G04 P0.25
G00 Z0.25
G00 X2.648 Y0.448
G01 Z-0.005
G04 P0.25
G00 Z0.25
G00 X2.648 Y1.308
G01 Z-0.005
G04 P0.25
G00 Z0.25
G00 X2.728 Y0.127
G01 Z-0.005
G04 P0.25
G00 Z0.25
G00 X2.728 Y0.607
G01 Z-0.005
G04 P0.25
G00 Z0.25
G00 X2.842 Y0.368
G01 Z-0.005
G04 P0.25
G00 Z0.25
G00 X2.842 Y0.607
G01 Z-0.005
G04 P0.25
G00 Z0.25
G00 X2.952 Y0.287
G01 Z-0.005
G04 P0.25
G00 Z0.25
G00 X2.952 Y0.607
G01 Z-0.005
G04 P0.25
G00 Z0.25
G00 X3.057 Y0.607
G01 Z-0.005
G04 P0.25
G00 Z0.25
G00 X3.057 Y0.708
G01 Z-0.005
G04 P0.25
G00 Z0.25
G00 X3.057 Y0.808
G01 Z-0.005
G04 P0.25
G00 Z0.25
G00 X3.057 Y0.908
G01 Z-0.005
G04 P0.25
G00 Z0.25
G00 X3.057 Y1.008
G01 Z-0.005
G04 P0.25
G00 Z0.25
G00 X3.057 Y1.107
G01 Z-0.005
G04 P0.25
G00 Z0.25
G00 X3.057 Y1.208
G01 Z-0.005
G04 P0.25
G00 Z0.25
G00 X3.057 Y1.308
G01 Z-0.005
G04 P0.25
G00 Z0.25
G00 X3.253 Y0.607
G01 Z-0.005
G04 P0.25
G00 Z0.25
G00 X3.253 Y0.708
G01 Z-0.005
G04 P0.25
G00 Z0.25
G00 X3.253 Y0.808
G01 Z-0.005
G04 P0.25
G00 Z0.25
G00 X3.253 Y0.908
G01 Z-0.005
G04 P0.25
G00 Z0.25
G00 X3.253 Y1.008
G01 Z-0.005
G04 P0.25
G00 Z0.25
G00 X3.253 Y1.107
G01 Z-0.005
G04 P0.25
G00 Z0.25
G00 X3.253 Y1.208
G01 Z-0.005
G04 P0.25
G00 Z0.25
G00 X3.253 Y1.308
G01 Z-0.005
G04 P0.25
G00 Z0.25
G00 X3.372 Y0.208
G01 Z-0.005
G04 P0.25
G00 Z0.25
G00 X3.372 Y0.607
G01 Z-0.005
G04 P0.25
G00 Z0.25
G00 X3.448 Y0.448
G01 Z-0.005
G04 P0.25
G00 Z0.25
G00 X3.448 Y1.308
G01 Z-0.005
G04 P0.25
G00 Z0.25
G00 X3.513 Y0.127
G01 Z-0.005
G04 P0.25
G00 Z0.25
G00 X3.513 Y0.673
G01 Z-0.005
G04 P0.25
G00 Z0.25
G00 X3.597 Y0.368
G01 Z-0.005
G04 P0.25
G00 Z0.25
G00 X3.597 Y0.607
G01 Z-0.005
G04 P0.25
G00 Z0.25
G00 X3.682 Y0.287
G01 Z-0.005
G04 P0.25
G00 Z0.25
G00 X3.682 Y0.708
G01 Z-0.005
G04 P0.25
G00 Z0.25
G00 X3.757 Y0.047
G01 Z-0.005
G04 P0.25
G00 Z0.25
G00 X3.757 Y0.607
G01 Z-0.005
G04 P0.25
G00 Z0.25
G00 X3.853 Y0.607
G01 Z-0.005
G04 P0.25
G00 Z0.25
G00 X3.853 Y0.708
G01 Z-0.005
G04 P0.25
G00 Z0.25
G00 X3.853 Y0.808
G01 Z-0.005
G04 P0.25
G00 Z0.25
G00 X3.853 Y0.908
G01 Z-0.005
G04 P0.25
G00 Z0.25
G00 X3.853 Y1.008
G01 Z-0.005
G04 P0.25
G00 Z0.25
G00 X3.853 Y1.107
G01 Z-0.005
G04 P0.25
G00 Z0.25
G00 X3.853 Y1.208
G01 Z-0.005
G04 P0.25
G00 Z0.25
G00 X3.853 Y1.308
G01 Z-0.005
G04 P0.25
G00 Z0.25
G00 X4.047 Y0.607
G01 Z-0.005
G04 P0.25
G00 Z0.25
G00 X4.047 Y0.708
G01 Z-0.005
G04 P0.25
G00 Z0.25
G00 X4.047 Y0.808
G01 Z-0.005
G04 P0.25
G00 Z0.25
G00 X4.047 Y0.908
G01 Z-0.005
G04 P0.25
G00 Z0.25
G00 X4.047 Y1.008
G01 Z-0.005
G04 P0.25
G00 Z0.25
G00 X4.047 Y1.107
G01 Z-0.005
G04 P0.25
G00 Z0.25
G00 X4.047 Y1.208
G01 Z-0.005
G04 P0.25
G00 Z0.25
G00 X4.047 Y1.308
G01 Z-0.005
G04 P0.25
G00 Z0.25
G00 X4.162 Y0.208
G01 Z-0.005
G04 P0.25
G00 Z0.25
G00 X4.162 Y0.607
G01 Z-0.005
G04 P0.25
G00 Z0.25
G00 X4.242 Y0.448
G01 Z-0.005
G04 P0.25
G00 Z0.25
G00 X4.242 Y1.308
G01 Z-0.005
G04 P0.25
G00 Z0.25
G00 X4.307 Y0.127
G01 Z-0.005
G04 P0.25
G00 Z0.25
G00 X4.307 Y0.678
G01 Z-0.005
G04 P0.25
G00 Z0.25
G00 X4.392 Y0.368
G01 Z-0.005
G04 P0.25
G00 Z0.25
G00 X4.392 Y0.607
G01 Z-0.005
G04 P0.25
G00 Z0.25
G00 X4.487 Y0.287
G01 Z-0.005
G04 P0.25
G00 Z0.25
G00 X4.487 Y0.708
G01 Z-0.005
G04 P0.25
G00 Z0.25
G00 X4.557 Y0.047
G01 Z-0.005
G04 P0.25
G00 Z0.25
G00 X4.557 Y0.607
G01 Z-0.005
G04 P0.25
G00 Z0.25
G00 X4.648 Y0.607
G01 Z-0.005
G04 P0.25
G00 Z0.25
G00 X4.648 Y0.708
G01 Z-0.005
G04 P0.25
G00 Z0.25
G00 X4.648 Y0.808
G01 Z-0.005
G04 P0.25
G00 Z0.25
G00 X4.648 Y0.908
G01 Z-0.005
G04 P0.25
G00 Z0.25
G00 X4.648 Y1.008
G01 Z-0.005
G04 P0.25
G00 Z0.25
G00 X4.648 Y1.107
G01 Z-0.005
G04 P0.25
G00 Z0.25
G00 X4.648 Y1.208
G01 Z-0.005
G04 P0.25
G00 Z0.25
G00 X4.648 Y1.308
G01 Z-0.005
G04 P0.25
G00 Z0.25
G00 X4.843 Y0.607
G01 Z-0.005
G04 P0.25
G00 Z0.25
G00 X4.843 Y0.708
G01 Z-0.005
G04 P0.25
G00 Z0.25
G00 X4.843 Y0.808
G01 Z-0.005
G04 P0.25
G00 Z0.25
G00 X4.843 Y0.908
G01 Z-0.005
G04 P0.25
G00 Z0.25
G00 X4.843 Y1.008
G01 Z-0.005
G04 P0.25
G00 Z0.25
G00 X4.843 Y1.107
G01 Z-0.005
G04 P0.25
G00 Z0.25
G00 X4.843 Y1.208
G01 Z-0.005
G04 P0.25
G00 Z0.25
G00 X4.843 Y1.308
G01 Z-0.005
G04 P0.25
G00 Z0.25
G00 X4.942 Y0.208
G01 Z-0.005
G04 P0.25
G00 Z0.25
G00 X4.942 Y0.607
G01 Z-0.005
G04 P0.25
G00 Z0.25
G00 X5.017 Y0.448
G01 Z-0.005
G04 P0.25
G00 Z0.25
G00 X5.017 Y1.308
G01 Z-0.005
G04 P0.25
G00 Z0.25
G00 X5.103 Y0.127
G01 Z-0.005
G04 P0.25
G00 Z0.25
G00 X5.103 Y0.607
G01 Z-0.005
G04 P0.25
G00 Z0.25
G00 X5.213 Y0.368
G01 Z-0.005
G04 P0.25
G00 Z0.25
G00 X5.213 Y0.607
G01 Z-0.005
G04 P0.25
G00 Z0.25
G00 X5.322 Y0.287
G01 Z-0.005
G04 P0.25
G00 Z0.25
G00 X5.322 Y0.607
G01 Z-0.005
G04 P0.25
G00 Z0.25
G00 X5.443 Y0.607
G01 Z-0.005
G04 P0.25
G00 Z0.25
G00 X5.443 Y0.708
G01 Z-0.005
G04 P0.25
G00 Z0.25
G00 X5.443 Y0.808
G01 Z-0.005
G04 P0.25
G00 Z0.25
G00 X5.443 Y0.908
G01 Z-0.005
G04 P0.25
G00 Z0.25
G00 X5.443 Y1.008
G01 Z-0.005
G04 P0.25
G00 Z0.25
G00 X5.443 Y1.107
G01 Z-0.005
G04 P0.25
G00 Z0.25
G00 X5.443 Y1.208
G01 Z-0.005
G04 P0.25
G00 Z0.25
G00 X5.443 Y1.308
G01 Z-0.005
G04 P0.25
G00 Z0.25
G00 X5.637 Y0.607
G01 Z-0.005
G04 P0.25
G00 Z0.25
G00 X5.637 Y0.708
G01 Z-0.005
G04 P0.25
G00 Z0.25
G00 X5.637 Y0.808
G01 Z-0.005
G04 P0.25
G00 Z0.25
G00 X5.637 Y0.908
G01 Z-0.005
G04 P0.25
G00 Z0.25
G00 X5.637 Y1.008
G01 Z-0.005
G04 P0.25
G00 Z0.25
G00 X5.637 Y1.107
G01 Z-0.005
G04 P0.25
G00 Z0.25
G00 X5.637 Y1.208
G01 Z-0.005
G04 P0.25
G00 Z0.25
G00 X5.637 Y1.308
G01 Z-0.005
G04 P0.25
G00 Z0.25
G00 X5.753 Y0.208
G01 Z-0.005
G04 P0.25
G00 Z0.25
G00 X5.753 Y0.607
G01 Z-0.005
G04 P0.25
G00 Z0.25
G00 X5.827 Y0.448
G01 Z-0.005
G04 P0.25
G00 Z0.25
G00 X5.827 Y1.308
G01 Z-0.005
G04 P0.25
G00 Z0.25
G00 X5.902 Y0.127
G01 Z-0.005
G04 P0.25
G00 Z0.25
G00 X5.902 Y0.607
G01 Z-0.005
G04 P0.25
G00 Z0.25
G00 X6.012 Y0.368
G01 Z-0.005
G04 P0.25
G00 Z0.25
G00 X6.012 Y0.607
G01 Z-0.005
G04 P0.25
G00 Z0.25
G00 X6.128 Y0.287
G01 Z-0.005
G04 P0.25
G00 Z0.25
G00 X6.128 Y0.607
G01 Z-0.005
G04 P0.25
G00 Z0.25
G00 X6.237 Y0.607
G01 Z-0.005
G04 P0.25
G00 Z0.25
G00 X6.237 Y0.708
G01 Z-0.005
G04 P0.25
G00 Z0.25
G00 X6.237 Y0.808
G01 Z-0.005
G04 P0.25
G00 Z0.25
G00 X6.237 Y0.908
G01 Z-0.005
G04 P0.25
G00 Z0.25
G00 X6.237 Y1.008
G01 Z-0.005
G04 P0.25
G00 Z0.25
G00 X6.237 Y1.107
G01 Z-0.005
G04 P0.25
G00 Z0.25
G00 X6.237 Y1.208
G01 Z-0.005
G04 P0.25
G00 Z0.25
G00 X6.237 Y1.308
G01 Z-0.005
G04 P0.25
G00 Z0.25
G00 X6.432 Y0.607
G01 Z-0.005
G04 P0.25
G00 Z0.25
G00 X6.432 Y0.708
G01 Z-0.005
G04 P0.25
G00 Z0.25
G00 X6.432 Y0.808
G01 Z-0.005
G04 P0.25
G00 Z0.25
G00 X6.432 Y0.908
G01 Z-0.005
G04 P0.25
G00 Z0.25
G00 X6.432 Y1.008
G01 Z-0.005
G04 P0.25
G00 Z0.25
G00 X6.432 Y1.107
G01 Z-0.005
G04 P0.25
G00 Z0.25
G00 X6.432 Y1.208
G01 Z-0.005
G04 P0.25
G00 Z0.25
G00 X6.432 Y1.308
G01 Z-0.005
G04 P0.25
G00 Z0.25
G00 X6.532 Y0.208
G01 Z-0.005
G04 P0.25
G00 Z0.25
G00 X6.532 Y0.607
G01 Z-0.005
G04 P0.25
G00 Z0.25
G00 X6.637 Y0.448
G01 Z-0.005
G04 P0.25
G00 Z0.25
G00 X6.637 Y0.607
G01 Z-0.005
G04 P0.25
G00 Z0.25
G00 X6.688 Y0.047
G01 Z-0.005
G04 P0.25
G00 Z0.25
G00 X6.688 Y0.208
G01 Z-0.005
G04 P0.25
G00 Z0.25
G00 X7.032 Y0.607
G01 Z-0.005
G04 P0.25
G00 Z0.25
G00 X7.032 Y0.708
G01 Z-0.005
G04 P0.25
G00 Z0.25
G00 X7.032 Y0.808
G01 Z-0.005
G04 P0.25
G00 Z0.25
G00 X7.032 Y0.908
G01 Z-0.005
G04 P0.25
G00 Z0.25
G00 X7.032 Y1.008
G01 Z-0.005
G04 P0.25
G00 Z0.25
G00 X7.032 Y1.107
G01 Z-0.005
G04 P0.25
G00 Z0.25
G00 X7.032 Y1.208
G01 Z-0.005
G04 P0.25
G00 Z0.25
G00 X7.032 Y1.308
G01 Z-0.005
G04 P0.25
G00 Z0.25
(... pad touchdown end ...)
G00 Z0.25
G00 X0 Y0
M05 (Stop spindle)
M02 (Program End)

